;FLAVOR:Marlin
;TIME:1587
;Filament used: 1.18789m
;Layer height: 0.2
;MINX:69.251
;MINY:73.862
;MINZ:0.3
;MAXX:130.748
;MAXY:149.976
;MAXZ:5.4
;Generated with Cura_SteamEngine mb-master-20191116
M140 S70
M105
M190 S70
M104 S220
M105
M109 S220
M82 ;absolute extrusion mode
;Sliced at: Fri 26-11-2021 12:33:16
G21 ;metric values
M107
G28
M420 S1
G90 ;absolute positioning
G92 E0; reset extruder distance
G1 X0 Y0 Z5 F5000 ;move nozzle up 5mm for safe homing
G29;ABL
M500
M82 ;set extruder to absolute mode
M107 ;start with the fan off
G1 X0 Y0 Z15.0 F5000 ;move the platform down 15mm
G92 E0 ;zero the extruded length
G1 F200 E3 ;extrude 3mm of feed stock
G1 F200 E0 ;Retract
G4 S2 ;Wait for material to fall
G1 F200 E3
G92 E0 ;zero the extruded length again
M117 Printing...
G92 E0
;WIPE
G91
G1 X -20 F3000
G1 X40
G1 X-20
G90

G92 E0
G1 F2400 E-1
;LAYER_COUNT:24
;LAYER:0
M107
G1 F600 Z0.8
G0 F4800 X74.346 Y103.717 Z0.8
;TYPE:SKIRT
G1 F600 Z0.3
G1 F2400 E0.02495
G1 F1080 X116.112 Y74.885 E2.30373
G1 X116.233 Y74.808 E2.31017
G1 X116.775 Y74.494 E2.3383
G1 X117.029 Y74.373 E2.35093
G1 X117.615 Y74.147 E2.37913
G1 X117.883 Y74.067 E2.39169
G1 X118.499 Y73.934 E2.41999
G1 X118.781 Y73.896 E2.43276
G1 X119.406 Y73.862 E2.46087
G1 X119.687 Y73.868 E2.47349
G1 X120.314 Y73.932 E2.50179
G1 X120.594 Y73.984 E2.51458
G1 X121.199 Y74.145 E2.54269
G1 X121.463 Y74.237 E2.55524
G1 X122.036 Y74.49 E2.58336
G1 X122.288 Y74.627 E2.59624
G1 X122.817 Y74.97 E2.62455
G1 X123.04 Y75.14 E2.63714
G1 X123.505 Y75.557 E2.66519
G1 X123.7 Y75.762 E2.67789
G1 X124.097 Y76.251 E2.70617
G1 X124.181 Y76.363 E2.71246
G1 X130.43 Y85.415 E3.20635
G1 X130.612 Y85.748 E3.22339
G1 X130.719 Y86.112 E3.24042
G1 X130.748 Y86.489 E3.2574
G1 X130.698 Y86.865 E3.27443
G1 X130.57 Y87.222 E3.29146
G1 X130.37 Y87.543 E3.30844
G1 X130.107 Y87.816 E3.32547
G1 X129.792 Y88.028 E3.34251
G1 X129.441 Y88.169 E3.3595
G1 X129.067 Y88.234 E3.37654
G1 X128.657 Y88.214 E3.39497
G1 X127.673 Y88.052 E3.43975
G1 X126.631 Y87.91 E3.48697
G1 X125.693 Y87.813 E3.52931
G1 X124.776 Y87.747 E3.57059
G1 X123.856 Y87.715 E3.61193
G1 X122.981 Y87.717 E3.65122
G1 X122.156 Y87.754 E3.6883
G1 X121.32 Y87.829 E3.72599
G1 X120.574 Y87.931 E3.75979
G1 X119.845 Y88.07 E3.79312
G1 X119.111 Y88.253 E3.82708
G1 X118.44 Y88.465 E3.85868
G1 X117.798 Y88.712 E3.88957
G1 X117.188 Y88.995 E3.91976
G1 X116.615 Y89.314 E3.94921
G1 X116.068 Y89.668 E3.97846
G1 X115.543 Y90.063 E4.00796
G1 X115.047 Y90.495 E4.0375
G1 X114.568 Y90.974 E4.06791
G1 X114.116 Y91.491 E4.09875
G1 X113.673 Y92.064 E4.13127
G1 X113.274 Y92.65 E4.1631
G1 X112.861 Y93.335 E4.19902
G1 X112.502 Y94.005 E4.23315
G1 X112.149 Y94.748 E4.27008
G1 X111.809 Y95.548 E4.30911
G1 X111.501 Y96.364 E4.34827
G1 X111.205 Y97.248 E4.39013
G1 X110.941 Y98.142 E4.43199
G1 X110.699 Y99.064 E4.47479
G1 X110.46 Y100.096 E4.52235
G1 X110.259 Y101.115 E4.56899
G1 X110.147 Y101.477 E4.586
G1 X109.961 Y101.807 E4.60301
G1 X109.711 Y102.092 E4.62004
G1 X109.406 Y102.317 E4.63705
G1 X109.061 Y102.474 E4.65407
G1 X108.691 Y102.555 E4.67108
G1 X108.312 Y102.557 E4.6881
G1 X107.941 Y102.479 E4.70512
G1 X107.594 Y102.326 E4.72215
G1 X107.288 Y102.103 E4.73915
G1 X107.017 Y101.796 E4.75754
G1 X104.284 Y97.878 E4.97203
G1 X104.057 Y97.6 E4.98815
G1 X103.96 Y97.523 E4.99371
G1 X103.834 Y97.459 E5.00005
G1 X103.714 Y97.426 E5.00564
G1 X103.569 Y97.414 E5.01217
G1 X103.442 Y97.429 E5.01792
G1 X103.301 Y97.476 E5.02459
G1 X103.122 Y97.575 E5.03377
G1 X87.608 Y108.285 E5.88024
G1 X87.072 Y108.705 E5.91082
G1 X86.626 Y109.151 E5.93914
G1 X86.24 Y109.645 E5.96729
G1 X85.915 Y110.182 E5.99547
G1 X85.657 Y110.754 E6.02365
G1 X85.473 Y111.347 E6.05152
G1 X85.358 Y111.972 E6.08006
G1 X85.317 Y112.655 E6.11078
G1 X85.317 Y141.93 E7.42526
G1 X85.313 Y142.047 E7.43052
G1 X85.26 Y142.86 E7.4671
G1 X85.229 Y143.095 E7.47774
G1 X85.069 Y143.898 E7.51451
G1 X85.01 Y144.121 E7.52487
G1 X84.75 Y144.892 E7.5614
G1 X84.657 Y145.115 E7.57225
G1 X84.295 Y145.847 E7.60892
G1 X84.181 Y146.046 E7.61921
G1 X83.728 Y146.727 E7.65594
G1 X83.583 Y146.916 E7.66664
G1 X83.047 Y147.528 E7.70316
G1 X82.882 Y147.694 E7.71367
G1 X82.269 Y148.233 E7.75032
G1 X82.084 Y148.375 E7.7608
G1 X81.405 Y148.831 E7.79752
G1 X81.201 Y148.95 E7.80813
G1 X80.469 Y149.313 E7.84481
G1 X80.249 Y149.404 E7.8555
G1 X79.479 Y149.666 E7.89202
G1 X79.255 Y149.726 E7.90244
G1 X78.453 Y149.888 E7.93917
G1 X78.221 Y149.92 E7.94969
G1 X77.408 Y149.976 E7.98628
G1 X77.16 Y149.976 E7.99742
G1 X76.346 Y149.92 E8.03405
G1 X76.114 Y149.888 E8.04457
G1 X75.312 Y149.726 E8.08131
G1 X75.088 Y149.666 E8.09172
G1 X74.318 Y149.404 E8.12824
G1 X74.097 Y149.312 E8.13899
G1 X73.366 Y148.949 E8.17563
G1 X73.164 Y148.832 E8.18612
G1 X72.484 Y148.376 E8.22288
G1 X72.298 Y148.233 E8.23341
G1 X71.685 Y147.694 E8.27006
G1 X71.519 Y147.527 E8.28064
G1 X70.984 Y146.915 E8.31714
G1 X70.841 Y146.728 E8.32771
G1 X70.387 Y146.047 E8.36446
G1 X70.271 Y145.845 E8.37492
G1 X69.91 Y145.113 E8.41156
G1 X69.818 Y144.892 E8.42231
G1 X69.558 Y144.121 E8.45885
G1 X69.499 Y143.898 E8.4692
G1 X69.339 Y143.095 E8.50597
G1 X69.308 Y142.86 E8.51661
G1 X69.255 Y142.048 E8.55315
G1 X69.251 Y141.931 E8.5584
G1 X69.251 Y113.428 E9.83822
G1 X69.254 Y113.332 E9.84254
G1 X69.311 Y112.261 E9.89069
G1 X69.331 Y112.069 E9.89936
G1 X69.503 Y111.007 E9.94767
G1 X69.544 Y110.818 E9.95635
G1 X69.828 Y109.785 E10.00445
G1 X69.89 Y109.6 E10.01322
G1 X70.285 Y108.602 E10.06141
G1 X70.365 Y108.428 E10.07001
G1 X70.864 Y107.477 E10.11823
G1 X70.963 Y107.31 E10.12695
G1 X71.562 Y106.417 E10.17523
G1 X71.677 Y106.265 E10.18379
G1 X72.365 Y105.443 E10.23192
G1 X72.499 Y105.299 E10.24075
G1 X73.273 Y104.557 E10.28889
G1 X73.417 Y104.433 E10.29743
G1 X74.267 Y103.775 E10.34569
G1 X74.346 Y103.717 E10.35009
G0 F4800 X74.574 Y104.046
G1 F1080 X116.34 Y75.214 E12.62888
G1 X116.433 Y75.155 E12.63383
G1 X116.975 Y74.841 E12.66195
G1 X117.173 Y74.746 E12.67181
G1 X117.759 Y74.52 E12.70001
G1 X117.968 Y74.458 E12.7098
G1 X118.584 Y74.325 E12.7381
G1 X118.803 Y74.295 E12.74802
G1 X119.428 Y74.261 E12.77613
G1 X119.646 Y74.266 E12.78592
G1 X120.273 Y74.33 E12.81422
G1 X120.491 Y74.37 E12.82417
G1 X121.096 Y74.531 E12.85228
G1 X121.301 Y74.603 E12.86204
G1 X121.874 Y74.856 E12.89016
G1 X122.071 Y74.962 E12.90021
G1 X122.6 Y75.305 E12.92852
G1 X122.773 Y75.438 E12.93831
G1 X123.238 Y75.855 E12.96636
G1 X123.39 Y76.015 E12.97627
G1 X123.787 Y76.504 E13.00455
G1 X123.852 Y76.591 E13.00943
G1 X130.101 Y85.643 E13.50332
G1 X130.257 Y85.938 E13.5183
G1 X130.338 Y86.262 E13.5333
G1 X130.34 Y86.596 E13.54829
G1 X130.263 Y86.921 E13.56329
G1 X130.111 Y87.219 E13.57831
G1 X129.893 Y87.472 E13.59331
G1 X129.621 Y87.666 E13.60831
G1 X129.311 Y87.79 E13.6233
G1 X128.98 Y87.838 E13.63832
G1 X128.722 Y87.819 E13.64993
G1 X127.718 Y87.654 E13.69562
G1 X126.696 Y87.515 E13.74193
G1 X125.732 Y87.415 E13.78545
G1 X124.79 Y87.347 E13.82785
G1 X123.869 Y87.315 E13.86923
G1 X122.985 Y87.317 E13.90893
G1 X122.102 Y87.356 E13.94861
G1 X121.296 Y87.429 E13.98495
G1 X120.501 Y87.537 E14.02097
G1 X119.744 Y87.682 E14.05558
G1 X119.01 Y87.865 E14.08955
G1 X118.302 Y88.088 E14.12288
G1 X117.647 Y88.341 E14.15441
G1 X117.003 Y88.64 E14.18629
G1 X116.417 Y88.966 E14.2164
G1 X115.832 Y89.344 E14.24767
G1 X115.292 Y89.75 E14.27801
G1 X114.776 Y90.2 E14.30875
G1 X114.281 Y90.695 E14.34018
G1 X113.804 Y91.24 E14.3727
G1 X113.356 Y91.821 E14.40564
G1 X112.925 Y92.453 E14.43999
G1 X112.524 Y93.118 E14.47486
G1 X112.146 Y93.823 E14.51078
G1 X111.768 Y94.619 E14.55034
G1 X111.442 Y95.386 E14.58776
G1 X111.118 Y96.245 E14.62899
G1 X110.835 Y97.09 E14.669
G1 X110.55 Y98.055 E14.71418
G1 X110.309 Y98.974 E14.75684
G1 X110.064 Y100.034 E14.80569
G1 X109.866 Y101.038 E14.85164
G1 X109.763 Y101.355 E14.8666
G1 X109.587 Y101.639 E14.88161
G1 X109.349 Y101.874 E14.89662
G1 X109.062 Y102.045 E14.91163
G1 X108.743 Y102.143 E14.92661
G1 X108.41 Y102.164 E14.94159
G1 X108.081 Y102.104 E14.95661
G1 X107.776 Y101.968 E14.9716
G1 X107.511 Y101.764 E14.98662
G1 X107.345 Y101.567 E14.99819
G1 X104.603 Y97.635 E15.21343
G1 X104.339 Y97.313 E15.23212
G1 X104.176 Y97.184 E15.24146
G1 X103.982 Y97.086 E15.25122
G1 X103.782 Y97.03 E15.26054
G1 X103.562 Y97.013 E15.27045
G1 X103.35 Y97.038 E15.28003
G1 X103.147 Y97.105 E15.28963
G1 X102.902 Y97.241 E15.30221
G1 X87.381 Y107.955 E16.14904
G1 X86.803 Y108.408 E16.18201
G1 X86.325 Y108.886 E16.21237
G1 X85.913 Y109.414 E16.24244
G1 X85.557 Y110.002 E16.2733
G1 X85.283 Y110.608 E16.30317
G1 X85.083 Y111.254 E16.33353
G1 X84.96 Y111.925 E16.36416
G1 X84.917 Y112.631 E16.39592
G1 X84.917 Y141.93 E17.71148
G1 X84.914 Y142.021 E17.71557
G1 X84.861 Y142.834 E17.75215
G1 X84.837 Y143.017 E17.76044
G1 X84.677 Y143.82 E17.7972
G1 X84.631 Y143.993 E17.80524
G1 X84.371 Y144.764 E17.84177
G1 X84.299 Y144.938 E17.85023
G1 X83.937 Y145.67 E17.8869
G1 X83.848 Y145.824 E17.89488
G1 X83.395 Y146.505 E17.93161
G1 X83.282 Y146.652 E17.93993
G1 X82.746 Y147.264 E17.97646
G1 X82.617 Y147.393 E17.98465
G1 X82.004 Y147.932 E18.0213
G1 X81.861 Y148.043 E18.02943
G1 X81.182 Y148.499 E18.06616
G1 X81.023 Y148.591 E18.07441
G1 X80.291 Y148.954 E18.11109
G1 X80.12 Y149.025 E18.11941
G1 X79.35 Y149.287 E18.15593
G1 X79.176 Y149.334 E18.16402
G1 X78.374 Y149.496 E18.20076
G1 X78.193 Y149.521 E18.20896
G1 X77.38 Y149.577 E18.24555
G1 X77.188 Y149.577 E18.25417
G1 X76.374 Y149.521 E18.29081
G1 X76.193 Y149.496 E18.29901
G1 X75.391 Y149.334 E18.33575
G1 X75.217 Y149.287 E18.34385
G1 X74.447 Y149.025 E18.38037
G1 X74.275 Y148.954 E18.38872
G1 X73.544 Y148.591 E18.42537
G1 X73.387 Y148.5 E18.43352
G1 X72.707 Y148.044 E18.47028
G1 X72.563 Y147.932 E18.47847
G1 X71.95 Y147.393 E18.51512
G1 X71.82 Y147.263 E18.52338
G1 X71.285 Y146.651 E18.55987
G1 X71.174 Y146.507 E18.56804
G1 X70.72 Y145.826 E18.60479
G1 X70.629 Y145.668 E18.61298
G1 X70.268 Y144.936 E18.64962
G1 X70.197 Y144.764 E18.65798
G1 X69.937 Y143.993 E18.69451
G1 X69.891 Y143.82 E18.70255
G1 X69.731 Y143.017 E18.73931
G1 X69.707 Y142.834 E18.7476
G1 X69.654 Y142.022 E18.78414
G1 X69.651 Y141.931 E18.78823
G1 X69.651 Y113.428 E20.06805
G1 X69.653 Y113.354 E20.07137
G1 X69.71 Y112.283 E20.11953
G1 X69.726 Y112.133 E20.1263
G1 X69.898 Y111.071 E20.17461
G1 X69.93 Y110.924 E20.18136
G1 X70.214 Y109.891 E20.22947
G1 X70.262 Y109.747 E20.23628
G1 X70.657 Y108.749 E20.28447
G1 X70.719 Y108.614 E20.29115
G1 X71.218 Y107.663 E20.33937
G1 X71.295 Y107.533 E20.34615
G1 X71.894 Y106.64 E20.39443
G1 X71.983 Y106.521 E20.40111
G1 X72.671 Y105.699 E20.44924
G1 X72.776 Y105.587 E20.45613
G1 X73.55 Y104.845 E20.50427
G1 X73.662 Y104.749 E20.5109
G1 X74.512 Y104.091 E20.55916
G1 X74.574 Y104.046 E20.5626
G0 F4800 X74.801 Y104.375
G1 F1080 X116.567 Y75.543 E22.84139
G1 X116.634 Y75.501 E22.84494
G1 X117.176 Y75.187 E22.87307
G1 X117.317 Y75.119 E22.8801
G1 X117.903 Y74.893 E22.9083
G1 X118.052 Y74.849 E22.91527
G1 X118.668 Y74.716 E22.94357
G1 X118.825 Y74.694 E22.95069
G1 X119.45 Y74.66 E22.97879
G1 X119.606 Y74.664 E22.9858
G1 X120.233 Y74.728 E23.0141
G1 X120.388 Y74.757 E23.02118
G1 X120.993 Y74.918 E23.04929
G1 X121.14 Y74.969 E23.05628
G1 X121.713 Y75.222 E23.0844
G1 X121.853 Y75.298 E23.09155
G1 X122.382 Y75.641 E23.11986
G1 X122.506 Y75.736 E23.12688
G1 X122.971 Y76.153 E23.15492
G1 X123.079 Y76.267 E23.16197
G1 X123.476 Y76.756 E23.19025
G1 X123.523 Y76.818 E23.19375
G1 X129.772 Y85.87 E23.68764
G1 X129.898 Y86.122 E23.70029
G1 X129.948 Y86.4 E23.71297
G1 X129.919 Y86.681 E23.72565
G1 X129.813 Y86.942 E23.7383
G1 X129.638 Y87.163 E23.75096
G1 X129.408 Y87.327 E23.76364
G1 X129.141 Y87.419 E23.77632
G1 X128.787 Y87.425 E23.79222
G1 X127.765 Y87.257 E23.83873
G1 X126.758 Y87.12 E23.88436
G1 X125.75 Y87.015 E23.92986
G1 X124.806 Y86.947 E23.97236
G1 X123.882 Y86.915 E24.01387
G1 X122.968 Y86.917 E24.05491
G1 X122.092 Y86.956 E24.09429
G1 X121.25 Y87.032 E24.13225
G1 X120.425 Y87.144 E24.16963
G1 X119.668 Y87.289 E24.20424
G1 X118.905 Y87.479 E24.23954
G1 X118.17 Y87.711 E24.27415
G1 X117.483 Y87.976 E24.30721
G1 X116.829 Y88.279 E24.33958
G1 X116.203 Y88.628 E24.37176
G1 X115.603 Y89.016 E24.40384
G1 X115.043 Y89.437 E24.4353
G1 X114.497 Y89.913 E24.46782
G1 X113.987 Y90.423 E24.50021
G1 X113.492 Y90.989 E24.53397
G1 X113.035 Y91.58 E24.56752
G1 X112.593 Y92.23 E24.60281
G1 X112.17 Y92.931 E24.63957
G1 X111.785 Y93.649 E24.67615
G1 X111.414 Y94.43 E24.71498
G1 X111.076 Y95.225 E24.75377
G1 X110.739 Y96.118 E24.79662
G1 X110.446 Y96.994 E24.8381
G1 X110.166 Y97.941 E24.88244
G1 X109.919 Y98.884 E24.92621
G1 X109.681 Y99.913 E24.97363
G1 X109.474 Y100.96 E25.02155
G1 X109.381 Y101.226 E25.03421
G1 X109.217 Y101.456 E25.04689
G1 X108.995 Y101.631 E25.05958
G1 X108.734 Y101.737 E25.07223
G1 X108.453 Y101.765 E25.08491
G1 X108.176 Y101.714 E25.09756
G1 X107.923 Y101.588 E25.11025
G1 X107.673 Y101.338 E25.12612
G1 X104.927 Y97.401 E25.34165
G1 X104.618 Y97.023 E25.36357
G1 X104.396 Y96.848 E25.37627
G1 X104.127 Y96.711 E25.38982
G1 X103.849 Y96.633 E25.40279
G1 X103.556 Y96.611 E25.41598
G1 X103.263 Y96.645 E25.42922
G1 X102.985 Y96.736 E25.44236
G1 X102.695 Y96.898 E25.45727
G1 X87.134 Y107.64 E26.30629
G1 X86.537 Y108.108 E26.34035
G1 X86.028 Y108.617 E26.37267
G1 X85.582 Y109.187 E26.40517
G1 X85.205 Y109.812 E26.43795
G1 X84.907 Y110.471 E26.47042
G1 X84.694 Y111.157 E26.50267
G1 X84.562 Y111.879 E26.53563
G1 X84.517 Y112.623 E26.5691
G1 X84.517 Y141.93 E27.88502
G1 X84.515 Y141.995 E27.88794
G1 X84.462 Y142.808 E27.92452
G1 X84.445 Y142.938 E27.9304
G1 X84.285 Y143.741 E27.96717
G1 X84.252 Y143.866 E27.97297
G1 X83.992 Y144.637 E28.00951
G1 X83.94 Y144.76 E28.0155
G1 X83.578 Y145.492 E28.05217
G1 X83.515 Y145.603 E28.0579
G1 X83.062 Y146.284 E28.09463
G1 X82.981 Y146.389 E28.10058
G1 X82.445 Y147.001 E28.13711
G1 X82.353 Y147.093 E28.14295
G1 X81.74 Y147.632 E28.1796
G1 X81.638 Y147.711 E28.1854
G1 X80.959 Y148.167 E28.22212
G1 X80.845 Y148.233 E28.22804
G1 X80.113 Y148.596 E28.26472
G1 X79.991 Y148.647 E28.27066
G1 X79.221 Y148.909 E28.30718
G1 X79.097 Y148.942 E28.31294
G1 X78.295 Y149.104 E28.34968
G1 X78.166 Y149.122 E28.35553
G1 X77.353 Y149.178 E28.39212
G1 X77.215 Y149.178 E28.39832
G1 X76.401 Y149.122 E28.43495
G1 X76.272 Y149.104 E28.4408
G1 X75.47 Y148.942 E28.47754
G1 X75.346 Y148.909 E28.4833
G1 X74.576 Y148.647 E28.51982
G1 X74.453 Y148.596 E28.5258
G1 X73.722 Y148.233 E28.56245
G1 X73.61 Y148.168 E28.56826
G1 X72.93 Y147.712 E28.60502
G1 X72.827 Y147.632 E28.61088
G1 X72.214 Y147.093 E28.64753
G1 X72.121 Y147 E28.65344
G1 X71.586 Y146.388 E28.68994
G1 X71.507 Y146.285 E28.69576
G1 X71.053 Y145.604 E28.73251
G1 X70.988 Y145.491 E28.73837
G1 X70.627 Y144.759 E28.77501
G1 X70.576 Y144.637 E28.78095
G1 X70.316 Y143.866 E28.81749
G1 X70.283 Y143.741 E28.82329
G1 X70.123 Y142.938 E28.86006
G1 X70.106 Y142.808 E28.86594
G1 X70.053 Y141.996 E28.90248
G1 X70.051 Y141.931 E28.9054
G1 X70.051 Y113.428 E30.18522
G1 X70.052 Y113.375 E30.1876
G1 X70.109 Y112.304 E30.23576
G1 X70.121 Y112.197 E30.24059
G1 X70.293 Y111.135 E30.2889
G1 X70.316 Y111.03 E30.29372
G1 X70.6 Y109.997 E30.34183
G1 X70.634 Y109.894 E30.3467
G1 X71.029 Y108.896 E30.39489
G1 X71.073 Y108.799 E30.39967
G1 X71.572 Y107.848 E30.4479
G1 X71.628 Y107.756 E30.45273
G1 X72.227 Y106.863 E30.50101
G1 X72.29 Y106.778 E30.50576
G1 X72.978 Y105.956 E30.55389
G1 X73.053 Y105.876 E30.55882
G1 X73.827 Y105.134 E30.60696
G1 X73.907 Y105.065 E30.61171
G1 X74.757 Y104.407 E30.65997
G1 X74.801 Y104.375 E30.66241
G0 F4800 X75.028 Y104.704
G1 F1080 X116.794 Y75.872 E32.9412
