;FLAVOR:Marlin
;TIME:191
;Filament used: 0.0613901m
;Layer height: 0.2
;MINX:121.532
;MINY:43.082
;MINZ:0.3
;MAXX:134.064
;MAXY:54.859
;MAXZ:12.4
;Generated with Cura_SteamEngine mb-master-20191116
M140 S70
M105
M190 S70
M104 S220
M105
M109 S220
M82 ;absolute extrusion mode
;Sliced at: Fri 26-11-2021 11:40:32
G21 ;metric values
M107
G28
M420 S1
G90 ;absolute positioning
G92 E0; reset extruder distance
G1 X0 Y0 Z5 F5000 ;move nozzle up 5mm for safe homing
G29;ABL
M500
M82 ;set extruder to absolute mode
M107 ;start with the fan off
G1 X0 Y0 Z15.0 F5000 ;move the platform down 15mm
G92 E0 ;zero the extruded length
G1 F200 E3 ;extrude 3mm of feed stock
G1 F200 E0 ;Retract
G4 S2 ;Wait for material to fall
G1 F200 E3
G92 E0 ;zero the extruded length again
M117 Printing...
G92 E0
;WIPE
G91
G1 X -20 F3000
G1 X40
G1 X-20
G90

G92 E0
G1 F2400 E-1
;LAYER_COUNT:59
;LAYER:0
M107
G1 F600 Z0.8
G0 F4800 X121.79 Y47.655 Z0.8
;TYPE:SKIRT
G1 F600 Z0.3
G1 F2400 E0.02495
G1 F1080 X121.979 Y47.273 E0.04408
G1 X123.414 Y44.784 E0.17308
G1 X123.709 Y44.354 E0.1965
G1 X124.065 Y43.973 E0.21991
G1 X124.475 Y43.652 E0.24329
G1 X124.93 Y43.397 E0.26671
G1 X125.418 Y43.215 E0.2901
G1 X125.929 Y43.109 E0.31353
G1 X126.36 Y43.082 E0.33292
G1 X129.235 Y43.082 E0.46201
G1 X129.755 Y43.122 E0.48543
G1 X130.262 Y43.241 E0.50881
G1 X130.745 Y43.436 E0.5322
G1 X131.193 Y43.702 E0.5556
G1 X131.595 Y44.034 E0.57901
G1 X131.941 Y44.424 E0.60242
G1 X132.18 Y44.783 E0.62178
G1 X133.616 Y47.272 E0.75081
G1 X133.841 Y47.742 E0.7742
G1 X133.992 Y48.241 E0.79761
G1 X134.064 Y48.757 E0.82101
G1 X134.057 Y49.278 E0.8444
G1 X133.97 Y49.792 E0.86781
G1 X133.806 Y50.287 E0.89122
G1 X133.616 Y50.671 E0.91046
G1 X132.18 Y53.159 E1.03945
G1 X131.885 Y53.589 E1.06286
G1 X131.529 Y53.969 E1.08624
G1 X131.118 Y54.29 E1.10966
G1 X130.664 Y54.544 E1.13302
G1 X130.175 Y54.726 E1.15644
G1 X129.665 Y54.832 E1.17983
G1 X129.235 Y54.859 E1.19918
G1 X126.36 Y54.859 E1.32827
G1 X125.84 Y54.819 E1.35169
G1 X125.333 Y54.7 E1.37507
G1 X124.85 Y54.505 E1.39846
G1 X124.402 Y54.239 E1.42185
G1 X124 Y53.907 E1.44526
G1 X123.654 Y53.517 E1.46867
G1 X123.415 Y53.158 E1.48804
G1 X121.98 Y50.67 E1.617
G1 X121.755 Y50.2 E1.6404
G1 X121.604 Y49.701 E1.66381
G1 X121.532 Y49.185 E1.6872
G1 X121.539 Y48.664 E1.7106
G1 X121.626 Y48.15 E1.734
G1 X121.79 Y47.655 E1.75742
G0 F4800 X122.053 Y48.103
G1 F1080 X122.326 Y47.473 E1.78825
G1 X123.761 Y44.984 E1.91725
G1 X124.039 Y44.581 E1.93923
G1 X124.379 Y44.229 E1.96121
G1 X124.772 Y43.937 E1.98319
G1 X125.207 Y43.712 E2.00518
G1 X125.673 Y43.562 E2.02716
G1 X126.36 Y43.482 E2.05822
G1 X129.235 Y43.482 E2.18731
G1 X129.723 Y43.522 E2.2093
G1 X130.198 Y43.641 E2.23128
G1 X130.647 Y43.835 E2.25324
G1 X131.059 Y44.1 E2.27524
G1 X131.422 Y44.428 E2.29721
G1 X131.834 Y44.983 E2.32824
G1 X133.27 Y47.472 E2.45727
G1 X133.479 Y47.914 E2.47922
G1 X133.613 Y48.385 E2.50121
G1 X133.669 Y48.871 E2.52318
G1 X133.646 Y49.36 E2.54516
G1 X133.543 Y49.839 E2.56716
G1 X133.269 Y50.471 E2.59809
G1 X131.833 Y52.959 E2.72707
G1 X131.555 Y53.361 E2.74902
G1 X131.215 Y53.713 E2.77099
G1 X130.822 Y54.005 E2.79298
G1 X130.387 Y54.229 E2.81495
G1 X129.921 Y54.38 E2.83694
G1 X129.235 Y54.459 E2.86795
G1 X126.36 Y54.459 E2.99704
G1 X125.872 Y54.419 E3.01902
G1 X125.397 Y54.3 E3.04101
G1 X124.948 Y54.106 E3.06297
G1 X124.536 Y53.841 E3.08497
G1 X124.173 Y53.513 E3.10693
G1 X123.761 Y52.958 E3.13797
G1 X122.326 Y50.47 E3.26693
G1 X122.117 Y50.027 E3.28893
G1 X121.983 Y49.557 E3.31087
G1 X121.927 Y49.07 E3.33288
G1 X121.95 Y48.581 E3.35487
G1 X122.053 Y48.103 E3.37682
G0 F4800 X122.486 Y48.069
G1 F1080 X122.673 Y47.672 E3.39652
G1 X124.108 Y45.183 E3.52553
G1 X124.369 Y44.81 E3.54597
G1 X124.691 Y44.488 E3.56642
G1 X125.065 Y44.227 E3.58689
G1 X125.478 Y44.036 E3.60732
G1 X125.919 Y43.92 E3.6278
G1 X126.36 Y43.882 E3.64767
G1 X129.235 Y43.882 E3.77677
G1 X129.689 Y43.922 E3.79723
G1 X130.129 Y44.04 E3.81768
G1 X130.541 Y44.234 E3.83813
G1 X130.914 Y44.497 E3.85862
G1 X131.235 Y44.82 E3.87907
G1 X131.487 Y45.183 E3.89891
G1 X132.923 Y47.672 E4.02794
G1 X133.115 Y48.085 E4.04839
G1 X133.232 Y48.525 E4.06883
G1 X133.271 Y48.979 E4.08929
G1 X133.23 Y49.433 E4.10976
G1 X133.11 Y49.872 E4.13019
G1 X132.923 Y50.271 E4.14998
G1 X131.487 Y52.759 E4.27897
G1 X131.225 Y53.132 E4.29943
G1 X130.903 Y53.454 E4.31988
G1 X130.529 Y53.714 E4.34033
G1 X130.115 Y53.905 E4.36081
G1 X129.675 Y54.022 E4.38125
G1 X129.235 Y54.059 E4.40107
G1 X126.36 Y54.059 E4.53017
G1 X125.906 Y54.019 E4.55063
G1 X125.466 Y53.901 E4.57108
G1 X125.054 Y53.707 E4.59153
G1 X124.681 Y53.444 E4.61202
G1 X124.36 Y53.121 E4.63247
G1 X124.108 Y52.758 E4.65231
G1 X122.673 Y50.27 E4.78128
G1 X122.481 Y49.857 E4.80173
G1 X122.363 Y49.417 E4.82218
G1 X122.325 Y48.963 E4.84264
G1 X122.366 Y48.509 E4.86311
G1 X122.486 Y48.069 E4.88358
G0 F4800 X123.019 Y47.872
G1 F1080 X124.454 Y45.383 E5.01259
G1 X124.697 Y45.042 E5.03139
G1 X125 Y44.753 E5.05019
G1 X125.353 Y44.526 E5.06903
G1 X125.742 Y44.371 E5.08784
G1 X126.36 Y44.282 E5.11587
G1 X129.235 Y44.282 E5.24496
G1 X129.652 Y44.322 E5.26377
G1 X130.054 Y44.44 E5.28258
G1 X130.426 Y44.633 E5.3014
G1 X130.755 Y44.892 E5.3202
G1 X131.141 Y45.383 E5.34825
G1 X132.577 Y47.872 E5.47727
G1 X132.75 Y48.253 E5.49606
G1 X132.849 Y48.66 E5.51487
G1 X132.868 Y49.079 E5.5337
G1 X132.808 Y49.493 E5.55248
G1 X132.576 Y50.071 E5.58045
G1 X131.14 Y52.559 E5.70943
G1 X130.897 Y52.9 E5.72824
G1 X130.594 Y53.189 E5.74704
G1 X130.241 Y53.415 E5.76586
G1 X129.852 Y53.571 E5.78468
G1 X129.235 Y53.659 E5.81266
G1 X126.36 Y53.659 E5.94175
G1 X125.943 Y53.619 E5.96056
G1 X125.541 Y53.501 E5.97937
G1 X125.169 Y53.308 E5.99819
G1 X124.84 Y53.049 E6.01699
G1 X124.454 Y52.558 E6.04503
G1 X123.019 Y50.07 E6.174
G1 X122.845 Y49.689 E6.19281
G1 X122.747 Y49.282 E6.2116
G1 X122.728 Y48.863 E6.23044
G1 X122.788 Y48.448 E6.24926
G1 X123.019 Y47.872 E6.27713
G0 F4800 X123.217 Y48.404
G1 F1080 X123.366 Y48.072 E6.29347
G1 X124.801 Y45.583 E6.42247
G1 X125.023 Y45.276 E6.43948
G1 X125.305 Y45.023 E6.45649
G1 X125.634 Y44.835 E6.47351
G1 X125.995 Y44.719 E6.49053
G1 X126.36 Y44.682 E6.50701
G1 X129.235 Y44.682 E6.6361
G1 X129.612 Y44.722 E6.65312
G1 X129.972 Y44.84 E6.67013
G1 X130.299 Y45.03 E6.68711
G1 X130.58 Y45.285 E6.70415
G1 X130.794 Y45.582 E6.72059
G1 X132.23 Y48.071 E6.84961
G1 X132.384 Y48.418 E6.86666
G1 X132.462 Y48.789 E6.88368
G1 X132.46 Y49.168 E6.9007
G1 X132.379 Y49.538 E6.91771
G1 X132.23 Y49.871 E6.93409
G1 X130.794 Y52.359 E7.06307
G1 X130.571 Y52.665 E7.08007
G1 X130.289 Y52.918 E7.09708
G1 X129.96 Y53.107 E7.11412
G1 X129.599 Y53.222 E7.13113
G1 X129.235 Y53.259 E7.14756
G1 X126.36 Y53.259 E7.27665
G1 X125.983 Y53.219 E7.29367
G1 X125.623 Y53.101 E7.31069
G1 X125.296 Y52.911 E7.32767
G1 X125.015 Y52.656 E7.3447
G1 X124.801 Y52.358 E7.36118
G1 X123.366 Y49.87 E7.49014
G1 X123.212 Y49.524 E7.50715
G1 X123.134 Y49.153 E7.52417
G1 X123.136 Y48.774 E7.54119
G1 X123.217 Y48.404 E7.55819
G0 F4800 X123.712 Y48.272
M104 S210
G1 F1080 X125.147 Y45.783 E7.6872
G1 X125.347 Y45.515 E7.70221
G1 X125.605 Y45.303 E7.71721
G1 X125.906 Y45.158 E7.73221
G1 X126.36 Y45.082 E7.75288
G1 X129.235 Y45.082 E7.88197
G1 X129.567 Y45.122 E7.89698
G1 X129.879 Y45.239 E7.91194
G1 X130.156 Y45.427 E7.92698
G1 X130.448 Y45.782 E7.94762
G1 X131.884 Y48.271 E8.07664
G1 X132.015 Y48.579 E8.09167
G1 X132.07 Y48.908 E8.10665
G1 X132.045 Y49.241 E8.12164
G1 X131.884 Y49.671 E8.14226
G1 X130.448 Y52.159 E8.27124
G1 X130.247 Y52.426 E8.28625
G1 X129.989 Y52.638 E8.30124
G1 X129.688 Y52.784 E8.31626
G1 X129.235 Y52.859 E8.33688
G1 X126.36 Y52.859 E8.46597
G1 X126.028 Y52.819 E8.48099
G1 X125.716 Y52.702 E8.49595
G1 X125.439 Y52.514 E8.51098
G1 X125.147 Y52.158 E8.53165
G1 X123.712 Y49.67 E8.66062
G1 X123.581 Y49.363 E8.67561
G1 X123.526 Y49.034 E8.69058
G1 X123.551 Y48.701 E8.70558
G1 X123.712 Y48.272 E8.72615
G0 F4800 X123.978 Y48.651
G1 F1080 X124.059 Y48.472 E8.73497
G1 X125.494 Y45.983 E8.86398
G1 X125.668 Y45.76 E8.87668
G1 X125.897 Y45.596 E8.88932
G1 X126.163 Y45.502 E8.90199
G1 X126.36 Y45.482 E8.91088
G1 X129.235 Y45.482 E9.03997
G1 X129.514 Y45.522 E9.05263
G1 X129.771 Y45.638 E9.06529
G1 X129.986 Y45.821 E9.07797
G1 X130.101 Y45.982 E9.08685
G1 X131.537 Y48.471 E9.21588
G1 X131.642 Y48.733 E9.22855
G1 X131.67 Y49.014 E9.24123
G1 X131.618 Y49.291 E9.25388
G1 X131.537 Y49.471 E9.26275
G1 X130.101 Y51.959 E9.39173
G1 X129.927 Y52.181 E9.4044
G1 X129.698 Y52.345 E9.41705
G1 X129.432 Y52.439 E9.42971
G1 X129.235 Y52.459 E9.4386
G1 X126.36 Y52.459 E9.5677
G1 X126.081 Y52.419 E9.58035
G1 X125.824 Y52.303 E9.59301
G1 X125.609 Y52.12 E9.60569
G1 X125.494 Y51.959 E9.61457
G1 X124.059 Y49.471 E9.74354
G1 X123.954 Y49.209 E9.75621
G1 X123.926 Y48.928 E9.76889
G1 X123.978 Y48.651 E9.78154
G0 F4800 X124.405 Y48.671
G1 F1080 X125.84 Y46.182 E9.91055
G1 X125.982 Y46.016 E9.92036
G1 X126.173 Y45.912 E9.93012
G1 X126.36 Y45.882 E9.93863
G1 X129.235 Y45.882 E10.06772
G1 X129.45 Y45.922 E10.07754
G1 X129.636 Y46.035 E10.08731
G1 X129.755 Y46.182 E10.0958
G1 X131.191 Y48.671 E10.22483
G1 X131.264 Y48.877 E10.23464
G1 X131.258 Y49.095 E10.24443
G1 X131.191 Y49.271 E10.25289
G1 X129.755 Y51.759 E10.38187
G1 X129.613 Y51.925 E10.39168
G1 X129.421 Y52.029 E10.40149
G1 X129.235 Y52.059 E10.40995
G1 X126.36 Y52.059 E10.53904
G1 X126.145 Y52.019 E10.54886
G1 X125.959 Y51.906 E10.55863
G1 X125.84 Y51.759 E10.56712
G1 X124.405 Y49.271 E10.69608
G1 X124.332 Y49.065 E10.7059
G1 X124.338 Y48.847 E10.71569
G1 X124.405 Y48.671 E10.72414
G0 F4800 X124.752 Y48.871
G1 F1080 X126.187 Y46.382 E10.85315
G1 X126.28 Y46.299 E10.85874
G1 X126.36 Y46.282 E10.86242
G1 X129.235 Y46.282 E10.99151
G1 X129.354 Y46.321 E10.99713
G1 X129.408 Y46.382 E11.00079
G1 X130.844 Y48.871 E11.12981
G1 X130.87 Y48.993 E11.13542
G1 X130.844 Y49.071 E11.13911
G1 X129.408 Y51.559 E11.26809
G1 X129.315 Y51.642 E11.27369
G1 X129.235 Y51.659 E11.27736
G1 X126.36 Y51.659 E11.40645
G1 X126.241 Y51.62 E11.41208
G1 X126.187 Y51.559 E11.41573
G1 X124.752 Y49.071 E11.5447
G1 X124.726 Y48.949 E11.5503
G1 X124.752 Y48.871 E11.55399
;MESH:Gripper-Manipulator Screw v1.stl
G0 F4800 X125.156 Y48.971
;TYPE:WALL-OUTER
G1 F1080 X126.476 Y46.682 E11.67263
G1 X129.119 Y46.682 E11.79131
G1 X130.44 Y48.971 E11.90997
G1 X129.119 Y51.259 E12.0286
G1 X126.476 Y51.259 E12.14728
G1 X125.156 Y48.971 E12.26588
G0 F4800 X125.255 Y48.798
G0 X125.677 Y48.995
G0 X125.618 Y48.972
;TYPE:WALL-INNER
G1 F1080 X126.708 Y47.082 E12.36385
G1 X128.888 Y47.082 E12.46173
G1 X129.979 Y48.971 E12.55968
G1 X128.888 Y50.859 E12.65759
G1 X126.707 Y50.859 E12.75552
G1 X125.618 Y48.972 E12.85334
G0 F4800 X126.08 Y48.973
G1 F1080 X126.94 Y47.482 E12.93063
G1 X128.658 Y47.482 E13.00777
G1 X129.517 Y48.971 E13.08496
G1 X128.658 Y50.459 E13.1621
G1 X126.938 Y50.459 E13.23933
G1 X126.08 Y48.973 E13.31638
G0 F4800 X126.531 Y48.973
;TYPE:SKIN
G1 F1080 X127.165 Y47.872 E13.37343
G1 X128.433 Y47.872 E13.43036
G1 X129.066 Y48.971 E13.48731
G1 X128.433 Y50.069 E13.54421
G1 X127.163 Y50.069 E13.60124
G1 X126.531 Y48.973 E13.65805
G0 F4800 X126.993 Y48.973
G1 F1080 X127.397 Y48.272 E13.69437
G1 X128.201 Y48.272 E13.73048
G1 X128.604 Y48.971 E13.7667
G1 X128.201 Y49.669 E13.80289
G1 X127.395 Y49.669 E13.83908
G1 X126.993 Y48.973 E13.87517
G1 F2400 E12.87517
G1 F600 Z0.8
G0 F4800 X127.673 Y49.608 Z0.8
G1 F600 Z0.3
G1 F2400 E13.90012
G1 F1080 X127.093 Y49.029 E13.93692
G0 F4800 X127.259 Y48.629
G1 F1080 X128.193 Y49.563 E13.99623
G0 F4800 X128.399 Y49.204
G1 F1080 X127.528 Y48.332 E14.05157
G0 F4800 X128.093 Y48.332
G1 F1080 X128.264 Y48.503 E14.06242
G1 F2400 E13.06242
G1 F600 Z0.8
;MESH:NONMESH
G0 F4800 X126.08 Y48.973 Z0.8
;TIME_ELAPSED:23.879086
;LAYER:1
M140 S60
M106 S255
;MESH:Gripper-Manipulator Screw v1.stl
G0 F5400 X126.08 Y48.973 Z1
;TYPE:WALL-INNER
G1 F600 Z0.5
G1 F2400 E14.08737
G1 F753.8 X126.94 Y47.482 E14.13889
G1 X128.658 Y47.482 E14.19032
G1 X129.517 Y48.971 E14.24178
G1 X128.658 Y50.459 E14.29321
G1 X126.938 Y50.459 E14.3447
G1 X126.08 Y48.973 E14.39606
G0 F5400 X125.618 Y48.972
G1 F753.8 X126.708 Y47.082 E14.46137
G1 X128.888 Y47.082 E14.52663
G1 X129.979 Y48.971 E14.59192
G1 X128.888 Y50.859 E14.6572
G1 X126.707 Y50.859 E14.72248
G1 X125.618 Y48.972 E14.7877
G0 F5400 X125.156 Y48.971
;TYPE:WALL-OUTER
G1 F600 X126.476 Y46.682 E14.8668
G1 X129.119 Y46.682 E14.94591
G1 X130.44 Y48.971 E15.02502
G1 X129.119 Y51.259 E15.10411
G1 X126.476 Y51.259 E15.18322
G1 X125.156 Y48.971 E15.26229
G0 F5400 X125.255 Y48.798
G0 X125.677 Y48.995
G1 F2400 E14.26229
G1 F600 Z1
G0 F5400 X126.531 Y48.973 Z1
;TYPE:SKIN
G1 F600 Z0.5
G1 F2400 E15.28724
G1 F738.5 X127.165 Y47.872 E15.32527
G1 X128.433 Y47.872 E15.36323
G1 X129.066 Y48.971 E15.40119
G1 X128.433 Y50.069 E15.43913
G1 X127.163 Y50.069 E15.47715
G1 X126.531 Y48.973 E15.51502
G0 F5400 X126.993 Y48.973
G1 F738.5 X127.397 Y48.272 E15.53924
G1 X128.201 Y48.272 E15.5633
G1 X128.604 Y48.971 E15.58746
G1 X128.201 Y49.669 E15.61158
G1 X127.395 Y49.669 E15.63571
G1 X126.993 Y48.973 E15.65977
G1 F2400 E14.65977
G1 F600 Z1
G0 F5400 X127.596 Y48.332 Z1
G1 F600 Z0.5
G1 F2400 E15.68471
G1 F738.5 X127.205 Y48.722 E15.70125
G0 F5400 X127.229 Y49.264
G1 F738.5 X128.161 Y48.332 E15.7407
G0 F5400 X128.37 Y48.688
G1 F738.5 X127.45 Y49.609 E15.77967
G0 F5400 X128.016 Y49.609
G1 F738.5 X128.37 Y49.254 E15.79468
G1 F2400 E14.79468
G1 F600 Z1
;MESH:NONMESH
G0 F5400 X126.08 Y48.973 Z1
;TIME_ELAPSED:30.736136
;LAYER:2
;MESH:Gripper-Manipulator Screw v1.stl
G0 F6000 X126.08 Y48.973 Z1.2
;TYPE:WALL-INNER
G1 F600 Z0.7
G1 F2400 E15.81962
G1 F885.7 X126.94 Y47.482 E15.87114
G1 X128.658 Y47.482 E15.92257
G1 X129.517 Y48.971 E15.97403
G1 X128.658 Y50.459 E16.02546
G1 X126.938 Y50.459 E16.07695
G1 X126.08 Y48.973 E16.12831
G0 F6000 X125.618 Y48.972
G1 F885.7 X126.708 Y47.082 E16.19362
G1 X128.888 Y47.082 E16.25888
G1 X129.979 Y48.971 E16.32418
G1 X128.888 Y50.859 E16.38945
G1 X126.707 Y50.859 E16.45474
G1 X125.618 Y48.972 E16.51995
G0 F6000 X125.156 Y48.971
;TYPE:WALL-OUTER
G1 F600 X126.476 Y46.682 E16.59905
G1 X129.119 Y46.682 E16.67816
G1 X130.44 Y48.971 E16.75728
G1 X129.119 Y51.259 E16.83636
G1 X126.476 Y51.259 E16.91548
G1 X125.156 Y48.971 E16.99455
G0 F6000 X125.255 Y48.798
G0 X125.677 Y48.995
G1 F2400 E15.99455
G1 F600 Z1.2
G0 F6000 X126.531 Y48.973 Z1.2
;TYPE:SKIN
G1 F600 Z0.7
G1 F2400 E17.01949
G1 F857.1 X127.165 Y47.872 E17.05752
G1 X128.433 Y47.872 E17.09548
G1 X129.066 Y48.971 E17.13344
G1 X128.433 Y50.069 E17.17138
G1 X127.163 Y50.069 E17.2094
G1 X126.531 Y48.973 E17.24727
G0 F6000 X126.993 Y48.973
G1 F857.1 X127.397 Y48.272 E17.27149
G1 X128.201 Y48.272 E17.29556
G1 X128.604 Y48.971 E17.31971
G1 X128.201 Y49.669 E17.34383
G1 X127.395 Y49.669 E17.36796
G1 X126.993 Y48.973 E17.39202
G1 F2400 E16.39202
G1 F600 Z1.2
G0 F6000 X127.673 Y49.608 Z1.2
G1 F600 Z0.7
G1 F2400 E17.41697
G1 F857.1 X127.093 Y49.029 E17.4415
G0 F6000 X127.259 Y48.629
G1 F857.1 X128.193 Y49.563 E17.48104
G0 F6000 X128.399 Y49.204
G1 F857.1 X127.528 Y48.332 E17.51793
G0 F6000 X128.093 Y48.332
G1 F857.1 X128.264 Y48.503 E17.52517
G1 F2400 E16.52517
G1 F600 Z1.2
;MESH:NONMESH
G0 F6000 X126.08 Y48.973 Z1.2
;TIME_ELAPSED:37.154278
;LAYER:3
;MESH:Gripper-Manipulator Screw v1.stl
G0 X126.08 Y48.973 Z1.4
;TYPE:WALL-INNER
G1 F600 Z0.9
G1 F2400 E17.55012
G1 F885.7 X126.94 Y47.482 E17.60164
G1 X128.658 Y47.482 E17.65307
G1 X129.517 Y48.971 E17.70452
G1 X128.658 Y50.459 E17.75595
G1 X126.938 Y50.459 E17.80744
G1 X126.08 Y48.973 E17.85881
G0 F6000 X125.618 Y48.972
