;FLAVOR:Marlin
;TIME:362
;Filament used: 0.124297m
;Layer height: 0.2
;MINX:93.578
;MINY:31.274
;MINZ:0.3
;MAXX:106.429
;MAXY:44.13
;MAXZ:13.6
;Generated with Cura_SteamEngine mb-master-20191116
M140 S70
M105
M190 S70
M104 S220
M105
M109 S220
M82 ;absolute extrusion mode
;Sliced at: Fri 26-11-2021 16:46:18
G21 ;metric values
M107
G28
M420 S1
G90 ;absolute positioning
G92 E0; reset extruder distance
G1 X0 Y0 Z5 F5000 ;move nozzle up 5mm for safe homing
G29;ABL
M500
M82 ;set extruder to absolute mode
M107 ;start with the fan off
G1 X0 Y0 Z15.0 F5000 ;move the platform down 15mm
G92 E0 ;zero the extruded length
G1 F200 E3 ;extrude 3mm of feed stock
G1 F200 E0 ;Retract
G4 S2 ;Wait for material to fall
G1 F200 E3
G92 E0 ;zero the extruded length again
M117 Printing...
G92 E0
;WIPE
G91
G1 X -20 F3000
G1 X40
G1 X-20
G90

G92 E0
G1 F2400 E-1
;LAYER_COUNT:65
;LAYER:0
M107
G1 F600 Z0.8
G0 F4800 X93.989 Y35.429 Z0.8
;TYPE:SKIRT
G1 F600 Z0.3
G1 F2400 E0.02495
G1 F1080 X94.171 Y34.997 E0.04599
G1 X94.428 Y34.499 E0.07116
G1 X94.697 Y34.072 E0.09382
G1 X95.034 Y33.624 E0.11899
G1 X95.35 Y33.266 E0.14043
G1 X95.754 Y32.877 E0.16561
G1 X96.142 Y32.562 E0.18805
G1 X96.607 Y32.244 E0.21335
G1 X97.027 Y32.003 E0.23509
G1 X97.535 Y31.765 E0.26028
G1 X98.002 Y31.592 E0.28264
G1 X98.54 Y31.442 E0.30772
G1 X99.016 Y31.35 E0.32949
G1 X99.576 Y31.288 E0.35478
G1 X100.067 Y31.274 E0.37684
G1 X100.626 Y31.304 E0.40198
G1 X101.115 Y31.371 E0.42414
G1 X101.665 Y31.493 E0.44943
G1 X102.13 Y31.637 E0.47129
G1 X102.652 Y31.846 E0.49654
G1 X103.092 Y32.065 E0.51861
G1 X103.569 Y32.354 E0.54365
G1 X103.966 Y32.642 E0.56567
G1 X104.392 Y33.007 E0.59086
G1 X104.735 Y33.352 E0.6127
G1 X105.098 Y33.783 E0.63801
G1 X105.385 Y34.188 E0.66029
G1 X105.669 Y34.668 E0.68534
G1 X105.884 Y35.11 E0.70741
G1 X106.087 Y35.633 E0.7326
G1 X106.225 Y36.097 E0.75433
G1 X106.342 Y36.649 E0.77967
G1 X106.404 Y37.137 E0.80176
G1 X106.429 Y37.696 E0.82688
G1 X106.411 Y38.187 E0.84894
G1 X106.344 Y38.746 E0.87422
G1 X106.247 Y39.222 E0.89603
G1 X106.092 Y39.758 E0.92109
G1 X105.912 Y40.228 E0.94369
G1 X105.667 Y40.736 E0.96901
G1 X105.428 Y41.145 E0.99028
G1 X105.109 Y41.604 E1.01538
G1 X104.795 Y41.985 E1.03755
G1 X104.42 Y42.37 E1.06168
G1 X104.084 Y42.667 E1.08181
G1 X103.682 Y42.972 E1.10447
G1 X103.309 Y43.214 E1.12444
G1 X102.863 Y43.458 E1.14726
G1 X102.443 Y43.647 E1.16794
G1 X101.937 Y43.83 E1.1921
G1 X101.502 Y43.951 E1.21238
G1 X101.004 Y44.05 E1.23517
G1 X100.575 Y44.104 E1.25459
G1 X100.075 Y44.13 E1.27707
G1 X99.623 Y44.119 E1.29737
G1 X99.118 Y44.069 E1.32016
G1 X98.682 Y43.993 E1.34003
G1 X98.193 Y43.87 E1.36267
G1 X97.779 Y43.734 E1.38224
G1 X97.312 Y43.541 E1.40493
G1 X96.914 Y43.34 E1.42495
G1 X96.481 Y43.08 E1.44762
G1 X96.121 Y42.827 E1.46738
G1 X95.73 Y42.506 E1.4901
G1 X95.411 Y42.201 E1.50991
G1 X95.073 Y41.828 E1.53251
G1 X94.802 Y41.481 E1.55228
G1 X94.52 Y41.059 E1.57507
G1 X94.301 Y40.672 E1.59504
G1 X94.085 Y40.214 E1.61778
G1 X93.928 Y39.807 E1.63736
G1 X93.782 Y39.327 E1.65989
G1 X93.684 Y38.894 E1.67983
G1 X93.61 Y38.395 E1.70248
G1 X93.578 Y37.944 E1.72278
G1 X93.58 Y37.412 E1.74666
G1 X93.616 Y36.96 E1.76702
G1 X93.697 Y36.441 E1.79061
G1 X93.813 Y35.96 E1.81283
G1 X93.989 Y35.429 E1.83794
G0 F4800 X94.369 Y35.555
G1 F1080 X94.527 Y35.181 E1.85617
G1 X94.784 Y34.683 E1.88134
G1 X95.016 Y34.312 E1.90099
G1 X95.353 Y33.864 E1.92616
G1 X95.628 Y33.554 E1.94476
G1 X96.032 Y33.165 E1.96995
G1 X96.367 Y32.892 E1.98935
G1 X96.832 Y32.574 E2.01464
G1 X97.197 Y32.366 E2.03351
G1 X97.705 Y32.128 E2.0587
G1 X98.11 Y31.978 E2.07809
G1 X98.648 Y31.828 E2.10317
G1 X99.06 Y31.748 E2.12201
G1 X99.62 Y31.686 E2.14731
G1 X100.045 Y31.674 E2.1664
G1 X100.604 Y31.704 E2.19154
G1 X101.028 Y31.762 E2.21075
G1 X101.578 Y31.884 E2.23605
G1 X101.981 Y32.008 E2.25498
G1 X102.503 Y32.217 E2.28023
G1 X102.884 Y32.407 E2.29934
G1 X103.361 Y32.696 E2.32439
G1 X103.706 Y32.946 E2.34352
G1 X104.132 Y33.311 E2.36871
G1 X104.429 Y33.61 E2.38763
G1 X104.792 Y34.041 E2.41293
G1 X105.041 Y34.392 E2.43225
G1 X105.325 Y34.872 E2.4573
G1 X105.511 Y35.255 E2.47641
G1 X105.714 Y35.778 E2.5016
G1 X105.833 Y36.18 E2.52043
G1 X105.95 Y36.732 E2.54576
G1 X106.004 Y37.155 E2.56491
G1 X106.029 Y37.714 E2.59004
G1 X106.014 Y38.139 E2.60913
G1 X105.947 Y38.698 E2.63441
G1 X105.863 Y39.111 E2.65334
G1 X105.708 Y39.647 E2.67839
G1 X105.552 Y40.054 E2.69796
G1 X105.307 Y40.562 E2.72328
G1 X105.1 Y40.917 E2.74174
G1 X104.781 Y41.376 E2.76683
G1 X104.509 Y41.706 E2.78604
G1 X104.134 Y42.091 E2.81017
G1 X103.843 Y42.348 E2.8276
G1 X103.441 Y42.653 E2.85026
G1 X103.117 Y42.863 E2.86759
G1 X102.671 Y43.107 E2.89042
G1 X102.307 Y43.271 E2.90835
G1 X101.801 Y43.454 E2.93251
G1 X101.424 Y43.559 E2.95008
G1 X100.926 Y43.658 E2.97288
G1 X100.554 Y43.704 E2.98971
G1 X100.054 Y43.73 E3.01219
G1 X99.663 Y43.721 E3.02975
G1 X99.158 Y43.671 E3.05254
G1 X98.78 Y43.605 E3.06977
G1 X98.291 Y43.482 E3.09241
G1 X97.932 Y43.364 E3.10937
G1 X97.465 Y43.171 E3.13206
G1 X97.12 Y42.997 E3.14941
G1 X96.687 Y42.737 E3.17209
G1 X96.375 Y42.518 E3.18921
G1 X95.984 Y42.197 E3.21192
G1 X95.707 Y41.933 E3.2291
G1 X95.369 Y41.56 E3.2517
G1 X95.134 Y41.259 E3.26885
G1 X94.852 Y40.837 E3.29164
G1 X94.662 Y40.501 E3.30897
G1 X94.446 Y40.043 E3.33171
G1 X94.311 Y39.691 E3.34864
G1 X94.165 Y39.211 E3.37116
G1 X94.08 Y38.835 E3.38847
G1 X94.006 Y38.336 E3.41112
G1 X93.978 Y37.945 E3.42873
G1 X93.98 Y37.413 E3.45261
G1 X94.011 Y37.022 E3.47022
G1 X94.092 Y36.503 E3.49381
G1 X94.193 Y36.086 E3.51308
G1 X94.369 Y35.555 E3.53819
G0 F4800 X94.749 Y35.681
G1 F1080 X94.882 Y35.364 E3.55363
G1 X95.139 Y34.866 E3.57879
G1 X95.336 Y34.552 E3.59544
G1 X95.673 Y34.104 E3.62061
G1 X95.905 Y33.842 E3.63632
G1 X96.309 Y33.453 E3.6615
G1 X96.593 Y33.222 E3.67794
G1 X97.058 Y32.904 E3.70324
G1 X97.367 Y32.728 E3.7192
G1 X97.875 Y32.49 E3.74439
G1 X98.217 Y32.363 E3.76077
G1 X98.755 Y32.213 E3.78585
G1 X99.104 Y32.145 E3.80182
G1 X99.664 Y32.083 E3.82711
G1 X100.024 Y32.073 E3.84329
G1 X100.583 Y32.103 E3.86842
G1 X100.941 Y32.152 E3.88465
G1 X101.491 Y32.274 E3.90994
G1 X101.833 Y32.38 E3.92602
G1 X102.355 Y32.589 E3.95127
G1 X102.677 Y32.749 E3.96741
G1 X103.154 Y33.038 E3.99245
G1 X103.445 Y33.249 E4.00859
G1 X103.871 Y33.614 E4.03378
G1 X104.123 Y33.868 E4.04985
G1 X104.486 Y34.299 E4.07515
G1 X104.696 Y34.596 E4.09148
G1 X104.98 Y35.076 E4.11652
G1 X105.138 Y35.4 E4.13271
G1 X105.341 Y35.923 E4.1579
G1 X105.442 Y36.263 E4.17382
G1 X105.559 Y36.815 E4.19916
G1 X105.605 Y37.173 E4.21537
G1 X105.63 Y37.732 E4.24049
G1 X105.616 Y38.092 E4.25667
G1 X105.549 Y38.651 E4.28195
G1 X105.478 Y39 E4.29794
G1 X105.323 Y39.536 E4.32299
G1 X105.192 Y39.881 E4.33956
G1 X104.947 Y40.389 E4.36489
G1 X104.772 Y40.689 E4.38048
G1 X104.453 Y41.148 E4.40558
G1 X104.222 Y41.427 E4.42184
G1 X103.847 Y41.812 E4.44598
G1 X103.601 Y42.03 E4.46073
G1 X103.199 Y42.335 E4.48339
G1 X102.925 Y42.512 E4.49804
G1 X102.479 Y42.756 E4.52087
G1 X102.171 Y42.895 E4.53604
G1 X101.665 Y43.078 E4.5602
G1 X101.346 Y43.167 E4.57507
G1 X100.848 Y43.266 E4.59787
G1 X100.533 Y43.305 E4.61212
G1 X100.033 Y43.331 E4.6346
G1 X99.702 Y43.323 E4.64947
G1 X99.197 Y43.273 E4.67225
G1 X98.877 Y43.218 E4.68683
G1 X98.388 Y43.095 E4.70947
G1 X98.085 Y42.994 E4.72381
G1 X97.618 Y42.801 E4.7465
G1 X97.325 Y42.654 E4.76122
G1 X96.892 Y42.394 E4.7839
G1 X96.629 Y42.208 E4.79836
G1 X96.238 Y41.887 E4.82108
G1 X96.004 Y41.664 E4.83559
G1 X95.666 Y41.291 E4.85819
G1 X95.467 Y41.036 E4.87272
G1 X95.185 Y40.614 E4.89551
G1 X95.024 Y40.33 E4.91017
G1 X94.808 Y39.872 E4.9329
G1 X94.693 Y39.574 E4.94725
G1 X94.547 Y39.094 E4.96977
G1 X94.476 Y38.777 E4.98436
G1 X94.402 Y38.278 E5.00701
G1 X94.378 Y37.947 E5.02191
G1 X94.38 Y37.415 E5.0458
G1 X94.406 Y37.084 E5.06071
G1 X94.487 Y36.565 E5.08429
G1 X94.573 Y36.212 E5.10061
G1 X94.749 Y35.681 E5.12572
G0 F4800 X95.128 Y35.807
G1 F1080 X95.237 Y35.548 E5.13834
G1 X95.494 Y35.05 E5.1635
G1 X95.656 Y34.793 E5.17715
G1 X95.993 Y34.345 E5.20232
G1 X96.183 Y34.13 E5.2152
G1 X96.587 Y33.741 E5.24038
G1 X96.819 Y33.552 E5.25382
G1 X97.284 Y33.234 E5.27911
G1 X97.536 Y33.09 E5.29215
G1 X98.044 Y32.852 E5.31733
G1 X98.325 Y32.748 E5.33079
G1 X98.863 Y32.598 E5.35587
G1 X99.148 Y32.543 E5.3689
G1 X99.708 Y32.481 E5.3942
G1 X100.002 Y32.473 E5.4074
G1 X100.561 Y32.503 E5.43254
G1 X100.855 Y32.543 E5.44586
G1 X101.405 Y32.665 E5.47116
G1 X101.684 Y32.751 E5.48427
G1 X102.206 Y32.96 E5.50951
G1 X102.47 Y33.092 E5.52277
G1 X102.947 Y33.381 E5.54781
G1 X103.185 Y33.553 E5.56099
G1 X103.611 Y33.918 E5.58618
G1 X103.817 Y34.125 E5.5993
G1 X104.18 Y34.556 E5.6246
G1 X104.352 Y34.799 E5.63797
G1 X104.636 Y35.279 E5.66301
G1 X104.765 Y35.545 E5.67628
G1 X104.968 Y36.068 E5.70147
G1 X105.051 Y36.346 E5.7145
G1 X105.168 Y36.898 E5.73984
G1 X105.205 Y37.191 E5.7531
G1 X105.23 Y37.75 E5.77822
G1 X105.219 Y38.044 E5.79143
G1 X105.152 Y38.603 E5.81671
G1 X105.094 Y38.889 E5.82981
G1 X104.939 Y39.425 E5.85487
G1 X104.831 Y39.707 E5.86843
G1 X104.586 Y40.215 E5.89375
G1 X104.443 Y40.46 E5.90649
G1 X104.124 Y40.919 E5.93159
G1 X103.935 Y41.148 E5.94492
G1 X103.56 Y41.533 E5.96905
G1 X103.359 Y41.711 E5.9811
G1 X102.957 Y42.016 E6.00376
G1 X102.733 Y42.161 E6.01574
G1 X102.287 Y42.405 E6.03857
G1 X102.035 Y42.519 E6.05099
G1 X101.529 Y42.702 E6.07515
G1 X101.268 Y42.774 E6.08731
G1 X100.77 Y42.873 E6.1101
G1 X100.512 Y42.906 E6.12178
G1 X100.012 Y42.932 E6.14426
G1 X99.742 Y42.925 E6.15639
G1 X99.237 Y42.875 E6.17918
G1 X98.975 Y42.83 E6.19111
G1 X98.486 Y42.707 E6.21375
G1 X98.238 Y42.625 E6.22548
G1 X97.771 Y42.432 E6.24817
G1 X97.531 Y42.311 E6.26024
G1 X97.098 Y42.051 E6.28292
G1 X96.883 Y41.899 E6.29474
G1 X96.492 Y41.578 E6.31746
G1 X96.3 Y41.396 E6.32934
G1 X95.962 Y41.023 E6.35194
G1 X95.799 Y40.814 E6.36384
G1 X95.517 Y40.392 E6.38663
G1 X95.386 Y40.16 E6.39859
G1 X95.17 Y39.702 E6.42133
G1 X95.076 Y39.458 E6.43307
G1 X94.93 Y38.978 E6.4556
G1 X94.871 Y38.718 E6.46757
G1 X94.797 Y38.219 E6.49022
G1 X94.778 Y37.948 E6.50242
G1 X94.78 Y37.416 E6.5263
G1 X94.802 Y37.145 E6.53851
G1 X94.883 Y36.626 E6.5621
G1 X94.952 Y36.338 E6.57539
G1 X95.128 Y35.807 E6.60051
G0 F4800 X95.508 Y35.933
G1 F1080 X95.593 Y35.731 E6.61035
G1 X95.85 Y35.233 E6.63552
G1 X95.975 Y35.033 E6.64611
G1 X96.312 Y34.585 E6.67128
G1 X96.46 Y34.419 E6.68126
G1 X96.864 Y34.03 E6.70645
G1 X97.045 Y33.882 E6.71694
G1 X97.51 Y33.564 E6.74224
G1 X97.706 Y33.452 E6.75237
G1 X98.214 Y33.214 E6.77756
G1 X98.432 Y33.133 E6.78801
G1 X98.97 Y32.983 E6.81308
G1 X99.192 Y32.941 E6.82323
G1 X99.752 Y32.879 E6.84853
G1 X99.981 Y32.872 E6.85881
G1 X100.54 Y32.902 E6.88395
G1 X100.768 Y32.933 E6.89428
G1 X101.318 Y33.055 E6.91958
G1 X101.535 Y33.122 E6.92977
G1 X102.057 Y33.331 E6.95502
G1 X102.262 Y33.434 E6.96532
G1 X102.739 Y33.723 E6.99037
G1 X102.925 Y33.857 E7.00066
G1 X103.351 Y34.222 E7.02585
G1 X103.511 Y34.383 E7.03604
G1 X103.874 Y34.814 E7.06134
G1 X104.008 Y35.003 E7.07174
G1 X104.292 Y35.483 E7.09679
G1 X104.392 Y35.689 E7.10707
G1 X104.595 Y36.212 E7.13226
G1 X104.66 Y36.429 E7.14243
G1 X104.777 Y36.981 E7.16777
G1 X104.806 Y37.208 E7.17804
G1 X104.831 Y37.767 E7.20317
G1 X104.822 Y37.997 E7.2135
G1 X104.755 Y38.556 E7.23878
G1 X104.71 Y38.778 E7.24895
G1 X104.555 Y39.314 E7.274
G1 X104.471 Y39.533 E7.28454
G1 X104.226 Y40.041 E7.30986
G1 X104.115 Y40.232 E7.31978
G1 X103.796 Y40.691 E7.34488
G1 X103.649 Y40.869 E7.35524
G1 X103.274 Y41.254 E7.37938
G1 X103.117 Y41.392 E7.38876
G1 X102.715 Y41.697 E7.41142
G1 X102.541 Y41.81 E7.42073
G1 X102.095 Y42.054 E7.44356
G1 X101.899 Y42.143 E7.45323
G1 X101.393 Y42.326 E7.47739
G1 X101.19 Y42.382 E7.48684
G1 X100.692 Y42.481 E7.50964
G1 X100.492 Y42.506 E7.51869
G1 X99.992 Y42.532 E7.54117
G1 X99.781 Y42.527 E7.55065
G1 X99.276 Y42.477 E7.57343
G1 X99.072 Y42.442 E7.58273
G1 X98.583 Y42.319 E7.60537
G1 X98.39 Y42.255 E7.6145
G1 X97.923 Y42.062 E7.63719
G1 X97.737 Y41.968 E7.64655
G1 X97.304 Y41.708 E7.66922
G1 X97.137 Y41.59 E7.6784
G1 X96.746 Y41.269 E7.70112
G1 X96.597 Y41.127 E7.71036
G1 X96.259 Y40.754 E7.73296
G1 X96.132 Y40.592 E7.74221
G1 X95.85 Y40.17 E7.765
G1 X95.748 Y39.989 E7.77432
G1 X95.532 Y39.531 E7.79706
G1 X95.459 Y39.341 E7.8062
G1 X95.313 Y38.861 E7.82873
G1 X95.267 Y38.659 E7.83803
G1 X95.193 Y38.16 E7.86068
G1 X95.178 Y37.95 E7.87013
G1 X95.18 Y37.418 E7.89402
G1 X95.197 Y37.207 E7.90353
G1 X95.278 Y36.688 E7.92711
G1 X95.332 Y36.464 E7.93746
G1 X95.508 Y35.933 E7.96258
G0 F4800 X95.888 Y36.058
G1 F1080 X95.948 Y35.914 E7.96958
G1 X96.205 Y35.416 E7.99474
G1 X96.295 Y35.274 E8.00229
G1 X96.632 Y34.826 E8.02746
G1 X96.737 Y34.707 E8.03459
G1 X97.141 Y34.318 E8.05977
G1 X97.271 Y34.213 E8.06728
G1 X97.736 Y33.895 E8.09257
G1 X97.876 Y33.814 E8.09983
G1 X98.384 Y33.576 E8.12502
G1 X98.539 Y33.519 E8.13244
G1 X99.077 Y33.369 E8.15752
G1 X99.236 Y33.338 E8.16479
G1 X99.796 Y33.276 E8.19009
G1 X99.96 Y33.271 E8.19745
G1 X100.519 Y33.301 E8.22259
G1 X100.682 Y33.324 E8.22998
G1 X101.232 Y33.446 E8.25528
G1 X101.387 Y33.494 E8.26256
G1 X101.909 Y33.703 E8.28781
G1 X102.055 Y33.776 E8.29514
G1 X102.532 Y34.065 E8.32018
G1 X102.665 Y34.161 E8.32755
G1 X103.091 Y34.526 E8.35274
G1 X103.205 Y34.641 E8.36001
G1 X103.568 Y35.072 E8.38531
G1 X103.664 Y35.207 E8.39275
G1 X103.948 Y35.687 E8.41779
G1 X104.019 Y35.834 E8.42512
G1 X104.222 Y36.357 E8.45031
G1 X104.268 Y36.512 E8.45757
G1 X104.385 Y37.064 E8.48291
G1 X104.406 Y37.226 E8.49024
G1 X104.431 Y37.785 E8.51537
G1 X104.425 Y37.949 E8.52273
G1 X104.358 Y38.508 E8.54801
G1 X104.326 Y38.667 E8.5553
G1 X104.171 Y39.203 E8.58035
G1 X104.111 Y39.359 E8.58785
G1 X103.866 Y39.867 E8.61318
G1 X103.786 Y40.004 E8.6203
G1 X103.467 Y40.463 E8.6454
G1 X103.362 Y40.59 E8.6528
G1 X102.987 Y40.975 E8.67693
G1 X102.875 Y41.074 E8.68364
G1 X102.473 Y41.379 E8.7063
G1 X102.349 Y41.459 E8.71293
G1 X101.903 Y41.703 E8.73575
G1 X101.763 Y41.766 E8.74265
G1 X101.257 Y41.949 E8.76681
G1 X101.112 Y41.99 E8.77357
G1 X100.614 Y42.089 E8.79637
G1 X100.471 Y42.107 E8.80284
G1 X99.971 Y42.133 E8.82532
G1 X99.82 Y42.129 E8.83211
G1 X99.315 Y42.079 E8.85489
G1 X99.17 Y42.054 E8.8615
G1 X98.681 Y41.931 E8.88414
G1 X98.543 Y41.885 E8.89067
G1 X98.076 Y41.692 E8.91336
G1 X97.943 Y41.625 E8.92005
G1 X97.51 Y41.365 E8.94272
G1 X97.39 Y41.281 E8.9493
G1 X96.999 Y40.96 E8.97202
G1 X96.893 Y40.858 E8.97862
G1 X96.555 Y40.485 E9.00122
G1 X96.465 Y40.37 E9.00778
G1 X96.183 Y39.948 E9.03057
G1 X96.11 Y39.819 E9.03722
G1 X95.894 Y39.361 E9.05996
G1 X95.841 Y39.225 E9.06652
G1 X95.695 Y38.745 E9.08904
G1 X95.663 Y38.601 E9.09567
G1 X95.589 Y38.102 E9.11832
G1 X95.578 Y37.951 E9.12512
G1 X95.58 Y37.419 E9.149
G1 X95.592 Y37.269 E9.15576
G1 X95.673 Y36.75 E9.17935
G1 X95.712 Y36.589 E9.18678
G1 X95.888 Y36.058 E9.2119
G0 F4800 X96.267 Y36.184
M104 S210
G1 F1080 X96.304 Y36.098 E9.21611
G1 X96.561 Y35.6 E9.24127
G1 X96.615 Y35.514 E9.24583
G1 X96.952 Y35.066 E9.271
G1 X97.015 Y34.995 E9.27526
G1 X97.419 Y34.606 E9.30044
G1 X97.496 Y34.543 E9.30491
G1 X97.961 Y34.225 E9.33021
G1 X98.045 Y34.177 E9.33455
G1 X98.553 Y33.939 E9.35974
G1 X98.647 Y33.904 E9.36424
G1 X99.185 Y33.754 E9.38932
G1 X99.28 Y33.736 E9.39366
G1 X99.84 Y33.674 E9.41896
G1 X99.938 Y33.671 E9.42336
G1 X100.497 Y33.701 E9.4485
G1 X100.595 Y33.714 E9.45294
G1 X101.145 Y33.836 E9.47823
G1 X101.238 Y33.865 E9.48261
G1 X101.76 Y34.074 E9.50785
G1 X101.848 Y34.118 E9.51227
G1 X102.325 Y34.407 E9.53731
G1 X102.404 Y34.464 E9.54169
G1 X102.83 Y34.829 E9.56688
G1 X102.899 Y34.898 E9.57126
G1 X103.262 Y35.329 E9.59656
