;FLAVOR:Marlin
;TIME:480
;Filament used: 0.213318m
;Layer height: 0.2
;MINX:88.202
;MINY:88.212
;MINZ:0.3
;MAXX:111.798
;MAXY:111.798
;MAXZ:3.4
;Generated with Cura_SteamEngine mb-master-20191116
M140 S70
M105
M190 S70
M104 S220
M105
M109 S220
M82 ;absolute extrusion mode
;Sliced at: Fri 26-11-2021 12:09:40
G21 ;metric values
M107
G28
M420 S1
G90 ;absolute positioning
G92 E0; reset extruder distance
G1 X0 Y0 Z5 F5000 ;move nozzle up 5mm for safe homing
G29;ABL
M500
M82 ;set extruder to absolute mode
M107 ;start with the fan off
G1 X0 Y0 Z15.0 F5000 ;move the platform down 15mm
G92 E0 ;zero the extruded length
G1 F200 E3 ;extrude 3mm of feed stock
G1 F200 E0 ;Retract
G4 S2 ;Wait for material to fall
G1 F200 E3
G92 E0 ;zero the extruded length again
M117 Printing...
G92 E0
;WIPE
G91
G1 X -20 F3000
G1 X40
G1 X-20
G90

G92 E0
G1 F2400 E-1
;LAYER_COUNT:14
;LAYER:0
M107
G1 F600 Z0.8
G0 F4800 X91.805 Y91.511 Z0.8
;TYPE:SKIRT
G1 F600 Z0.3
G1 F2400 E0.02495
G1 F1080 X92.06 Y91.273 E0.04061
G1 X92.363 Y91.045 E0.05763
G1 X92.706 Y90.886 E0.07461
G1 X93.076 Y90.802 E0.09165
G1 X93.602 Y90.817 E0.11527
G1 X94.348 Y90.949 E0.14929
G1 X94.578 Y91.005 E0.15992
G1 X95.281 Y91.228 E0.19303
G1 X95.515 Y91.321 E0.20434
G1 X96.005 Y91.556 E0.22874
G1 X96.242 Y91.692 E0.24101
G1 X96.667 Y91.982 E0.26411
G1 X96.685 Y91.997 E0.26516
G1 X96.685 Y91.991 E0.26543
G1 X96.776 Y91.497 E0.28799
G1 X96.845 Y91.235 E0.30015
G1 X97.016 Y90.74 E0.32367
G1 X97.111 Y90.514 E0.33468
G1 X97.447 Y89.851 E0.36805
G1 X97.572 Y89.642 E0.37899
G1 X98.011 Y89.006 E0.41369
G1 X98.258 Y88.719 E0.43069
G1 X98.559 Y88.49 E0.44767
G1 X98.902 Y88.328 E0.4647
G1 X99.271 Y88.243 E0.4817
G1 X99.461 Y88.229 E0.49026
G1 X100.463 Y88.212 E0.53526
G1 X100.841 Y88.246 E0.5523
G1 X101.203 Y88.358 E0.56931
G1 X101.534 Y88.543 E0.58634
G1 X101.818 Y88.793 E0.60333
G1 X101.97 Y88.982 E0.61422
G1 X102.402 Y89.601 E0.64811
G1 X102.526 Y89.806 E0.65887
G1 X102.866 Y90.465 E0.69216
G1 X102.963 Y90.69 E0.70317
G1 X103.144 Y91.202 E0.72755
G1 X103.215 Y91.466 E0.73982
G1 X103.311 Y91.971 E0.7629
G1 X103.314 Y91.998 E0.76412
G1 X103.324 Y91.989 E0.76473
G1 X103.734 Y91.707 E0.78707
G1 X103.964 Y91.573 E0.79902
G1 X104.437 Y91.342 E0.82266
G1 X104.672 Y91.247 E0.83404
G1 X105.373 Y91.02 E0.86713
G1 X105.606 Y90.961 E0.87792
G1 X106.371 Y90.822 E0.91283
G1 X106.749 Y90.794 E0.92985
G1 X107.125 Y90.845 E0.94689
G1 X107.481 Y90.975 E0.9639
G1 X107.909 Y91.266 E0.98714
G1 X108.389 Y91.706 E1.01638
G1 X108.489 Y91.805 E1.0227
G1 X108.727 Y92.06 E1.03836
G1 X108.955 Y92.363 E1.05539
G1 X109.114 Y92.706 E1.07236
G1 X109.198 Y93.076 E1.0894
G1 X109.184 Y93.601 E1.11298
G1 X109.053 Y94.344 E1.14686
G1 X108.996 Y94.575 E1.15754
G1 X108.772 Y95.281 E1.1908
G1 X108.679 Y95.515 E1.2021
G1 X108.444 Y96.005 E1.22651
G1 X108.308 Y96.242 E1.23877
G1 X108.018 Y96.667 E1.26188
G1 X108.003 Y96.684 E1.26289
G1 X108.012 Y96.685 E1.2633
G1 X108.508 Y96.777 E1.28595
G1 X108.769 Y96.846 E1.29807
G1 X109.263 Y97.017 E1.32155
G1 X109.488 Y97.112 E1.33251
G1 X110.149 Y97.447 E1.36579
G1 X110.358 Y97.572 E1.37672
G1 X110.994 Y98.011 E1.41142
G1 X111.281 Y98.258 E1.42842
G1 X111.51 Y98.559 E1.4454
G1 X111.672 Y98.902 E1.46244
G1 X111.769 Y99.415 E1.48588
G1 X111.797 Y100.07 E1.51532
G1 X111.798 Y100.204 E1.52133
G1 X111.787 Y100.552 E1.53697
G1 X111.735 Y100.927 E1.55397
G1 X111.606 Y101.283 E1.57097
G1 X111.405 Y101.605 E1.58801
G1 X111.017 Y101.972 E1.61199
G1 X110.398 Y102.403 E1.64586
G1 X110.194 Y102.526 E1.65656
G1 X109.535 Y102.866 E1.68985
G1 X109.31 Y102.963 E1.70085
G1 X108.798 Y103.144 E1.72524
G1 X108.534 Y103.215 E1.73751
G1 X108.029 Y103.311 E1.76059
G1 X108.002 Y103.314 E1.76181
G1 X108.011 Y103.324 E1.76242
G1 X108.293 Y103.734 E1.78476
G1 X108.427 Y103.963 E1.79667
G1 X108.657 Y104.433 E1.82017
G1 X108.752 Y104.669 E1.83159
G1 X108.98 Y105.373 E1.86482
G1 X109.039 Y105.606 E1.87561
G1 X109.178 Y106.371 E1.91052
G1 X109.206 Y106.749 E1.92754
G1 X109.155 Y107.125 E1.94458
G1 X109.025 Y107.481 E1.9616
G1 X108.734 Y107.909 E1.98484
G1 X108.294 Y108.389 E2.01407
G1 X108.195 Y108.489 E2.02039
G1 X107.94 Y108.727 E2.03605
G1 X107.637 Y108.955 E2.05308
G1 X107.294 Y109.114 E2.07006
G1 X106.924 Y109.198 E2.08709
G1 X106.398 Y109.183 E2.11072
G1 X105.652 Y109.051 E2.14474
G1 X105.422 Y108.995 E2.15537
G1 X104.719 Y108.772 E2.18848
G1 X104.485 Y108.679 E2.19979
G1 X103.995 Y108.444 E2.22419
G1 X103.758 Y108.308 E2.23646
G1 X103.333 Y108.018 E2.25956
G1 X103.315 Y108.003 E2.26061
G1 X103.315 Y108.009 E2.26088
G1 X103.224 Y108.503 E2.28344
G1 X103.155 Y108.765 E2.2956
G1 X102.984 Y109.26 E2.31912
G1 X102.889 Y109.486 E2.33012
G1 X102.553 Y110.149 E2.3635
G1 X102.428 Y110.358 E2.37443
G1 X101.989 Y110.994 E2.40913
G1 X101.742 Y111.281 E2.42613
G1 X101.441 Y111.51 E2.44312
G1 X101.098 Y111.672 E2.46015
G1 X100.585 Y111.769 E2.48359
G1 X99.929 Y111.797 E2.51307
G1 X99.795 Y111.798 E2.51909
G1 X99.448 Y111.787 E2.53468
G1 X99.073 Y111.735 E2.55168
G1 X98.716 Y111.606 E2.56872
G1 X98.395 Y111.405 E2.58573
G1 X98.028 Y111.017 E2.60971
G1 X97.597 Y110.398 E2.64358
G1 X97.474 Y110.194 E2.65427
G1 X97.133 Y109.533 E2.68767
G1 X97.036 Y109.307 E2.69871
G1 X96.855 Y108.794 E2.72314
G1 X96.783 Y108.53 E2.73542
G1 X96.688 Y108.028 E2.75836
G1 X96.686 Y108.003 E2.75949
G1 X96.676 Y108.011 E2.76006
G1 X96.266 Y108.293 E2.78241
G1 X96.036 Y108.427 E2.79436
G1 X95.563 Y108.658 E2.818
G1 X95.328 Y108.753 E2.82938
G1 X94.627 Y108.98 E2.86246
G1 X94.394 Y109.039 E2.87325
G1 X93.629 Y109.178 E2.90817
G1 X93.251 Y109.206 E2.92519
G1 X92.875 Y109.155 E2.94222
G1 X92.519 Y109.025 E2.95924
G1 X92.091 Y108.734 E2.98248
G1 X91.61 Y108.293 E3.01178
G1 X91.51 Y108.194 E3.0181
G1 X91.273 Y107.94 E3.0337
G1 X91.045 Y107.637 E3.05072
G1 X90.886 Y107.293 E3.06774
G1 X90.802 Y106.924 E3.08473
G1 X90.816 Y106.399 E3.10831
G1 X90.947 Y105.656 E3.14219
G1 X91.004 Y105.425 E3.15287
G1 X91.228 Y104.719 E3.18613
G1 X91.321 Y104.485 E3.19744
G1 X91.556 Y103.995 E3.22184
G1 X91.692 Y103.758 E3.23411
G1 X91.982 Y103.333 E3.25721
G1 X91.997 Y103.316 E3.25823
G1 X91.988 Y103.315 E3.25863
G1 X91.492 Y103.223 E3.28128
G1 X91.231 Y103.154 E3.29341
G1 X90.737 Y102.983 E3.31688
G1 X90.512 Y102.888 E3.32785
G1 X89.851 Y102.553 E3.36112
G1 X89.642 Y102.428 E3.37205
G1 X89.006 Y101.989 E3.40675
G1 X88.719 Y101.742 E3.42376
G1 X88.49 Y101.441 E3.44074
G1 X88.328 Y101.098 E3.45777
G1 X88.231 Y100.585 E3.48121
G1 X88.203 Y99.93 E3.51065
G1 X88.202 Y99.796 E3.51667
G1 X88.213 Y99.448 E3.5323
G1 X88.265 Y99.073 E3.5493
G1 X88.394 Y98.717 E3.5663
G1 X88.595 Y98.395 E3.58334
G1 X88.983 Y98.028 E3.60733
G1 X89.602 Y97.597 E3.64119
G1 X89.806 Y97.474 E3.65189
G1 X90.465 Y97.134 E3.68518
G1 X90.69 Y97.037 E3.69619
G1 X91.202 Y96.856 E3.72057
G1 X91.466 Y96.785 E3.73285
G1 X91.971 Y96.689 E3.75593
G1 X91.998 Y96.686 E3.75715
G1 X91.989 Y96.676 E3.75775
G1 X91.707 Y96.266 E3.78009
G1 X91.573 Y96.036 E3.79205
G1 X91.342 Y95.563 E3.81568
G1 X91.247 Y95.328 E3.82706
G1 X91.02 Y94.627 E3.86015
G1 X90.961 Y94.394 E3.87094
G1 X90.822 Y93.629 E3.90585
G1 X90.794 Y93.251 E3.92287
G1 X90.845 Y92.875 E3.93991
G1 X90.975 Y92.519 E3.95693
G1 X91.266 Y92.091 E3.98016
G1 X91.706 Y91.611 E4.0094
G1 X91.805 Y91.511 E4.01572
G0 F4800 X92.078 Y91.804
G1 F1080 X92.333 Y91.566 E4.03138
G1 X92.602 Y91.368 E4.04638
G1 X92.911 Y91.241 E4.06138
G1 X93.241 Y91.19 E4.07637
G1 X93.532 Y91.21 E4.08947
G1 X94.278 Y91.342 E4.12349
G1 X94.457 Y91.387 E4.13178
G1 X95.16 Y91.61 E4.16489
G1 X95.342 Y91.682 E4.17368
G1 X95.832 Y91.917 E4.19808
G1 X96.016 Y92.023 E4.20761
G1 X96.441 Y92.313 E4.23072
G1 X96.644 Y92.481 E4.24255
G1 X96.879 Y92.717 E4.2575
G1 X97.059 Y92.939 E4.27034
G1 X97.107 Y93.012 E4.27426
G1 X97.1 Y92.979 E4.27577
G1 X97.072 Y92.755 E4.28591
G1 X97.056 Y92.376 E4.30294
G1 X97.078 Y92.063 E4.31703
G1 X97.169 Y91.569 E4.33959
G1 X97.223 Y91.366 E4.34902
G1 X97.394 Y90.871 E4.37253
G1 X97.468 Y90.695 E4.38111
G1 X97.804 Y90.032 E4.41448
G1 X97.901 Y89.87 E4.42296
G1 X98.34 Y89.234 E4.45766
G1 X98.561 Y88.983 E4.47267
G1 X98.835 Y88.793 E4.48764
G1 X99.147 Y88.672 E4.50267
G1 X99.468 Y88.629 E4.51721
G1 X100.47 Y88.612 E4.56221
G1 X100.803 Y88.646 E4.57724
G1 X101.117 Y88.758 E4.59221
G1 X101.397 Y88.942 E4.60725
G1 X101.642 Y89.211 E4.62359
G1 X102.074 Y89.83 E4.65748
G1 X102.17 Y89.989 E4.66582
G1 X102.51 Y90.648 E4.69912
G1 X102.586 Y90.823 E4.70769
G1 X102.767 Y91.335 E4.73207
G1 X102.822 Y91.541 E4.74164
G1 X102.918 Y92.046 E4.76472
G1 X102.943 Y92.311 E4.77668
G1 X102.942 Y92.644 E4.79163
G1 X102.913 Y92.923 E4.80422
G1 X102.895 Y93.01 E4.80821
G1 X102.908 Y92.99 E4.80928
G1 X103.054 Y92.804 E4.8199
G1 X103.319 Y92.519 E4.83737
G1 X103.551 Y92.319 E4.85113
G1 X103.961 Y92.037 E4.87347
G1 X104.14 Y91.932 E4.88279
G1 X104.613 Y91.701 E4.90643
G1 X104.796 Y91.627 E4.91529
G1 X105.497 Y91.4 E4.94837
G1 X105.678 Y91.355 E4.95675
G1 X106.443 Y91.216 E4.99166
G1 X106.776 Y91.195 E5.00664
G1 X107.105 Y91.255 E5.02166
G1 X107.41 Y91.391 E5.03665
G1 X107.639 Y91.561 E5.04946
G1 X108.119 Y92.001 E5.0787
G1 X108.196 Y92.078 E5.08359
G1 X108.434 Y92.333 E5.09925
G1 X108.632 Y92.602 E5.11424
G1 X108.759 Y92.911 E5.12925
G1 X108.81 Y93.241 E5.14424
G1 X108.79 Y93.531 E5.15729
G1 X108.659 Y94.274 E5.19117
G1 X108.614 Y94.454 E5.1995
G1 X108.39 Y95.16 E5.23276
G1 X108.318 Y95.342 E5.24154
G1 X108.083 Y95.832 E5.26594
G1 X107.977 Y96.016 E5.27548
G1 X107.687 Y96.441 E5.29858
G1 X107.519 Y96.644 E5.31041
G1 X107.283 Y96.879 E5.32537
G1 X107.061 Y97.059 E5.3382
G1 X106.988 Y97.107 E5.34212
G1 X107.021 Y97.1 E5.34364
G1 X107.245 Y97.072 E5.35377
G1 X107.625 Y97.056 E5.37085
G1 X107.939 Y97.078 E5.38499
G1 X108.435 Y97.17 E5.40764
G1 X108.638 Y97.224 E5.41707
G1 X109.132 Y97.395 E5.44054
G1 X109.307 Y97.469 E5.44907
G1 X109.968 Y97.804 E5.48235
G1 X110.13 Y97.901 E5.49082
G1 X110.766 Y98.34 E5.52552
G1 X111.017 Y98.561 E5.54054
G1 X111.207 Y98.835 E5.55551
G1 X111.328 Y99.147 E5.57054
G1 X111.37 Y99.432 E5.58347
G1 X111.398 Y100.087 E5.61291
G1 X111.398 Y100.191 E5.61758
G1 X111.387 Y100.539 E5.63321
G1 X111.337 Y100.869 E5.6482
G1 X111.21 Y101.178 E5.6632
G1 X111.013 Y101.448 E5.67821
G1 X110.788 Y101.644 E5.69161
G1 X110.169 Y102.075 E5.72547
G1 X110.011 Y102.17 E5.73375
G1 X109.352 Y102.51 E5.76705
G1 X109.177 Y102.586 E5.77561
G1 X108.665 Y102.767 E5.8
G1 X108.459 Y102.822 E5.80957
G1 X107.954 Y102.918 E5.83265
G1 X107.689 Y102.943 E5.8446
G1 X107.356 Y102.942 E5.85956
G1 X107.077 Y102.913 E5.87215
G1 X106.99 Y102.895 E5.87614
G1 X107.01 Y102.908 E5.87721
G1 X107.196 Y103.054 E5.88783
G1 X107.481 Y103.319 E5.9053
G1 X107.681 Y103.551 E5.91906
G1 X107.963 Y103.961 E5.9414
G1 X108.068 Y104.139 E5.95068
G1 X108.298 Y104.609 E5.97417
G1 X108.372 Y104.793 E5.98308
G1 X108.6 Y105.497 E6.01631
G1 X108.645 Y105.678 E6.02468
G1 X108.784 Y106.443 E6.05959
G1 X108.805 Y106.776 E6.07457
G1 X108.745 Y107.105 E6.08959
G1 X108.609 Y107.41 E6.10458
G1 X108.439 Y107.639 E6.11739
G1 X107.999 Y108.119 E6.14663
G1 X107.922 Y108.196 E6.15152
G1 X107.667 Y108.434 E6.16718
G1 X107.398 Y108.632 E6.18218
G1 X107.089 Y108.759 E6.19718
G1 X106.759 Y108.81 E6.21217
G1 X106.468 Y108.79 E6.22527
G1 X105.722 Y108.658 E6.25928
G1 X105.543 Y108.613 E6.26757
G1 X104.84 Y108.39 E6.30069
G1 X104.658 Y108.318 E6.30948
G1 X104.168 Y108.083 E6.33388
G1 X103.984 Y107.977 E6.34341
G1 X103.559 Y107.687 E6.36651
G1 X103.356 Y107.519 E6.37835
G1 X103.121 Y107.283 E6.3933
G1 X102.941 Y107.061 E6.40613
G1 X102.893 Y106.988 E6.41006
G1 X102.9 Y107.021 E6.41157
G1 X102.928 Y107.245 E6.42171
G1 X102.944 Y107.624 E6.43874
G1 X102.922 Y107.937 E6.45283
G1 X102.831 Y108.431 E6.47538
G1 X102.777 Y108.634 E6.48481
G1 X102.606 Y109.129 E6.50833
G1 X102.532 Y109.305 E6.5169
G1 X102.196 Y109.968 E6.55028
G1 X102.099 Y110.13 E6.55875
G1 X101.66 Y110.766 E6.59345
G1 X101.439 Y111.017 E6.60847
G1 X101.165 Y111.207 E6.62344
G1 X100.853 Y111.328 E6.63847
G1 X100.568 Y111.37 E6.6514
G1 X99.912 Y111.398 E6.68088
G1 X99.808 Y111.398 E6.68555
G1 X99.461 Y111.387 E6.70114
G1 X99.13 Y111.337 E6.71617
G1 X98.821 Y111.21 E6.73117
G1 X98.551 Y111.013 E6.74618
G1 X98.356 Y110.788 E6.75955
G1 X97.925 Y110.169 E6.79342
G1 X97.83 Y110.011 E6.8017
G1 X97.489 Y109.35 E6.83509
G1 X97.413 Y109.174 E6.8437
G1 X97.232 Y108.661 E6.86813
G1 X97.176 Y108.455 E6.87771
G1 X97.081 Y107.953 E6.90065
G1 X97.057 Y107.689 E6.91255
G1 X97.058 Y107.356 E6.92751
G1 X97.087 Y107.077 E6.9401
G1 X97.105 Y106.99 E6.94409
G1 X97.092 Y107.01 E6.94516
G1 X96.946 Y107.196 E6.95578
G1 X96.681 Y107.481 E6.97325
G1 X96.449 Y107.681 E6.98701
G1 X96.039 Y107.963 E7.00935
G1 X95.86 Y108.068 E7.01867
G1 X95.387 Y108.299 E7.0423
G1 X95.204 Y108.373 E7.05117
G1 X94.503 Y108.6 E7.08425
G1 X94.322 Y108.645 E7.09263
G1 X93.557 Y108.784 E7.12754
G1 X93.224 Y108.805 E7.14252
G1 X92.895 Y108.745 E7.15754
G1 X92.59 Y108.609 E7.17253
G1 X92.361 Y108.439 E7.18534
G1 X91.88 Y107.998 E7.21464
G1 X91.802 Y107.921 E7.21956
G1 X91.565 Y107.667 E7.23516
G1 X91.368 Y107.397 E7.25017
G1 X91.241 Y107.089 E7.26512
G1 X91.19 Y106.759 E7.28012
G1 X91.21 Y106.469 E7.29317
G1 X91.341 Y105.726 E7.32705
G1 X91.386 Y105.546 E7.33538
G1 X91.61 Y104.84 E7.36863
G1 X91.682 Y104.658 E7.37742
G1 X91.917 Y104.168 E7.40182
G1 X92.023 Y103.984 E7.41136
G1 X92.313 Y103.559 E7.43446
G1 X92.481 Y103.356 E7.44629
G1 X92.717 Y103.121 E7.46125
G1 X92.939 Y102.941 E7.47408
G1 X93.012 Y102.893 E7.478
G1 X92.979 Y102.9 E7.47952
G1 X92.755 Y102.928 E7.48965
G1 X92.375 Y102.944 E7.50673
G1 X92.061 Y102.922 E7.52086
G1 X91.565 Y102.83 E7.54352
G1 X91.362 Y102.776 E7.55295
G1 X90.868 Y102.605 E7.57642
G1 X90.693 Y102.531 E7.58495
G1 X90.032 Y102.196 E7.61822
G1 X89.87 Y102.099 E7.6267
G1 X89.234 Y101.66 E7.6614
G1 X88.983 Y101.439 E7.67642
G1 X88.793 Y101.165 E7.69139
G1 X88.672 Y100.853 E7.70642
G1 X88.63 Y100.568 E7.71935
G1 X88.602 Y99.913 E7.74879
G1 X88.602 Y99.809 E7.75346
G1 X88.613 Y99.461 E7.76909
G1 X88.663 Y99.131 E7.78408
G1 X88.79 Y98.822 E7.79908
G1 X88.987 Y98.552 E7.81409
G1 X89.212 Y98.356 E7.82748
G1 X89.831 Y97.925 E7.86135
G1 X89.989 Y97.83 E7.86963
G1 X90.648 Y97.49 E7.90293
G1 X90.823 Y97.414 E7.91149
G1 X91.335 Y97.233 E7.93588
G1 X91.541 Y97.178 E7.94545
G1 X92.046 Y97.082 E7.96853
G1 X92.311 Y97.057 E7.98048
G1 X92.644 Y97.058 E7.99543
G1 X92.923 Y97.087 E8.00803
G1 X93.01 Y97.105 E8.01202
G1 X92.99 Y97.092 E8.01309
G1 X92.804 Y96.946 E8.02371
G1 X92.519 Y96.681 E8.04118
G1 X92.319 Y96.449 E8.05493
G1 X92.037 Y96.039 E8.07728
G1 X91.932 Y95.86 E8.0866
G1 X91.701 Y95.387 E8.11023
G1 X91.627 Y95.204 E8.1191
G1 X91.4 Y94.503 E8.15218
G1 X91.355 Y94.322 E8.16055
G1 X91.216 Y93.557 E8.19547
G1 X91.195 Y93.224 E8.21045
G1 X91.255 Y92.895 E8.22546
G1 X91.391 Y92.59 E8.24046
G1 X91.561 Y92.361 E8.25327
G1 X92.001 Y91.881 E8.2825
G1 X92.078 Y91.804 E8.28739
G0 F4800 X92.351 Y92.096
G1 F1080 X92.606 Y91.858 E8.30305
G1 X92.837 Y91.696 E8.31572
G1 X93.104 Y91.606 E8.32837
G1 X93.462 Y91.604 E8.34445
G1 X94.208 Y91.736 E8.37847
G1 X94.336 Y91.768 E8.38439
G1 X95.039 Y91.991 E8.41751
G1 X95.169 Y92.042 E8.42378
G1 X95.659 Y92.277 E8.44818
G1 X95.791 Y92.353 E8.45502
G1 X96.216 Y92.643 E8.47812
G1 X96.361 Y92.763 E8.48657
G1 X96.596 Y92.999 E8.50152
G1 X96.724 Y93.158 E8.51069
G1 X97.269 Y93.991 E8.55539
G1 X97.29 Y94.014 E8.55678
G1 X97.688 Y93.871 E8.57577
G1 X97.492 Y92.898 E8.62034
G1 X97.472 Y92.738 E8.62758
G1 X97.456 Y92.359 E8.64461
G1 X97.472 Y92.136 E8.65465
G1 X97.563 Y91.642 E8.67721
G1 X97.601 Y91.496 E8.68398
G1 X97.772 Y91.001 E8.70749
