;FLAVOR:Marlin
;TIME:4369
;Filament used: 3.78028m
;Layer height: 0.2
;MINX:79.7
;MINY:34.529
;MINZ:0.3
;MAXX:120.3
;MAXY:80.129
;MAXZ:23.4
;Generated with Cura_SteamEngine mb-master-20191116
M140 S85
M105
M190 S85
M104 S220
M105
M109 S220
M82 ;absolute extrusion mode
;Sliced at: Fri 26-11-2021 15:06:53
G21 ;metric values
M107
G28
M420 S1
G90 ;absolute positioning
G92 E0; reset extruder distance
G1 X0 Y0 Z5 F5000 ;move nozzle up 5mm for safe homing
G29;ABL
M500
M82 ;set extruder to absolute mode
M107 ;start with the fan off
G1 X0 Y0 Z15.0 F5000 ;move the platform down 15mm
G92 E0 ;zero the extruded length
G1 F200 E3 ;extrude 3mm of feed stock
G1 F200 E0 ;Retract
G4 S2 ;Wait for material to fall
G1 F200 E3
G92 E0 ;zero the extruded length again
M117 Printing...
G92 E0
;WIPE
G91
G1 X -20 F3000
G1 X40
G1 X-20
G90

G92 E0
G1 F2400 E-1
;LAYER_COUNT:114
;LAYER:0
M107
G1 F600 Z0.8
G0 F4800 X85.858 Y35.592 Z0.8
;TYPE:SKIRT
G1 F600 Z0.3
G1 F2400 E0.02495
G1 F1440 X86.048 Y35.265 E0.04193
G1 X86.303 Y34.984 E0.05896
G1 X86.612 Y34.764 E0.076
G1 X86.959 Y34.612 E0.09301
G1 X87.5 Y34.529 E0.11758
G1 X89.983 Y34.529 E0.22907
G1 X90.36 Y34.569 E0.24609
G1 X90.72 Y34.687 E0.2631
G1 X91.047 Y34.877 E0.28009
G1 X91.328 Y35.132 E0.29712
G1 X91.548 Y35.441 E0.31416
G1 X91.7 Y35.788 E0.33117
G1 X91.782 Y36.268 E0.35303
G1 X91.799 Y36.769 E0.37554
G1 X91.8 Y36.83 E0.37828
G1 X91.801 Y55.529 E1.21789
G1 X108.2 Y55.529 E1.95422
G1 X108.2 Y36.329 E2.81632
G1 X108.24 Y35.952 E2.83335
G1 X108.358 Y35.592 E2.85036
G1 X108.548 Y35.265 E2.86734
G1 X108.803 Y34.984 E2.88438
G1 X109.112 Y34.764 E2.90141
G1 X109.459 Y34.612 E2.91842
G1 X110 Y34.529 E2.94299
G1 X112.483 Y34.529 E3.05448
G1 X112.86 Y34.569 E3.07151
G1 X113.22 Y34.687 E3.08852
G1 X113.547 Y34.877 E3.1055
G1 X113.828 Y35.132 E3.12254
G1 X114.048 Y35.441 E3.13957
G1 X114.2 Y35.788 E3.15658
G1 X114.282 Y36.269 E3.17849
G1 X114.299 Y36.777 E3.20131
G1 X114.3 Y36.837 E3.204
G1 X114.301 Y59.529 E4.2229
G1 X118.5 Y59.529 E4.41144
G1 X118.877 Y59.569 E4.42846
G1 X119.237 Y59.687 E4.44547
G1 X119.564 Y59.877 E4.46246
G1 X119.845 Y60.132 E4.47949
G1 X120.065 Y60.441 E4.49652
G1 X120.217 Y60.788 E4.51353
G1 X120.3 Y61.329 E4.53811
G1 X120.3 Y78.329 E5.30143
G1 X120.26 Y78.706 E5.31845
G1 X120.142 Y79.066 E5.33546
G1 X119.952 Y79.393 E5.35245
G1 X119.697 Y79.674 E5.36948
G1 X119.388 Y79.894 E5.38652
G1 X119.041 Y80.046 E5.40353
G1 X118.5 Y80.129 E5.4281
G1 X81.5 Y80.129 E7.08944
G1 X81.123 Y80.089 E7.10647
G1 X80.763 Y79.971 E7.12348
G1 X80.436 Y79.781 E7.14046
G1 X80.155 Y79.526 E7.1575
G1 X79.935 Y79.217 E7.17453
G1 X79.783 Y78.87 E7.19154
G1 X79.7 Y78.329 E7.21611
G1 X79.7 Y61.329 E7.97943
G1 X79.74 Y60.952 E7.99646
G1 X79.858 Y60.592 E8.01347
G1 X80.048 Y60.265 E8.03045
G1 X80.303 Y59.984 E8.04749
G1 X80.612 Y59.764 E8.06452
G1 X80.959 Y59.612 E8.08153
G1 X81.5 Y59.529 E8.1061
G1 X85.7 Y59.529 E8.29469
G1 X85.7 Y36.329 E9.3364
G1 X85.74 Y35.952 E9.35342
G1 X85.858 Y35.592 E9.37043
G0 F4800 X86.257 Y35.685
G1 F1440 X86.445 Y35.408 E9.38546
G1 X86.693 Y35.185 E9.40044
G1 X86.987 Y35.026 E9.41545
G1 X87.311 Y34.942 E9.43047
G1 X87.5 Y34.929 E9.43898
G1 X89.983 Y34.929 E9.55047
G1 X90.315 Y34.969 E9.56549
G1 X90.627 Y35.086 E9.58045
G1 X90.904 Y35.274 E9.59548
G1 X91.127 Y35.522 E9.61045
G1 X91.286 Y35.816 E9.62546
G1 X91.382 Y36.282 E9.64683
G1 X91.399 Y36.783 E9.66933
G1 X91.4 Y36.83 E9.67144
G1 X91.401 Y55.929 E10.52901
G1 X108.6 Y55.929 E11.30127
G1 X108.6 Y36.329 E12.18133
G1 X108.64 Y35.997 E12.19635
G1 X108.757 Y35.685 E12.21131
G1 X108.945 Y35.408 E12.22634
G1 X109.193 Y35.185 E12.24131
G1 X109.487 Y35.026 E12.25632
G1 X109.811 Y34.942 E12.27135
G1 X110 Y34.929 E12.27986
G1 X112.483 Y34.929 E12.39135
G1 X112.815 Y34.969 E12.40636
G1 X113.127 Y35.086 E12.42132
G1 X113.404 Y35.274 E12.43636
G1 X113.627 Y35.522 E12.45133
G1 X113.786 Y35.816 E12.46634
G1 X113.882 Y36.282 E12.4877
G1 X113.899 Y36.79 E12.51052
G1 X113.9 Y36.837 E12.51264
G1 X113.901 Y59.929 E13.54949
G1 X118.5 Y59.929 E13.75599
G1 X118.832 Y59.969 E13.77101
G1 X119.144 Y60.086 E13.78597
G1 X119.421 Y60.274 E13.801
G1 X119.644 Y60.522 E13.81598
G1 X119.803 Y60.816 E13.83099
G1 X119.887 Y61.14 E13.84601
G1 X119.9 Y61.329 E13.85452
G1 X119.9 Y78.329 E14.61784
G1 X119.86 Y78.661 E14.63286
G1 X119.743 Y78.973 E14.64782
G1 X119.555 Y79.25 E14.66285
G1 X119.307 Y79.473 E14.67783
G1 X119.013 Y79.632 E14.69283
G1 X118.689 Y79.716 E14.70786
G1 X118.5 Y79.729 E14.71637
G1 X81.5 Y79.729 E16.37771
G1 X81.168 Y79.689 E16.39273
G1 X80.856 Y79.572 E16.40769
G1 X80.579 Y79.384 E16.42272
G1 X80.356 Y79.136 E16.4377
G1 X80.197 Y78.842 E16.4527
G1 X80.113 Y78.518 E16.46773
G1 X80.1 Y78.329 E16.47624
G1 X80.1 Y61.329 E17.23956
G1 X80.14 Y60.997 E17.25457
G1 X80.257 Y60.685 E17.26954
G1 X80.445 Y60.408 E17.28457
G1 X80.693 Y60.185 E17.29954
G1 X80.987 Y60.026 E17.31455
G1 X81.311 Y59.942 E17.32958
G1 X81.5 Y59.929 E17.33809
G1 X86.1 Y59.929 E17.54463
G1 X86.1 Y36.329 E18.6043
G1 X86.14 Y35.997 E18.61931
G1 X86.257 Y35.685 E18.63428
G0 F4800 X86.54 Y36.05
G1 F1440 X86.656 Y35.793 E18.64694
G1 X86.839 Y35.578 E18.65961
G1 X87.075 Y35.424 E18.67227
G1 X87.345 Y35.341 E18.68495
G1 X87.5 Y35.329 E18.69193
G1 X89.983 Y35.329 E18.80342
G1 X90.262 Y35.369 E18.81608
G1 X90.519 Y35.485 E18.82874
G1 X90.734 Y35.668 E18.84141
G1 X90.888 Y35.904 E18.85407
G1 X90.982 Y36.295 E18.87212
G1 X90.999 Y36.796 E18.89463
G1 X91 Y36.83 E18.89616
G1 X91.001 Y56.329 E19.77169
G1 X109 Y56.329 E20.57986
G1 X109 Y36.329 E21.47789
G1 X109.04 Y36.05 E21.49054
G1 X109.156 Y35.793 E21.5032
G1 X109.339 Y35.578 E21.51588
G1 X109.575 Y35.424 E21.52853
G1 X109.845 Y35.341 E21.54122
G1 X110 Y35.329 E21.5482
G1 X112.483 Y35.329 E21.65969
G1 X112.762 Y35.369 E21.67234
G1 X113.019 Y35.485 E21.685
G1 X113.234 Y35.668 E21.69768
G1 X113.388 Y35.904 E21.71033
G1 X113.482 Y36.296 E21.72843
G1 X113.499 Y36.804 E21.75126
G1 X113.5 Y36.837 E21.75274
G1 X113.501 Y60.329 E22.80756
G1 X118.5 Y60.329 E23.03202
G1 X118.779 Y60.369 E23.04467
G1 X119.036 Y60.485 E23.05734
G1 X119.251 Y60.668 E23.07001
G1 X119.405 Y60.904 E23.08267
G1 X119.488 Y61.174 E23.09535
G1 X119.5 Y61.329 E23.10233
G1 X119.5 Y78.329 E23.86565
G1 X119.46 Y78.608 E23.87831
G1 X119.344 Y78.865 E23.89097
G1 X119.161 Y79.08 E23.90364
G1 X118.925 Y79.234 E23.9163
G1 X118.655 Y79.317 E23.92898
G1 X118.5 Y79.329 E23.93596
G1 X81.5 Y79.329 E25.5973
G1 X81.221 Y79.289 E25.60996
G1 X80.964 Y79.173 E25.62262
G1 X80.749 Y78.99 E25.6353
G1 X80.595 Y78.754 E25.64795
G1 X80.512 Y78.484 E25.66063
G1 X80.5 Y78.329 E25.66761
G1 X80.5 Y61.329 E26.43093
G1 X80.54 Y61.05 E26.44359
G1 X80.656 Y60.793 E26.45625
G1 X80.839 Y60.578 E26.46893
G1 X81.075 Y60.424 E26.48158
G1 X81.345 Y60.341 E26.49426
G1 X81.5 Y60.329 E26.50124
G1 X86.5 Y60.329 E26.72575
G1 X86.5 Y36.329 E27.80338
G1 X86.54 Y36.05 E27.81603
G0 F4800 X86.94 Y36.114
G1 F1440 X87.053 Y35.928 E27.82581
G1 X87.226 Y35.795 E27.8356
G1 X87.5 Y35.729 E27.84826
G1 X89.983 Y35.729 E27.95975
G1 X90.198 Y35.769 E27.96957
G1 X90.384 Y35.882 E27.97934
G1 X90.517 Y36.055 E27.98914
G1 X90.583 Y36.309 E28.00092
G1 X90.6 Y36.81 E28.02343
G1 X90.6 Y36.83 E28.02433
G1 X90.601 Y56.729 E28.91782
G1 X109.4 Y56.729 E29.76191
G1 X109.4 Y36.329 E30.6779
G1 X109.44 Y36.114 E30.68772
G1 X109.553 Y35.928 E30.69749
G1 X109.726 Y35.795 E30.70729
G1 X110 Y35.729 E30.71994
G1 X112.483 Y35.729 E30.83143
G1 X112.698 Y35.769 E30.84125
G1 X112.884 Y35.882 E30.85102
G1 X113.017 Y36.055 E30.86082
G1 X113.083 Y36.309 E30.87261
G1 X113.1 Y36.817 E30.89543
G1 X113.1 Y36.837 E30.89633
G1 X113.101 Y60.729 E31.96911
G1 X118.5 Y60.729 E32.21153
G1 X118.715 Y60.769 E32.22135
G1 X118.901 Y60.882 E32.23112
G1 X119.034 Y61.055 E32.24092
G1 X119.1 Y61.329 E32.25357
G1 X119.1 Y78.329 E33.01689
G1 X119.06 Y78.544 E33.02671
G1 X118.947 Y78.73 E33.03648
G1 X118.774 Y78.863 E33.04628
G1 X118.5 Y78.929 E33.05894
G1 X81.5 Y78.929 E34.72028
G1 X81.285 Y78.889 E34.7301
G1 X81.099 Y78.776 E34.73987
G1 X80.966 Y78.603 E34.74967
G1 X80.9 Y78.329 E34.76232
G1 X80.9 Y61.329 E35.52564
G1 X80.94 Y61.114 E35.53546
G1 X81.053 Y60.928 E35.54524
G1 X81.226 Y60.795 E35.55503
G1 X81.5 Y60.729 E35.56769
G1 X86.9 Y60.729 E35.81016
G1 X86.9 Y36.329 E36.90574
G1 X86.94 Y36.114 E36.91556
G0 F4800 X87.339 Y36.21
G1 F1440 X87.5 Y36.129 E36.92366
G1 X89.983 Y36.129 E37.03515
G1 X90.102 Y36.168 E37.04077
G1 X90.183 Y36.322 E37.04858
G1 X90.2 Y36.823 E37.07109
G1 X90.2 Y36.83 E37.0714
G1 X90.201 Y57.129 E37.98285
G1 X109.8 Y57.129 E38.86287
G1 X109.8 Y36.329 E39.79682
G1 X109.839 Y36.21 E39.80244
G1 X110 Y36.129 E39.81053
G1 X112.483 Y36.129 E39.92202
G1 X112.602 Y36.168 E39.92764
G1 X112.683 Y36.322 E39.93546
G1 X112.7 Y36.83 E39.95828
G1 X112.7 Y36.837 E39.95859
G1 X112.701 Y61.129 E41.04933
G1 X118.5 Y61.129 E41.30971
G1 X118.619 Y61.168 E41.31534
G1 X118.7 Y61.329 E41.32343
G1 X118.7 Y78.329 E42.08675
G1 X118.661 Y78.448 E42.09237
G1 X118.5 Y78.529 E42.10047
G1 X81.5 Y78.529 E43.76181
G1 X81.381 Y78.49 E43.76743
G1 X81.3 Y78.329 E43.77552
G1 X81.3 Y61.329 E44.53884
G1 X81.339 Y61.21 E44.54447
G1 X81.5 Y61.129 E44.55256
G1 X87.3 Y61.129 E44.81299
G1 X87.3 Y36.329 E45.92654
G1 X87.339 Y36.21 E45.93216
;MESH:Gripper-Manipulaator connector v1.stl
G0 F4800 X87.7 Y36.529
;TYPE:WALL-OUTER
G1 F1440 X89.79 Y36.529 E46.026
G1 X89.8 Y36.83 E46.03953
G1 X89.8 Y57.529 E46.96893
G1 X110.2 Y57.529 E47.88492
G1 X110.2 Y36.529 E48.82784
G1 X112.289 Y36.529 E48.92164
G1 X112.3 Y36.837 E48.93548
G1 X112.3 Y61.529 E50.04418
G1 X118.3 Y61.529 E50.31359
G1 X118.3 Y78.129 E51.05895
G1 X81.7 Y78.129 E52.70233
G1 X81.7 Y61.529 E53.44769
G1 X87.7 Y61.529 E53.7171
G1 X87.7 Y36.529 E54.83963
G0 F4800 X87.9 Y36.529
G0 X88.14 Y36.969
G0 X88.1 Y36.929
;TYPE:WALL-INNER
G1 F1440 X89.4 Y36.929 E54.898
G1 X89.4 Y57.929 E55.84092
G1 X110.6 Y57.929 E56.79283
G1 X110.6 Y36.929 E57.73575
G1 X111.9 Y36.929 E57.79412
G1 X111.9 Y61.929 E58.91665
G1 X117.9 Y61.929 E59.18606
G1 X117.9 Y77.729 E59.8955
G1 X82.1 Y77.729 E61.50296
G1 X82.1 Y61.929 E62.2124
G1 X88.1 Y61.929 E62.48181
G1 X88.1 Y36.929 E63.60434
G0 F4800 X88.5 Y37.329
G1 F1440 X89 Y37.329 E63.62679
G1 X89 Y58.329 E64.56971
G1 X111 Y58.329 E65.55754
G1 X111 Y37.329 E66.50046
G1 X111.5 Y37.329 E66.52291
G1 X111.5 Y62.329 E67.64544
G1 X117.5 Y62.329 E67.91485
G1 X117.5 Y77.329 E68.58837
G1 X82.5 Y77.329 E70.15991
G1 X82.5 Y62.329 E70.83343
G1 X88.5 Y62.329 E71.10284
G1 X88.5 Y37.329 E72.22536
G1 F2400 E71.22536
G1 F600 Z0.8
G0 F4800 X88.89 Y58.719 Z0.8
;TYPE:SKIN
G1 F600 Z0.3
G1 F2400 E72.25031
G1 F1440 X111.11 Y58.719 E73.24801
G1 X111.11 Y62.719 E73.42762
G1 X117.11 Y62.719 E73.69703
G1 X117.11 Y76.939 E74.33552
G1 X82.89 Y76.939 E75.87204
G1 X82.89 Y62.719 E76.51053
G1 X88.89 Y62.719 E76.77994
G1 X88.89 Y58.719 E76.95955
G0 F4800 X89.29 Y59.119
G1 F1440 X110.71 Y59.119 E77.92133
G1 X110.71 Y63.119 E78.10093
G1 X116.71 Y63.119 E78.37034
G1 X116.71 Y76.539 E78.97292
G1 X83.29 Y76.539 E80.47351
G1 X83.29 Y63.119 E81.07609
G1 X89.29 Y63.119 E81.34549
G1 X89.29 Y59.119 E81.5251
G1 F2400 E80.5251
G1 F600 Z0.8
G0 F4800 X83.832 Y76.478 Z0.8
G1 F600 Z0.3
G1 F2400 E81.55004
G1 F1440 X83.349 Y75.995 E81.58071
G0 F4800 X83.349 Y75.429
G1 F1440 X84.398 Y76.478 E81.64733
G0 F4800 X84.963 Y76.478
G1 F1440 X83.349 Y74.864 E81.74981
G0 F4800 X83.349 Y74.298
G1 F1440 X85.529 Y76.478 E81.88824
G0 F4800 X86.095 Y76.478
G1 F1440 X83.349 Y73.732 E82.06261
G0 F4800 X83.349 Y73.167
G1 F1440 X86.66 Y76.478 E82.27286
G0 F4800 X87.226 Y76.478
G1 F1440 X83.349 Y72.601 E82.51905
G0 F4800 X83.349 Y72.035
G1 F1440 X87.792 Y76.478 E82.80118
G0 F4800 X88.357 Y76.478
G1 F1440 X83.349 Y71.47 E83.11919
G0 F4800 X83.349 Y70.904
G1 F1440 X88.923 Y76.478 E83.47314
G0 F4800 X89.489 Y76.478
G1 F1440 X83.349 Y70.338 E83.86303
G0 F4800 X83.349 Y69.773
G1 F1440 X90.054 Y76.478 E84.28879
G0 F4800 X90.62 Y76.478
G1 F1440 X83.349 Y69.207 E84.7505
G0 F4800 X83.349 Y68.641
G1 F1440 X91.186 Y76.478 E85.24815
G0 F4800 X91.752 Y76.478
G1 F1440 X83.349 Y68.075 E85.78174
G0 F4800 X83.349 Y67.51
G1 F1440 X92.317 Y76.478 E86.3512
G0 F4800 X92.883 Y76.478
G1 F1440 X83.349 Y66.944 E86.95661
G0 F4800 X83.349 Y66.378
G1 F1440 X93.449 Y76.478 E87.59796
G0 F4800 X94.014 Y76.478
G1 F1440 X83.349 Y65.813 E88.27519
G0 F4800 X83.349 Y65.247
G1 F1440 X94.58 Y76.478 E88.98835
G0 F4800 X95.146 Y76.478
G1 F1440 X83.349 Y64.681 E89.73746
G0 F4800 X83.349 Y64.116
G1 F1440 X95.711 Y76.478 E90.52245
G0 F4800 X96.277 Y76.478
G1 F1440 X83.349 Y63.55 E91.34337
G0 F4800 X83.543 Y63.179
G1 F1440 X96.843 Y76.478 E92.18789
G0 F4800 X97.408 Y76.478
G1 F1440 X84.109 Y63.179 E93.03237
G0 F4800 X84.675 Y63.179
G1 F1440 X97.974 Y76.478 E93.87686
G0 F4800 X98.54 Y76.478
G1 F1440 X85.241 Y63.179 E94.72134
G0 F4800 X85.806 Y63.179
G1 F1440 X99.105 Y76.478 E95.56583
G0 F4800 X99.671 Y76.478
G1 F1440 X86.372 Y63.179 E96.41031
G0 F4800 X86.938 Y63.179
G1 F1440 X100.237 Y76.478 E97.2548
G0 F4800 X100.803 Y76.478
G1 F1440 X87.503 Y63.179 E98.09931
G0 F4800 X88.069 Y63.179
G1 F1440 X101.368 Y76.478 E98.9438
G0 F4800 X101.934 Y76.478
G1 F1440 X88.635 Y63.179 E99.78828
G0 F4800 X89.2 Y63.179
G1 F1440 X102.5 Y76.478 E100.6328
G0 F4800 X103.065 Y76.478
G1 F1440 X89.349 Y62.762 E101.50376
G0 F4800 X89.349 Y62.196
G1 F1440 X103.631 Y76.478 E102.41067
G0 F4800 X104.197 Y76.478
G1 F1440 X89.349 Y61.63 E103.35351
G0 F4800 X89.349 Y61.065
G1 F1440 X104.762 Y76.478 E104.33224
G0 F4800 X105.328 Y76.478
G1 F1440 X89.349 Y60.499 E105.3469
G0 F4800 X89.349 Y59.933
G1 F1440 X105.894 Y76.478 E106.39751
G0 F4800 X106.459 Y76.478
G1 F1440 X89.349 Y59.367 E107.48402
G0 F4800 X89.726 Y59.179
G1 F1440 X107.025 Y76.478 E108.58251
G0 F4800 X107.591 Y76.478
G1 F1440 X90.291 Y59.179 E109.68102
G0 F4800 X90.857 Y59.179
G1 F1440 X108.156 Y76.478 E110.77951
G0 F4800 X108.722 Y76.478
G1 F1440 X91.423 Y59.179 E111.87799
G0 F4800 X91.988 Y59.179
G1 F1440 X109.288 Y76.478 E112.97651
G0 F4800 X109.853 Y76.478
G1 F1440 X92.554 Y59.179 E114.07499
G0 F4800 X93.12 Y59.179
G1 F1440 X110.419 Y76.478 E115.17347
G0 F4800 X110.985 Y76.478
G1 F1440 X93.685 Y59.179 E116.27199
G0 F4800 X94.251 Y59.179
G1 F1440 X111.551 Y76.478 E117.37051
G0 F4800 X112.116 Y76.478
G1 F1440 X94.817 Y59.179 E118.46899
G0 F4800 X95.383 Y59.179
G1 F1440 X112.682 Y76.478 E119.56747
G0 F4800 X113.248 Y76.478
G1 F1440 X95.948 Y59.179 E120.66599
G0 F4800 X96.514 Y59.179
G1 F1440 X113.813 Y76.478 E121.76447
G0 F4800 X114.379 Y76.478
G1 F1440 X97.08 Y59.179 E122.86296
G0 F4800 X97.645 Y59.179
G1 F1440 X114.945 Y76.478 E123.96147
G0 F4800 X115.51 Y76.478
G1 F1440 X98.211 Y59.179 E125.05996
G0 F4800 X98.777 Y59.179
G1 F1440 X116.076 Y76.478 E126.15844
G0 F4800 X116.642 Y76.478
G1 F1440 X99.342 Y59.179 E127.25696
G0 F4800 X99.908 Y59.179
G1 F1440 X116.649 Y75.919 E128.31998
G0 F4800 X116.649 Y75.354
G1 F1440 X100.474 Y59.179 E129.34709
G0 F4800 X101.039 Y59.179
G1 F1440 X116.649 Y74.788 E130.33829
G0 F4800 X116.649 Y74.222
G1 F1440 X101.605 Y59.179 E131.29355
G0 F4800 X102.171 Y59.179
G1 F1440 X116.649 Y73.657 E132.2129
G0 F4800 X116.649 Y73.091
G1 F1440 X102.736 Y59.179 E133.09634
G0 F4800 X103.302 Y59.179
G1 F1440 X116.649 Y72.525 E133.94384
G0 F4800 X116.649 Y71.96
G1 F1440 X103.868 Y59.179 E134.75543
G0 F4800 X104.434 Y59.179
M104 S210
G1 F1440 X116.649 Y71.394 E135.53108
G0 F4800 X116.649 Y70.828
G1 F1440 X104.999 Y59.179 E136.27083
G0 F4800 X105.565 Y59.179
G1 F1440 X116.649 Y70.263 E136.97466
G0 F4800 X116.649 Y69.697
G1 F1440 X106.131 Y59.179 E137.64255
G0 F4800 X106.696 Y59.179
G1 F1440 X110.649 Y63.131 E137.89353
