;FLAVOR:Marlin
;TIME:335
;Filament used: 0.115657m
;Layer height: 0.2
;MINX:93.294
;MINY:24.503
;MINZ:0.3
;MAXX:106.711
;MAXY:37.92
;MAXZ:11.9
;Generated with Cura_SteamEngine mb-master-20191116
M140 S70
M105
M190 S70
M104 S220
M105
M109 S220
M82 ;absolute extrusion mode
;Sliced at: Fri 26-11-2021 16:57:22
G21 ;metric values
M107
G28
M420 S1
G90 ;absolute positioning
G92 E0; reset extruder distance
G1 X0 Y0 Z5 F5000 ;move nozzle up 5mm for safe homing
G29;ABL
M500
M82 ;set extruder to absolute mode
M107 ;start with the fan off
G1 X0 Y0 Z15.0 F5000 ;move the platform down 15mm
G92 E0 ;zero the extruded length
G1 F200 E3 ;extrude 3mm of feed stock
G1 F200 E0 ;Retract
G4 S2 ;Wait for material to fall
G1 F200 E3
G92 E0 ;zero the extruded length again
M117 Printing...
G92 E0
;WIPE
G91
G1 X -20 F3000
G1 X40
G1 X-20
G90

G92 E0
G1 F2400 E-1
;LAYER_COUNT:59
;LAYER:0
M107
G1 F600 Z0.8
G0 F4800 X93.565 Y29.318 Z0.8
;TYPE:SKIRT
G1 F600 Z0.3
G1 F2400 E0.02495
G1 F1080 X93.739 Y28.804 E0.04931
G1 X93.959 Y28.294 E0.07425
G1 X94.214 Y27.816 E0.09858
G1 X94.519 Y27.343 E0.12385
G1 X94.849 Y26.914 E0.14815
G1 X95.216 Y26.509 E0.17269
G1 X95.614 Y26.135 E0.19721
G1 X96.052 Y25.787 E0.22233
G1 X96.502 Y25.486 E0.24664
G1 X96.986 Y25.217 E0.2715
G1 X97.479 Y24.993 E0.29582
G1 X98.01 Y24.802 E0.32116
G1 X98.532 Y24.663 E0.34541
G1 X99.076 Y24.565 E0.37023
G1 X99.618 Y24.512 E0.39468
G1 X100.169 Y24.503 E0.41943
G1 X100.709 Y24.538 E0.44372
G1 X101.269 Y24.622 E0.46915
G1 X101.795 Y24.746 E0.49342
G1 X102.312 Y24.912 E0.5178
G1 X102.811 Y25.118 E0.54204
G1 X103.314 Y25.377 E0.56744
G1 X103.777 Y25.666 E0.59195
G1 X104.211 Y25.987 E0.61618
G1 X104.617 Y26.341 E0.64037
G1 X105.013 Y26.75 E0.66593
G1 X105.357 Y27.17 E0.69031
G1 X105.669 Y27.62 E0.7149
G1 X105.94 Y28.088 E0.73918
G1 X106.181 Y28.597 E0.76447
G1 X106.372 Y29.106 E0.78888
G1 X106.524 Y29.64 E0.81381
G1 X106.63 Y30.175 E0.8383
G1 X106.693 Y30.722 E0.86302
G1 X106.711 Y31.257 E0.88706
G1 X106.685 Y31.807 E0.91178
G1 X106.615 Y32.348 E0.93627
G1 X106.495 Y32.903 E0.96177
G1 X106.338 Y33.418 E0.98594
G1 X106.133 Y33.935 E1.01092
G1 X105.891 Y34.424 E1.03541
G1 X105.608 Y34.896 E1.06012
G1 X105.292 Y35.337 E1.08448
G1 X104.945 Y35.748 E1.10864
G1 X104.585 Y36.112 E1.13162
G1 X104.176 Y36.464 E1.15585
G1 X103.743 Y36.781 E1.17995
G1 X103.258 Y37.078 E1.20548
G1 X102.753 Y37.331 E1.23085
G1 X102.236 Y37.539 E1.25587
G1 X101.726 Y37.697 E1.27984
G1 X101.167 Y37.819 E1.30553
G1 X100.609 Y37.893 E1.33081
G1 X100.022 Y37.92 E1.35719
G1 X99.44 Y37.896 E1.38335
G1 X98.892 Y37.829 E1.40814
G1 X98.389 Y37.725 E1.4312
G1 X97.876 Y37.576 E1.45518
G1 X97.373 Y37.386 E1.47933
G1 X96.853 Y37.137 E1.50521
G1 X96.371 Y36.854 E1.53031
G1 X95.919 Y36.537 E1.5551
G1 X95.505 Y36.193 E1.57927
G1 X95.096 Y35.79 E1.60505
G1 X94.731 Y35.364 E1.63024
G1 X94.406 Y34.915 E1.65513
G1 X94.13 Y34.46 E1.67902
G1 X93.846 Y33.87 E1.70842
G1 X93.592 Y33.179 E1.74148
G1 X93.427 Y32.55 E1.77068
G1 X93.338 Y32.001 E1.79565
G1 X93.294 Y31.444 E1.82074
G1 X93.296 Y30.929 E1.84386
G1 X93.342 Y30.383 E1.86847
G1 X93.431 Y29.849 E1.89277
G1 X93.565 Y29.318 E1.91736
G0 F4800 X93.943 Y29.446
G1 F1080 X94.117 Y28.932 E1.94173
G1 X94.312 Y28.482 E1.96375
G1 X94.567 Y28.004 E1.98808
G1 X94.836 Y27.587 E2.01036
G1 X95.166 Y27.158 E2.03466
G1 X95.49 Y26.801 E2.05631
G1 X95.888 Y26.427 E2.08083
G1 X96.274 Y26.119 E2.103
G1 X96.724 Y25.818 E2.12731
G1 X97.151 Y25.581 E2.14924
G1 X97.644 Y25.357 E2.17356
G1 X98.113 Y25.189 E2.19592
G1 X98.635 Y25.05 E2.22018
G1 X99.115 Y24.963 E2.24208
G1 X99.657 Y24.91 E2.26654
G1 X100.143 Y24.902 E2.28836
G1 X100.683 Y24.937 E2.31266
G1 X101.177 Y25.011 E2.33509
G1 X101.703 Y25.135 E2.35935
G1 X102.16 Y25.282 E2.38091
G1 X102.659 Y25.488 E2.40515
G1 X103.103 Y25.716 E2.42756
G1 X103.566 Y26.005 E2.45207
G1 X103.949 Y26.289 E2.47347
G1 X104.355 Y26.643 E2.49766
G1 X104.704 Y27.003 E2.52017
G1 X105.048 Y27.423 E2.54455
G1 X105.323 Y27.821 E2.56627
G1 X105.594 Y28.289 E2.59055
G1 X105.807 Y28.738 E2.61287
G1 X105.998 Y29.247 E2.63728
G1 X106.132 Y29.718 E2.65927
G1 X106.238 Y30.253 E2.68376
G1 X106.293 Y30.735 E2.70554
G1 X106.311 Y31.27 E2.72958
G1 X106.288 Y31.756 E2.75142
G1 X106.218 Y32.297 E2.77592
G1 X106.113 Y32.787 E2.79842
G1 X105.956 Y33.302 E2.82259
G1 X105.775 Y33.758 E2.84462
G1 X105.533 Y34.247 E2.86912
G1 X105.283 Y34.663 E2.89091
G1 X104.967 Y35.104 E2.91527
G1 X104.661 Y35.467 E2.93659
G1 X104.301 Y35.831 E2.95958
G1 X103.94 Y36.142 E2.98097
G1 X103.507 Y36.459 E3.00507
G1 X103.079 Y36.72 E3.02758
G1 X102.574 Y36.973 E3.05294
G1 X102.118 Y37.157 E3.07502
G1 X101.608 Y37.315 E3.09899
G1 X101.114 Y37.423 E3.12169
G1 X100.556 Y37.497 E3.14697
G1 X100.038 Y37.52 E3.17025
G1 X99.456 Y37.496 E3.19641
G1 X98.973 Y37.437 E3.21825
G1 X98.47 Y37.333 E3.24132
G1 X98.017 Y37.201 E3.2625
G1 X97.514 Y37.011 E3.28665
G1 X97.055 Y36.792 E3.30948
G1 X96.573 Y36.509 E3.33458
G1 X96.175 Y36.229 E3.35643
G1 X95.761 Y35.885 E3.3806
G1 X95.4 Y35.53 E3.40333
G1 X95.035 Y35.104 E3.42852
G1 X94.748 Y34.708 E3.45048
G1 X94.472 Y34.253 E3.47437
G1 X94.221 Y33.732 E3.50034
G1 X93.967 Y33.041 E3.5334
G1 X93.822 Y32.486 E3.55915
G1 X93.733 Y31.937 E3.58413
G1 X93.694 Y31.445 E3.60629
G1 X93.696 Y30.93 E3.62941
G1 X93.737 Y30.449 E3.65109
G1 X93.826 Y29.915 E3.6754
G1 X93.943 Y29.446 E3.6971
G0 F4800 X94.322 Y29.574
G1 F1080 X94.496 Y29.06 E3.72147
G1 X94.665 Y28.67 E3.74055
G1 X94.92 Y28.192 E3.76488
G1 X95.153 Y27.831 E3.78417
G1 X95.483 Y27.402 E3.80847
G1 X95.764 Y27.092 E3.82726
G1 X96.162 Y26.718 E3.85178
G1 X96.496 Y26.452 E3.87095
G1 X96.946 Y26.151 E3.89526
G1 X97.316 Y25.945 E3.91428
G1 X97.809 Y25.721 E3.93859
G1 X98.216 Y25.576 E3.95799
G1 X98.738 Y25.437 E3.98225
G1 X99.154 Y25.361 E4.00123
G1 X99.696 Y25.308 E4.02569
G1 X100.117 Y25.301 E4.04459
G1 X100.657 Y25.336 E4.06889
G1 X101.086 Y25.4 E4.08836
G1 X101.612 Y25.524 E4.11263
G1 X102.007 Y25.652 E4.13127
G1 X102.506 Y25.858 E4.15551
G1 X102.891 Y26.055 E4.17493
G1 X103.354 Y26.344 E4.19944
G1 X103.686 Y26.59 E4.21799
G1 X104.092 Y26.944 E4.24218
G1 X104.394 Y27.257 E4.26171
G1 X104.738 Y27.677 E4.28609
G1 X104.977 Y28.021 E4.30489
G1 X105.248 Y28.489 E4.32918
G1 X105.432 Y28.879 E4.34854
G1 X105.623 Y29.388 E4.37295
G1 X105.739 Y29.796 E4.392
G1 X105.845 Y30.331 E4.41648
G1 X105.894 Y30.749 E4.43538
G1 X105.912 Y31.284 E4.45942
G1 X105.892 Y31.705 E4.47834
G1 X105.822 Y32.246 E4.50284
G1 X105.73 Y32.67 E4.52232
G1 X105.573 Y33.185 E4.54649
G1 X105.416 Y33.58 E4.56558
G1 X105.174 Y34.069 E4.59008
G1 X104.957 Y34.43 E4.60899
G1 X104.641 Y34.871 E4.63335
G1 X104.377 Y35.185 E4.65177
G1 X104.017 Y35.549 E4.67476
G1 X103.704 Y35.819 E4.69332
G1 X103.271 Y36.136 E4.71741
G1 X102.9 Y36.363 E4.73694
G1 X102.395 Y36.616 E4.7623
G1 X101.999 Y36.775 E4.78146
G1 X101.489 Y36.933 E4.80544
G1 X101.062 Y37.026 E4.82506
G1 X100.504 Y37.1 E4.85033
G1 X100.055 Y37.121 E4.87052
G1 X99.473 Y37.097 E4.89667
G1 X99.054 Y37.045 E4.91563
G1 X98.551 Y36.941 E4.93869
G1 X98.158 Y36.827 E4.95706
G1 X97.655 Y36.637 E4.98121
G1 X97.258 Y36.447 E5.00097
G1 X96.776 Y36.164 E5.02607
G1 X96.43 Y35.922 E5.04503
G1 X96.016 Y35.578 E5.06919
G1 X95.704 Y35.27 E5.08888
G1 X95.339 Y34.844 E5.11407
G1 X95.09 Y34.5 E5.13314
G1 X94.814 Y34.045 E5.15703
G1 X94.597 Y33.594 E5.1795
G1 X94.343 Y32.903 E5.21256
G1 X94.217 Y32.422 E5.23489
G1 X94.128 Y31.873 E5.25986
G1 X94.094 Y31.447 E5.27905
G1 X94.096 Y30.932 E5.30217
G1 X94.131 Y30.515 E5.32096
G1 X94.22 Y29.981 E5.34527
G1 X94.322 Y29.574 E5.36411
G0 F4800 X94.701 Y29.703
G1 F1080 X94.875 Y29.189 E5.38848
G1 X95.018 Y28.858 E5.40467
G1 X95.273 Y28.38 E5.42899
G1 X95.47 Y28.075 E5.44529
G1 X95.8 Y27.646 E5.4696
G1 X96.037 Y27.384 E5.48546
G1 X96.435 Y27.01 E5.50998
G1 X96.719 Y26.784 E5.52628
G1 X97.169 Y26.483 E5.55059
G1 X97.482 Y26.309 E5.56667
G1 X97.975 Y26.085 E5.59098
G1 X98.319 Y25.962 E5.60739
G1 X98.841 Y25.823 E5.63164
G1 X99.193 Y25.759 E5.64771
G1 X99.735 Y25.706 E5.67216
G1 X100.091 Y25.701 E5.68814
G1 X100.631 Y25.736 E5.71244
G1 X100.994 Y25.79 E5.72892
G1 X101.52 Y25.914 E5.75319
G1 X101.854 Y26.021 E5.76893
G1 X102.353 Y26.227 E5.79317
G1 X102.679 Y26.395 E5.80964
G1 X103.142 Y26.684 E5.83415
G1 X103.423 Y26.892 E5.84984
G1 X103.829 Y27.246 E5.87403
G1 X104.085 Y27.51 E5.89054
G1 X104.429 Y27.93 E5.91492
G1 X104.631 Y28.222 E5.93086
G1 X104.902 Y28.69 E5.95514
G1 X105.058 Y29.019 E5.97149
G1 X105.249 Y29.528 E5.9959
G1 X105.347 Y29.873 E6.01201
G1 X105.453 Y30.408 E6.0365
G1 X105.494 Y30.762 E6.0525
G1 X105.512 Y31.297 E6.07653
G1 X105.495 Y31.653 E6.09254
G1 X105.425 Y32.194 E6.11703
G1 X105.347 Y32.554 E6.13357
G1 X105.19 Y33.069 E6.15775
G1 X105.058 Y33.403 E6.17387
G1 X104.816 Y33.892 E6.19837
G1 X104.632 Y34.197 E6.21436
G1 X104.316 Y34.638 E6.23872
G1 X104.092 Y34.904 E6.25434
G1 X103.732 Y35.268 E6.27733
G1 X103.468 Y35.496 E6.29299
G1 X103.035 Y35.813 E6.31708
G1 X102.72 Y36.005 E6.33365
G1 X102.215 Y36.258 E6.35901
G1 X101.881 Y36.392 E6.37517
G1 X101.371 Y36.55 E6.39914
G1 X101.009 Y36.63 E6.41579
G1 X100.451 Y36.704 E6.44106
G1 X100.071 Y36.721 E6.45814
G1 X99.489 Y36.697 E6.4843
G1 X99.135 Y36.653 E6.50031
G1 X98.632 Y36.549 E6.52338
G1 X98.3 Y36.453 E6.5389
G1 X97.797 Y36.263 E6.56304
G1 X97.46 Y36.102 E6.57981
G1 X96.978 Y35.819 E6.60491
G1 X96.686 Y35.614 E6.62092
G1 X96.272 Y35.27 E6.64509
G1 X96.007 Y35.009 E6.66179
G1 X95.642 Y34.583 E6.68698
G1 X95.432 Y34.293 E6.70306
G1 X95.156 Y33.838 E6.72696
G1 X94.972 Y33.456 E6.74599
G1 X94.718 Y32.765 E6.77905
G1 X94.611 Y32.358 E6.79795
G1 X94.522 Y31.809 E6.82292
G1 X94.494 Y31.448 E6.83918
G1 X94.496 Y30.933 E6.8623
G1 X94.526 Y30.58 E6.87821
G1 X94.615 Y30.046 E6.90252
G1 X94.701 Y29.703 E6.91839
G0 F4800 X95.08 Y29.831
G1 F1080 X95.254 Y29.317 E6.94276
G1 X95.371 Y29.047 E6.95597
G1 X95.626 Y28.569 E6.9803
G1 X95.787 Y28.319 E6.99365
G1 X96.117 Y27.89 E7.01795
G1 X96.311 Y27.675 E7.03095
G1 X96.709 Y27.301 E7.05548
G1 X96.941 Y27.117 E7.06877
G1 X97.391 Y26.816 E7.09308
G1 X97.647 Y26.673 E7.10625
G1 X98.14 Y26.449 E7.13056
G1 X98.422 Y26.349 E7.144
G1 X98.944 Y26.21 E7.16825
G1 X99.232 Y26.158 E7.18139
G1 X99.774 Y26.105 E7.20585
G1 X100.065 Y26.1 E7.21891
G1 X100.605 Y26.135 E7.24321
G1 X100.902 Y26.179 E7.25669
G1 X101.428 Y26.303 E7.28096
G1 X101.702 Y26.391 E7.29388
G1 X102.201 Y26.597 E7.31812
G1 X102.467 Y26.734 E7.33155
G1 X102.93 Y27.023 E7.35606
G1 X103.16 Y27.193 E7.3689
G1 X103.566 Y27.547 E7.39309
G1 X103.776 Y27.763 E7.40662
G1 X104.12 Y28.183 E7.43099
G1 X104.285 Y28.422 E7.44403
G1 X104.556 Y28.89 E7.46832
G1 X104.683 Y29.16 E7.48171
G1 X104.874 Y29.669 E7.50612
G1 X104.955 Y29.951 E7.5193
G1 X105.061 Y30.486 E7.54379
G1 X105.094 Y30.775 E7.55685
G1 X105.112 Y31.31 E7.58088
G1 X105.098 Y31.602 E7.59401
G1 X105.028 Y32.143 E7.6185
G1 X104.965 Y32.437 E7.632
G1 X104.808 Y32.952 E7.65618
G1 X104.699 Y33.225 E7.66938
G1 X104.457 Y33.714 E7.69388
G1 X104.307 Y33.964 E7.70697
G1 X103.991 Y34.405 E7.73133
G1 X103.808 Y34.623 E7.74411
G1 X103.448 Y34.987 E7.7671
G1 X103.231 Y35.173 E7.77993
G1 X102.798 Y35.49 E7.80402
G1 X102.541 Y35.647 E7.81755
G1 X102.036 Y35.9 E7.84291
G1 X101.763 Y36.01 E7.85612
G1 X101.253 Y36.168 E7.8801
G1 X100.957 Y36.233 E7.8937
G1 X100.399 Y36.307 E7.91898
G1 X100.088 Y36.321 E7.93296
G1 X99.506 Y36.297 E7.95911
G1 X99.216 Y36.262 E7.97223
G1 X98.713 Y36.158 E7.99529
G1 X98.441 Y36.079 E8.00801
G1 X97.938 Y35.889 E8.03215
G1 X97.663 Y35.757 E8.04585
G1 X97.181 Y35.474 E8.07094
G1 X96.942 Y35.306 E8.08406
G1 X96.528 Y34.962 E8.10823
G1 X96.311 Y34.749 E8.12188
G1 X95.946 Y34.323 E8.14707
G1 X95.774 Y34.086 E8.16022
G1 X95.498 Y33.631 E8.18412
G1 X95.348 Y33.318 E8.1997
G1 X95.094 Y32.627 E8.23276
G1 X95.006 Y32.294 E8.24822
G1 X94.917 Y31.745 E8.2732
G1 X94.894 Y31.45 E8.28648
G1 X94.896 Y30.935 E8.30961
G1 X94.92 Y30.646 E8.32263
G1 X95.009 Y30.112 E8.34693
G1 X95.08 Y29.831 E8.35995
G0 F4800 X95.459 Y29.959
G1 F1080 X95.633 Y29.445 E8.38431
G1 X95.724 Y29.235 E8.39459
G1 X95.979 Y28.757 E8.41892
G1 X96.104 Y28.562 E8.42932
G1 X96.434 Y28.133 E8.45362
G1 X96.585 Y27.967 E8.4637
G1 X96.983 Y27.593 E8.48822
G1 X97.164 Y27.449 E8.4986
G1 X97.614 Y27.148 E8.52291
G1 X97.813 Y27.037 E8.53314
G1 X98.306 Y26.813 E8.55746
G1 X98.525 Y26.735 E8.5679
G1 X99.047 Y26.596 E8.59215
G1 X99.271 Y26.556 E8.60237
G1 X99.813 Y26.503 E8.62682
G1 X100.04 Y26.499 E8.63702
G1 X100.58 Y26.534 E8.66131
G1 X100.81 Y26.568 E8.67175
G1 X101.336 Y26.692 E8.69602
G1 X101.549 Y26.761 E8.70607
G1 X102.048 Y26.967 E8.73031
G1 X102.255 Y27.073 E8.74075
G1 X102.718 Y27.362 E8.76526
G1 X102.897 Y27.495 E8.77527
G1 X103.303 Y27.849 E8.79946
G1 X103.466 Y28.017 E8.80997
G1 X103.81 Y28.437 E8.83435
G1 X103.939 Y28.622 E8.84447
G1 X104.21 Y29.09 E8.86876
G1 X104.309 Y29.3 E8.87918
G1 X104.5 Y29.809 E8.90359
G1 X104.562 Y30.029 E8.91385
G1 X104.668 Y30.564 E8.93834
G1 X104.694 Y30.789 E8.94851
G1 X104.712 Y31.324 E8.97255
G1 X104.701 Y31.551 E8.98275
G1 X104.631 Y32.092 E9.00725
G1 X104.582 Y32.32 E9.01772
G1 X104.425 Y32.835 E9.04189
G1 X104.341 Y33.048 E9.05217
G1 X104.099 Y33.537 E9.07667
G1 X103.982 Y33.731 E9.08684
G1 X103.666 Y34.172 E9.1112
G1 X103.523 Y34.341 E9.12115
G1 X103.163 Y34.705 E9.14413
G1 X102.995 Y34.851 E9.15413
G1 X102.562 Y35.168 E9.17822
G1 X102.362 Y35.29 E9.18874
G1 X101.857 Y35.543 E9.2141
G1 X101.644 Y35.628 E9.2244
G1 X101.134 Y35.786 E9.24837
G1 X100.904 Y35.837 E9.25895
G1 X100.346 Y35.911 E9.28423
G1 X100.104 Y35.922 E9.2951
G1 X99.522 Y35.898 E9.32126
G1 X99.297 Y35.87 E9.33144
G1 X98.794 Y35.766 E9.3545
G1 X98.582 Y35.705 E9.36441
G1 X98.079 Y35.515 E9.38855
G1 X97.865 Y35.412 E9.39921
G1 X97.383 Y35.129 E9.42431
G1 X97.197 Y34.999 E9.4345
G1 X96.783 Y34.655 E9.45867
G1 X96.615 Y34.489 E9.46927
G1 X96.25 Y34.063 E9.49446
G1 X96.116 Y33.878 E9.50472
G1 X95.84 Y33.423 E9.52861
G1 X95.723 Y33.18 E9.54072
G1 X95.469 Y32.489 E9.57378
G1 X95.401 Y32.23 E9.5858
G1 X95.312 Y31.681 E9.61078
G1 X95.294 Y31.452 E9.62109
G1 X95.296 Y30.937 E9.64421
G1 X95.315 Y30.712 E9.65435
G1 X95.404 Y30.178 E9.67866
G1 X95.459 Y29.959 E9.6888
G0 F4800 X95.838 Y30.087
G1 F1080 X96.012 Y29.573 E9.71317
G1 X96.077 Y29.423 E9.72051
G1 X96.332 Y28.945 E9.74483
G1 X96.421 Y28.806 E9.75224
G1 X96.751 Y28.377 E9.77655
G1 X96.859 Y28.258 E9.78376
G1 X97.257 Y27.884 E9.80828
G1 X97.386 Y27.782 E9.81567
G1 X97.836 Y27.481 E9.83998
G1 X97.978 Y27.402 E9.84727
G1 X98.471 Y27.178 E9.87159
G1 X98.628 Y27.122 E9.87907
G1 X99.15 Y26.983 E9.90333
G1 X99.31 Y26.954 E9.91063
G1 X99.852 Y26.901 E9.93508
G1 X100.014 Y26.898 E9.94236
G1 X100.554 Y26.933 E9.96665
G1 X100.718 Y26.958 E9.9741
G1 X101.244 Y27.082 E9.99837
G1 X101.397 Y27.131 E10.00558
G1 X101.896 Y27.337 E10.02982
G1 X102.044 Y27.413 E10.03729
G1 X102.507 Y27.702 E10.0618
G1 X102.634 Y27.796 E10.06889
G1 X103.04 Y28.15 E10.09308
G1 X103.157 Y28.27 E10.1006
G1 X103.501 Y28.69 E10.12498
G1 X103.592 Y28.823 E10.13222
G1 X103.863 Y29.291 E10.1565
G1 X103.934 Y29.441 E10.16395
G1 X104.125 Y29.95 E10.18836
G1 X104.17 Y30.107 E10.1957
G1 X104.276 Y30.642 E10.22018
G1 X104.294 Y30.802 E10.22741
G1 X104.312 Y31.337 E10.25145
G1 X104.305 Y31.499 E10.25873
G1 X104.235 Y32.04 E10.28322
G1 X104.2 Y32.204 E10.29075
G1 X104.043 Y32.719 E10.31493
G1 X103.982 Y32.871 E10.32228
G1 X103.74 Y33.36 E10.34678
G1 X103.657 Y33.498 E10.35401
G1 X103.341 Y33.939 E10.37837
G1 X103.239 Y34.06 E10.38548
G1 X102.879 Y34.424 E10.40847
G1 X102.759 Y34.528 E10.4156
G1 X102.326 Y34.845 E10.43969
G1 X102.183 Y34.932 E10.44721
G1 X101.678 Y35.185 E10.47257
