;FLAVOR:Marlin
;TIME:23332
;Filament used: 21.0568m
;Layer height: 0.2
;MINX:60.181
;MINY:49.611
;MINZ:0.3
;MAXX:139.819
;MAXY:129.311
;MAXZ:72.4
;Generated with Cura_SteamEngine mb-master-20191116
M140 S70
M105
M190 S70
M104 S220
M105
M109 S220
M82 ;absolute extrusion mode
;Sliced at: Thu 25-11-2021 11:25:15
G21 ;metric values
M107
G28
M420 S1
G90 ;absolute positioning
G92 E0; reset extruder distance
G1 X0 Y0 Z5 F5000 ;move nozzle up 5mm for safe homing
G29;ABL
M500
M82 ;set extruder to absolute mode
M107 ;start with the fan off
G1 X0 Y0 Z15.0 F5000 ;move the platform down 15mm
G92 E0 ;zero the extruded length
G1 F200 E3 ;extrude 3mm of feed stock
G1 F200 E0 ;Retract
G4 S2 ;Wait for material to fall
G1 F200 E3
G92 E0 ;zero the extruded length again
M117 Printing...
G92 E0
;WIPE
G91
G1 X -20 F3000
G1 X40
G1 X-20
G90

G92 E0
G1 F2400 E-1
;LAYER_COUNT:359
;LAYER:0
M107
G1 F600 Z0.8
G0 F4800 X72.82 Y60.269 Z0.8
;TYPE:SKIRT
G1 F600 Z0.3
G1 F2400 E0.02495
G1 F1080 X73.04 Y60.02 E0.03986
G1 X73.671 Y59.427 E0.07874
G1 X73.764 Y59.346 E0.08428
G1 X75.626 Y57.823 E0.19229
G1 X75.943 Y57.615 E0.20932
G1 X76.297 Y57.478 E0.22636
G1 X76.671 Y57.419 E0.24336
G1 X77.049 Y57.438 E0.26036
G1 X77.146 Y57.464 E0.26487
G1 X78.117 Y56.768 E0.31851
G1 X78.216 Y56.702 E0.32385
G1 X79.189 Y56.097 E0.3753
G1 X79.211 Y55.953 E0.38184
G1 X79.346 Y55.599 E0.39885
G1 X79.552 Y55.281 E0.41586
G1 X79.821 Y55.013 E0.43291
G1 X80.025 Y54.871 E0.44407
G1 X80.06 Y54.85 E0.4459
G1 X80.14 Y54.804 E0.45005
G1 X82.191 Y53.712 E0.55438
G1 X82.542 Y53.57 E0.57138
G1 X82.916 Y53.505 E0.58843
G1 X83.294 Y53.52 E0.60541
G1 X83.662 Y53.613 E0.62245
G1 X83.743 Y53.653 E0.62651
G1 X84.905 Y53.127 E0.68378
G1 X85.013 Y53.083 E0.68902
G1 X87.312 Y52.217 E0.79933
G1 X87.425 Y52.178 E0.8047
G1 X89.773 Y51.466 E0.91486
G1 X89.885 Y51.436 E0.92007
G1 X91.148 Y51.141 E0.97831
G1 X91.209 Y51.024 E0.98423
G1 X91.451 Y50.732 E1.00126
G1 X91.748 Y50.497 E1.01827
G1 X92.088 Y50.329 E1.03529
G1 X92.412 Y50.244 E1.05033
G1 X94.701 Y49.861 E1.15454
G1 X94.823 Y49.845 E1.16007
G1 X97.195 Y49.613 E1.26708
G1 X97.574 Y49.616 E1.2841
G1 X97.944 Y49.698 E1.30111
G1 X98.288 Y49.856 E1.31811
G1 X98.592 Y50.082 E1.33512
G1 X98.656 Y50.154 E1.33945
G1 X99.941 Y50.112 E1.39718
G1 X100.059 Y50.112 E1.40247
G1 X101.348 Y50.155 E1.46038
G1 X101.44 Y50.054 E1.46652
G1 X101.749 Y49.834 E1.48355
G1 X102.097 Y49.685 E1.50055
G1 X102.469 Y49.611 E1.51758
G1 X102.805 Y49.613 E1.53266
G1 X105.178 Y49.845 E1.63972
G1 X105.3 Y49.861 E1.64525
G1 X107.612 Y50.248 E1.7505
G1 X107.977 Y50.349 E1.76751
G1 X108.313 Y50.525 E1.78454
G1 X108.604 Y50.767 E1.80153
G1 X108.839 Y51.065 E1.81857
G1 X108.88 Y51.148 E1.82273
G1 X110.114 Y51.436 E1.87963
G1 X110.227 Y51.466 E1.88488
G1 X112.575 Y52.178 E1.99505
G1 X112.688 Y52.217 E2.00041
G1 X114.987 Y53.083 E2.11072
G1 X115.095 Y53.127 E2.11596
G1 X116.259 Y53.654 E2.17333
G1 X116.377 Y53.599 E2.17918
G1 X116.747 Y53.514 E2.19622
G1 X117.126 Y53.508 E2.21324
G1 X117.497 Y53.582 E2.23023
G1 X117.809 Y53.712 E2.24541
G1 X119.86 Y54.804 E2.34974
G1 X119.94 Y54.85 E2.35388
G1 X119.975 Y54.871 E2.35571
G1 X120.278 Y55.099 E2.37274
G1 X120.526 Y55.385 E2.38974
G1 X120.709 Y55.717 E2.40676
G1 X120.818 Y56.08 E2.42378
G1 X120.82 Y56.103 E2.42481
G1 X121.784 Y56.702 E2.47577
G1 X121.883 Y56.768 E2.48112
G1 X122.856 Y57.466 E2.53488
G1 X122.994 Y57.432 E2.54127
G1 X123.373 Y57.421 E2.55829
G1 X123.746 Y57.49 E2.57532
G1 X124.096 Y57.636 E2.59235
G1 X124.374 Y57.823 E2.6074
G1 X126.236 Y59.346 E2.71541
G1 X126.441 Y59.543 E2.72817
G1 X126.465 Y59.57 E2.72979
G1 X126.686 Y59.878 E2.74682
G1 X126.837 Y60.226 E2.76385
G1 X126.912 Y60.597 E2.78084
G1 X126.91 Y60.798 E2.78987
G1 X127.746 Y61.581 E2.8413
G1 X127.83 Y61.665 E2.84663
G1 X129.508 Y63.457 E2.95687
G1 X129.585 Y63.545 E2.96212
G1 X131.07 Y65.353 E3.06717
G1 X131.117 Y65.354 E3.06928
G1 X131.486 Y65.441 E3.0863
G1 X131.828 Y65.604 E3.10332
G1 X132.128 Y65.835 E3.12032
G1 X132.349 Y66.088 E3.1354
G1 X133.152 Y67.204 E3.19713
G1 X133.22 Y67.305 E3.2026
G1 X134.495 Y69.356 E3.31104
G1 X134.66 Y69.697 E3.32805
G1 X134.75 Y70.065 E3.34506
G1 X134.761 Y70.444 E3.36208
G1 X134.692 Y70.816 E3.37907
G1 X134.652 Y70.913 E3.38378
G1 X135.22 Y71.976 E3.4379
G1 X135.273 Y72.083 E3.44326
G1 X135.745 Y73.126 E3.49466
G1 X135.883 Y73.166 E3.50111
G1 X136.216 Y73.345 E3.51809
G1 X136.505 Y73.591 E3.53513
G1 X136.736 Y73.892 E3.55217
G1 X136.851 Y74.113 E3.56335
G1 X136.861 Y74.136 E3.56448
G1 X136.895 Y74.221 E3.56859
G1 X137.393 Y75.547 E3.63219
G1 X137.488 Y75.914 E3.64921
G1 X137.504 Y76.293 E3.66624
G1 X137.441 Y76.666 E3.68323
G1 X137.341 Y76.918 E3.6954
G1 X137.593 Y77.077 E3.70878
G1 X137.865 Y77.341 E3.7258
G1 X138.075 Y77.656 E3.7428
G1 X138.202 Y77.964 E3.75776
G1 X138.568 Y79.156 E3.81375
G1 X138.6 Y79.276 E3.81933
G1 X139.129 Y81.547 E3.92403
G1 X139.152 Y81.659 E3.92916
G1 X139.542 Y83.999 E4.03568
G1 X139.558 Y84.12 E4.04116
G1 X139.811 Y86.717 E4.15832
G1 X139.819 Y86.892 E4.16618
G1 X139.819 Y86.92 E4.16744
G1 X139.779 Y87.297 E4.18446
G1 X139.661 Y87.657 E4.20147
G1 X139.471 Y87.984 E4.21846
G1 X139.262 Y88.214 E4.23241
G1 X139.299 Y89.351 E4.28349
G1 X139.299 Y89.469 E4.28879
G1 X139.261 Y90.626 E4.34077
G1 X139.369 Y90.725 E4.34735
G1 X139.588 Y91.034 E4.36435
G1 X139.738 Y91.382 E4.38137
G1 X139.812 Y91.753 E4.39835
G1 X139.81 Y92.09 E4.41348
G1 X139.564 Y94.602 E4.52682
G1 X139.549 Y94.719 E4.53211
G1 X139.156 Y97.106 E4.64073
G1 X139.056 Y97.472 E4.65777
G1 X138.881 Y97.808 E4.67478
G1 X138.747 Y97.985 E4.68475
G1 X138.741 Y97.992 E4.68516
G1 X138.465 Y98.253 E4.70222
G1 X138.319 Y98.342 E4.7099
G1 X138.352 Y98.387 E4.7124
G1 X138.507 Y98.733 E4.72943
G1 X138.586 Y99.103 E4.74641
G1 X138.586 Y99.482 E4.76343
G1 X138.519 Y99.812 E4.77855
G1 X137.809 Y102.165 E4.88891
G1 X137.772 Y102.276 E4.89416
G1 X136.891 Y104.63 E5.00702
G1 X136.843 Y104.745 E5.01262
G1 X135.839 Y106.951 E5.12144
G1 X135.647 Y107.277 E5.13843
G1 X135.39 Y107.556 E5.15546
G1 X135.081 Y107.775 E5.17247
G1 X134.733 Y107.925 E5.18948
G1 X134.632 Y107.945 E5.19411
G1 X134.063 Y109.009 E5.24829
G1 X134.005 Y109.11 E5.25351
G1 X132.71 Y111.194 E5.36368
G1 X132.644 Y111.292 E5.36899
G1 X131.215 Y113.287 E5.47918
G1 X131.143 Y113.381 E5.48449
G1 X129.585 Y115.278 E5.59472
G1 X129.508 Y115.366 E5.59997
G1 X129.075 Y115.829 E5.62843
G1 X129.081 Y115.865 E5.63007
G1 X129.066 Y116.244 E5.6471
G1 X128.973 Y116.611 E5.6641
G1 X128.805 Y116.95 E5.68109
G1 X128.601 Y117.215 E5.6961
G1 X128.276 Y117.563 E5.71748
G1 X128.194 Y117.645 E5.72269
G1 X128.177 Y117.661 E5.72374
G1 X127.875 Y117.89 E5.74076
G1 X127.532 Y118.051 E5.75777
G1 X127.163 Y118.137 E5.77478
G1 X126.784 Y118.143 E5.7918
G1 X125.954 Y118.919 E5.84282
G1 X125.867 Y118.996 E5.84804
G1 X123.972 Y120.553 E5.95816
G1 X123.877 Y120.625 E5.96351
G1 X121.882 Y122.054 E6.0737
G1 X121.784 Y122.12 E6.07901
G1 X119.701 Y123.415 E6.18914
G1 X119.6 Y123.473 E6.19437
G1 X117.435 Y124.631 E6.30461
G1 X117.329 Y124.684 E6.30993
G1 X115.095 Y125.696 E6.42005
G1 X114.986 Y125.741 E6.42535
G1 X112.687 Y126.606 E6.53564
G1 X112.576 Y126.643 E6.54089
G1 X110.228 Y127.356 E6.65108
G1 X110.115 Y127.387 E6.65634
G1 X107.727 Y127.945 E6.76645
G1 X107.61 Y127.968 E6.7718
G1 X105.188 Y128.367 E6.88202
G1 X105.071 Y128.382 E6.88732
G1 X104.33 Y128.455 E6.92075
G1 X104.312 Y128.485 E6.92232
G1 X104.052 Y128.76 E6.93931
G1 X103.74 Y128.975 E6.95633
G1 X103.389 Y129.119 E6.97336
G1 X103.059 Y129.183 E6.98846
G1 X102.674 Y129.221 E7.00583
G1 X102.556 Y129.229 E7.01114
G1 X100.071 Y129.311 E7.12278
G1 X99.953 Y129.311 E7.12808
G1 X97.444 Y129.229 E7.24079
G1 X97.069 Y129.177 E7.25779
G1 X96.713 Y129.047 E7.27481
G1 X96.392 Y128.846 E7.29181
G1 X96.12 Y128.582 E7.30883
G1 X96.06 Y128.493 E7.31365
G1 X94.929 Y128.382 E7.36468
G1 X94.812 Y128.367 E7.36998
G1 X92.39 Y127.967 E7.4802
G1 X92.274 Y127.944 E7.48551
G1 X89.886 Y127.387 E7.59561
G1 X89.772 Y127.356 E7.60092
G1 X87.424 Y126.643 E7.7111
G1 X87.313 Y126.606 E7.71635
G1 X85.014 Y125.741 E7.82665
G1 X84.905 Y125.696 E7.83194
G1 X82.671 Y124.684 E7.94206
G1 X82.565 Y124.631 E7.94738
G1 X80.4 Y123.473 E8.05763
G1 X80.299 Y123.415 E8.06286
G1 X78.216 Y122.12 E8.17299
G1 X78.118 Y122.054 E8.17829
G1 X76.123 Y120.625 E8.28848
G1 X76.028 Y120.553 E8.29383
G1 X74.133 Y118.996 E8.40396
G1 X74.046 Y118.919 E8.40917
G1 X73.207 Y118.134 E8.46076
G1 X73.066 Y118.15 E8.46714
G1 X72.689 Y118.112 E8.48415
G1 X72.328 Y117.996 E8.50117
G1 X72 Y117.807 E8.51817
G1 X71.823 Y117.661 E8.52847
G1 X71.806 Y117.645 E8.52952
G1 X71.724 Y117.563 E8.53473
G1 X71.399 Y117.215 E8.55611
G1 X71.171 Y116.912 E8.57314
G1 X71.012 Y116.568 E8.59015
G1 X70.928 Y116.199 E8.60714
G1 X70.923 Y115.826 E8.62389
G1 X70.492 Y115.366 E8.6522
G1 X70.415 Y115.278 E8.65745
G1 X68.857 Y113.381 E8.76767
G1 X68.785 Y113.287 E8.77299
G1 X67.356 Y111.292 E8.88318
G1 X67.29 Y111.194 E8.88848
G1 X65.995 Y109.11 E8.99865
G1 X65.937 Y109.009 E9.00388
G1 X65.386 Y107.979 E9.05633
G1 X65.247 Y107.948 E9.06272
G1 X64.903 Y107.79 E9.07972
G1 X64.599 Y107.564 E9.09673
G1 X64.349 Y107.279 E9.11375
G1 X64.183 Y106.989 E9.12876
G1 X63.158 Y104.747 E9.23945
G1 X63.109 Y104.63 E9.24514
G1 X62.228 Y102.276 E9.358
G1 X62.191 Y102.165 E9.36325
G1 X61.481 Y99.812 E9.47361
G1 X61.41 Y99.44 E9.49061
G1 X61.41 Y99.421 E9.49147
G1 X61.324 Y99.164 E9.50364
G1 X60.867 Y97.228 E9.59295
G1 X60.843 Y97.106 E9.59854
G1 X60.451 Y94.719 E9.70715
G1 X60.436 Y94.603 E9.7124
G1 X60.19 Y92.093 E9.82565
G1 X60.193 Y91.714 E9.84266
G1 X60.275 Y91.344 E9.85968
G1 X60.433 Y90.999 E9.87672
G1 X60.659 Y90.695 E9.89373
G1 X60.739 Y90.625 E9.8985
G1 X60.701 Y89.471 E9.95034
G1 X60.701 Y89.353 E9.95564
G1 X60.738 Y88.21 E10.00699
G1 X60.631 Y88.112 E10.01351
G1 X60.412 Y87.803 E10.03051
G1 X60.262 Y87.455 E10.04753
G1 X60.181 Y86.921 E10.07178
G1 X60.181 Y86.893 E10.07304
G1 X60.189 Y86.718 E10.0809
G1 X60.442 Y84.121 E10.19806
G1 X60.459 Y83.999 E10.20359
G1 X60.85 Y81.658 E10.31016
G1 X60.872 Y81.547 E10.31524
G1 X61.4 Y79.277 E10.41989
G1 X61.432 Y79.157 E10.42547
G1 X61.798 Y77.964 E10.4815
G1 X61.947 Y77.615 E10.49854
G1 X62.165 Y77.306 E10.51552
G1 X62.444 Y77.049 E10.53255
G1 X62.658 Y76.922 E10.54372
G1 X62.548 Y76.626 E10.5579
G1 X62.493 Y76.251 E10.57492
G1 X62.518 Y75.873 E10.59193
G1 X62.607 Y75.547 E10.6071
G1 X63.105 Y74.221 E10.6707
G1 X63.139 Y74.136 E10.67481
G1 X63.149 Y74.113 E10.67594
G1 X63.336 Y73.784 E10.69293
G1 X63.588 Y73.5 E10.70998
G1 X63.893 Y73.276 E10.72697
G1 X64.239 Y73.121 E10.74399
G1 X64.259 Y73.117 E10.74491
G1 X64.727 Y72.083 E10.79587
G1 X64.78 Y71.976 E10.80123
G1 X65.322 Y70.962 E10.85286
G1 X65.27 Y70.828 E10.85931
G1 X65.21 Y70.454 E10.87632
G1 X65.229 Y70.075 E10.89336
G1 X65.327 Y69.709 E10.91037
G1 X65.477 Y69.408 E10.92547
G1 X66.778 Y67.308 E11.0364
G1 X66.847 Y67.204 E11.042
G1 X67.651 Y66.087 E11.1038
G1 X67.904 Y65.805 E11.12081
G1 X68.21 Y65.581 E11.13783
G1 X68.556 Y65.427 E11.15484
G1 X68.926 Y65.349 E11.17182
G1 X68.933 Y65.349 E11.17213
G1 X70.415 Y63.545 E11.27696
G1 X70.492 Y63.457 E11.28221
G1 X72.169 Y61.666 E11.39238
G1 X72.253 Y61.582 E11.39771
G1 X72.477 Y61.372 E11.4115
G1 X72.473 Y61.334 E11.41322
G1 X72.512 Y60.957 E11.43023
G1 X72.63 Y60.597 E11.44725
G1 X72.82 Y60.269 E11.46427
G0 F4800 X73.079 Y60.601
G1 F1080 X73.314 Y60.312 E11.48099
G1 X73.945 Y59.719 E11.51987
G1 X74.018 Y59.655 E11.52423
G1 X75.88 Y58.132 E11.63224
G1 X76.162 Y57.953 E11.64724
G1 X76.478 Y57.846 E11.66222
G1 X76.811 Y57.817 E11.67723
G1 X77.141 Y57.867 E11.69221
G1 X77.223 Y57.901 E11.6962
G1 X78.35 Y57.093 E11.75847
G1 X78.427 Y57.042 E11.76261
G1 X79.558 Y56.339 E11.82241
G1 X79.557 Y56.286 E11.82479
G1 X79.627 Y55.959 E11.8398
G1 X79.772 Y55.658 E11.8548
G1 X79.985 Y55.401 E11.86979
G1 X80.231 Y55.214 E11.88367
G1 X80.266 Y55.193 E11.8855
G1 X80.328 Y55.157 E11.88872
G1 X82.379 Y54.065 E11.99305
G1 X82.691 Y53.945 E12.00806
G1 X83.022 Y53.901 E12.02305
G1 X83.354 Y53.937 E12.03805
G1 X83.668 Y54.051 E12.05305
G1 X83.736 Y54.096 E12.05671
G1 X85.07 Y53.492 E12.12246
G1 X85.154 Y53.457 E12.12655
G1 X87.453 Y52.591 E12.23685
G1 X87.541 Y52.561 E12.24103
G1 X89.889 Y51.849 E12.3512
G1 X89.976 Y51.826 E12.35524
G1 X91.418 Y51.489 E12.42173
G1 X91.43 Y51.45 E12.42356
G1 X91.601 Y51.163 E12.43856
G1 X91.835 Y50.925 E12.45355
G1 X92.119 Y50.749 E12.46855
G1 X92.478 Y50.638 E12.48542
G1 X94.767 Y50.255 E12.58963
G1 X94.862 Y50.243 E12.59393
G1 X97.234 Y50.011 E12.70095
G1 X97.568 Y50.018 E12.71595
G1 X97.89 Y50.104 E12.73091
G1 X98.184 Y50.265 E12.74596
G1 X98.43 Y50.49 E12.76093
G1 X98.478 Y50.561 E12.76478
G1 X99.954 Y50.512 E12.83109
G1 X100.046 Y50.512 E12.83522
G1 X101.518 Y50.561 E12.90135
G1 X101.542 Y50.523 E12.90337
G1 X101.782 Y50.29 E12.91839
G1 X102.07 Y50.121 E12.93338
G1 X102.39 Y50.025 E12.94838
G1 X102.766 Y50.011 E12.96528
G1 X105.139 Y50.243 E13.07234
G1 X105.234 Y50.255 E13.07664
G1 X107.546 Y50.642 E13.18189
G1 X107.867 Y50.736 E13.19691
G1 X108.156 Y50.904 E13.21192
G1 X108.397 Y51.135 E13.22691
G1 X108.577 Y51.416 E13.24189
G1 X108.604 Y51.495 E13.24564
G1 X110.023 Y51.826 E13.31107
G1 X110.111 Y51.849 E13.31515
G1 X112.459 Y52.561 E13.42532
G1 X112.547 Y52.591 E13.42949
G1 X114.846 Y53.457 E13.5398
G1 X114.93 Y53.492 E13.54389
G1 X116.261 Y54.095 E13.6095
G1 X116.293 Y54.072 E13.61127
G1 X116.604 Y53.948 E13.6263
G1 X116.934 Y53.901 E13.64127
G1 X117.267 Y53.934 E13.65629
G1 X117.621 Y54.065 E13.67324
G1 X119.672 Y55.157 E13.77757
G1 X119.734 Y55.193 E13.78079
G1 X119.769 Y55.214 E13.78263
G1 X120.033 Y55.418 E13.79761
G1 X120.241 Y55.68 E13.81263
G1 X120.381 Y55.983 E13.82761
G1 X120.445 Y56.311 E13.84262
G1 X120.444 Y56.34 E13.84392
G1 X121.573 Y57.042 E13.90362
G1 X121.65 Y57.093 E13.90776
G1 X122.774 Y57.899 E13.96987
G1 X122.819 Y57.879 E13.97208
G1 X123.148 Y57.819 E13.98709
G1 X123.481 Y57.838 E14.00207
G1 X123.8 Y57.936 E14.01706
G1 X124.12 Y58.132 E14.0339
G1 X125.982 Y59.655 E14.14192
G1 X126.142 Y59.809 E14.15189
G1 X126.166 Y59.836 E14.15351
G1 X126.357 Y60.11 E14.16851
G1 X126.477 Y60.422 E14.18352
G1 X126.52 Y60.753 E14.1985
G1 X126.497 Y60.959 E14.20781
G1 X127.473 Y61.873 E14.26785
G1 X127.538 Y61.938 E14.27198
G1 X129.216 Y63.73 E14.38221
G1 X129.276 Y63.799 E14.38631
G1 X130.833 Y65.695 E14.49647
G1 X130.87 Y65.743 E14.4992
G1 X131.165 Y65.767 E14.51249
G1 X131.483 Y65.871 E14.52751
G1 X131.766 Y66.048 E14.5425
G1 X132.024 Y66.321 E14.55936
G1 X132.827 Y67.437 E14.62109
G1 X132.88 Y67.516 E14.62537
G1 X134.155 Y69.567 E14.7338
G1 X134.296 Y69.87 E14.74881
G1 X134.362 Y70.197 E14.76379
G1 X134.348 Y70.531 E14.7788
G1 X134.255 Y70.852 E14.7938
G1 X134.209 Y70.933 E14.79799
G1 X134.868 Y72.165 E14.86072
G1 X134.909 Y72.248 E14.86488
G1 X135.457 Y73.46 E14.9246
G1 X135.508 Y73.465 E14.9269
G1 X135.823 Y73.577 E14.94191
G1 X136.102 Y73.76 E14.9569
G1 X136.33 Y74.005 E14.97192
G1 X136.484 Y74.273 E14.9858
G1 X136.494 Y74.296 E14.98693
G1 X136.521 Y74.362 E14.99013
G1 X137.019 Y75.688 E15.05373
G1 X137.098 Y76.012 E15.0687
G1 X137.098 Y76.346 E15.0837
G1 X137.019 Y76.671 E15.09872
G1 X136.865 Y76.968 E15.11374
G1 X136.858 Y76.976 E15.11422
G1 X136.915 Y77.165 E15.12308
G1 X137.185 Y77.282 E15.13629
G1 X137.452 Y77.483 E15.1513
G1 X137.663 Y77.742 E15.1663
G1 X137.819 Y78.081 E15.18306
G1 X138.185 Y79.273 E15.23904
G1 X138.21 Y79.366 E15.24337
G1 X138.739 Y81.637 E15.34807
G1 X138.757 Y81.725 E15.3521
G1 X139.147 Y84.065 E15.45862
G1 X139.159 Y84.159 E15.46288
G1 X139.412 Y86.756 E15.58004
G1 X139.419 Y86.892 E15.58615
