;FLAVOR:Marlin
;TIME:665
;Filament used: 0.336796m
;Layer height: 0.2
;MINX:91.203
;MINY:77.145
;MINZ:0.3
;MAXX:108.797
;MAXY:107.745
;MAXZ:4.6
;Generated with Cura_SteamEngine mb-master-20191116
M140 S70
M105
M190 S70
M104 S220
M105
M109 S220
M82 ;absolute extrusion mode
;Sliced at: Fri 26-11-2021 12:13:45
G21 ;metric values
M107
G28
M420 S1
G90 ;absolute positioning
G92 E0; reset extruder distance
G1 X0 Y0 Z5 F5000 ;move nozzle up 5mm for safe homing
G29;ABL
M500
M82 ;set extruder to absolute mode
M107 ;start with the fan off
G1 X0 Y0 Z15.0 F5000 ;move the platform down 15mm
G92 E0 ;zero the extruded length
G1 F200 E3 ;extrude 3mm of feed stock
G1 F200 E0 ;Retract
G4 S2 ;Wait for material to fall
G1 F200 E3
G92 E0 ;zero the extruded length again
M117 Printing...
G92 E0
;WIPE
G91
G1 X -20 F3000
G1 X40
G1 X-20
G90

G92 E0
G1 F2400 E-1
;LAYER_COUNT:20
;LAYER:0
M107
G1 F600 Z0.8
G0 F4800 X91.551 Y77.881 Z0.8
;TYPE:SKIRT
G1 F600 Z0.3
G1 F2400 E0.02495
G1 F1080 X91.806 Y77.6 E0.04198
G1 X92.115 Y77.38 E0.05901
G1 X92.462 Y77.228 E0.07602
G1 X93.003 Y77.145 E0.1006
G1 X106.997 Y77.145 E0.72895
G1 X107.374 Y77.185 E0.74597
G1 X107.734 Y77.303 E0.76298
G1 X108.061 Y77.493 E0.77996
G1 X108.342 Y77.748 E0.797
G1 X108.562 Y78.057 E0.81403
G1 X108.714 Y78.404 E0.83104
G1 X108.797 Y78.945 E0.85562
G1 X108.797 Y105.945 E2.06795
G1 X108.757 Y106.322 E2.08497
G1 X108.639 Y106.682 E2.10198
G1 X108.449 Y107.009 E2.11896
G1 X108.194 Y107.29 E2.136
G1 X107.885 Y107.51 E2.15303
G1 X107.538 Y107.662 E2.17004
G1 X106.997 Y107.745 E2.19462
G1 X93.003 Y107.745 E2.82297
G1 X92.626 Y107.705 E2.83999
G1 X92.266 Y107.587 E2.857
G1 X91.939 Y107.397 E2.87398
G1 X91.658 Y107.142 E2.89102
G1 X91.438 Y106.833 E2.90805
G1 X91.286 Y106.486 E2.92506
G1 X91.203 Y105.945 E2.94964
G1 X91.203 Y78.945 E4.16197
G1 X91.243 Y78.568 E4.17899
G1 X91.361 Y78.208 E4.196
G1 X91.551 Y77.881 E4.21298
G0 F4800 X91.948 Y78.024
G1 F1080 X92.196 Y77.801 E4.22796
G1 X92.49 Y77.642 E4.24297
G1 X92.814 Y77.558 E4.258
G1 X93.003 Y77.545 E4.2665
G1 X106.997 Y77.545 E4.89485
G1 X107.329 Y77.585 E4.90986
G1 X107.641 Y77.702 E4.92483
G1 X107.918 Y77.89 E4.93986
G1 X108.141 Y78.138 E4.95483
G1 X108.3 Y78.432 E4.96984
G1 X108.384 Y78.756 E4.98487
G1 X108.397 Y78.945 E4.99338
G1 X108.397 Y105.945 E6.20571
G1 X108.357 Y106.277 E6.22072
G1 X108.24 Y106.589 E6.23568
G1 X108.052 Y106.866 E6.25072
G1 X107.804 Y107.089 E6.26569
G1 X107.51 Y107.248 E6.2807
G1 X107.186 Y107.332 E6.29573
G1 X106.997 Y107.345 E6.30423
G1 X93.003 Y107.345 E6.93258
G1 X92.671 Y107.305 E6.9476
G1 X92.359 Y107.188 E6.96256
G1 X92.082 Y107 E6.97759
G1 X91.859 Y106.752 E6.99257
G1 X91.7 Y106.458 E7.00757
G1 X91.616 Y106.134 E7.0226
G1 X91.603 Y105.945 E7.03111
G1 X91.603 Y78.945 E8.24344
G1 X91.643 Y78.613 E8.25846
G1 X91.76 Y78.301 E8.27342
G1 X91.948 Y78.024 E8.28845
G0 F4800 X92.159 Y78.409
G1 F1080 X92.342 Y78.194 E8.30113
G1 X92.578 Y78.04 E8.31378
G1 X92.848 Y77.957 E8.32646
G1 X93.003 Y77.945 E8.33344
G1 X106.997 Y77.945 E8.96179
G1 X107.276 Y77.985 E8.97445
G1 X107.533 Y78.101 E8.98711
G1 X107.748 Y78.284 E8.99978
G1 X107.902 Y78.52 E9.01244
G1 X107.985 Y78.79 E9.02512
G1 X107.997 Y78.945 E9.0321
G1 X107.997 Y105.945 E10.24443
G1 X107.957 Y106.224 E10.25709
G1 X107.841 Y106.481 E10.26975
G1 X107.658 Y106.696 E10.28243
G1 X107.422 Y106.85 E10.29508
G1 X107.152 Y106.933 E10.30776
G1 X106.997 Y106.945 E10.31474
G1 X93.003 Y106.945 E10.94309
G1 X92.724 Y106.905 E10.95575
G1 X92.467 Y106.789 E10.96841
G1 X92.252 Y106.606 E10.98108
G1 X92.098 Y106.37 E10.99374
G1 X92.015 Y106.1 E11.00642
G1 X92.003 Y105.945 E11.0134
G1 X92.003 Y78.945 E12.22573
G1 X92.043 Y78.666 E12.23839
G1 X92.159 Y78.409 E12.25105
G0 F4800 X92.556 Y78.544
G1 F1080 X92.729 Y78.411 E12.26085
G1 X93.003 Y78.345 E12.2735
G1 X106.997 Y78.345 E12.90185
G1 X107.212 Y78.385 E12.91167
G1 X107.398 Y78.498 E12.92144
G1 X107.531 Y78.671 E12.93124
G1 X107.597 Y78.945 E12.94389
G1 X107.597 Y105.945 E14.15623
G1 X107.557 Y106.16 E14.16604
G1 X107.444 Y106.346 E14.17582
G1 X107.271 Y106.479 E14.18561
G1 X106.997 Y106.545 E14.19827
G1 X93.003 Y106.545 E14.82662
G1 X92.788 Y106.505 E14.83644
G1 X92.602 Y106.392 E14.84621
G1 X92.469 Y106.219 E14.85601
G1 X92.403 Y105.945 E14.86866
G1 X92.403 Y78.945 E16.08099
G1 X92.443 Y78.73 E16.09081
G1 X92.556 Y78.544 E16.10058
G0 F4800 X92.842 Y78.826
G1 F1080 X93.003 Y78.745 E16.10868
G1 X106.997 Y78.745 E16.73702
G1 X107.116 Y78.784 E16.74265
G1 X107.197 Y78.945 E16.75074
G1 X107.197 Y105.945 E17.96307
G1 X107.158 Y106.064 E17.96869
G1 X106.997 Y106.145 E17.97679
G1 X93.003 Y106.145 E18.60513
G1 X92.884 Y106.106 E18.61076
G1 X92.803 Y105.945 E18.61885
G1 X92.803 Y78.945 E19.83118
G1 X92.842 Y78.826 E19.8368
;MESH:Base on top of servo motor v1.stl
G0 F4800 X93.203 Y79.145
;TYPE:WALL-OUTER
G1 F1080 X106.797 Y79.145 E20.44719
G1 X106.797 Y105.745 E21.64156
G1 X93.203 Y105.745 E22.25195
G1 X93.203 Y79.145 E23.44632
G0 F4800 X93.403 Y79.145
G0 X93.643 Y79.585
G1 F2400 E22.44632
G1 F600 Z0.8
G0 F4800 X98.982 Y90.229 Z0.8
G1 F600 Z0.3
G1 F2400 E23.47127
G1 F1080 X98.366 Y90.549 E23.50243
G1 X97.844 Y91.006 E23.53359
G1 X97.445 Y91.574 E23.56475
G1 X97.193 Y92.221 E23.59593
G1 X97.102 Y92.907 E23.627
G1 X97.159 Y93.445 E23.65129
G1 X96.428 Y93.878 E23.68944
G1 X95.665 Y94.515 E23.73407
G1 X95.013 Y95.264 E23.77866
G1 X94.489 Y96.109 E23.82331
G1 X94.106 Y97.026 E23.86793
G1 X93.876 Y97.993 E23.91256
G1 X93.802 Y98.984 E23.95718
G1 X93.888 Y99.974 E24.0018
G1 X94.131 Y100.937 E24.04639
G1 X94.525 Y101.85 E24.09104
G1 X95.06 Y102.688 E24.13568
G1 X95.721 Y103.43 E24.1803
G1 X96.492 Y104.056 E24.2249
G1 X97.354 Y104.551 E24.26953
G1 X98.284 Y104.903 E24.31418
G1 X99.258 Y105.101 E24.35881
G1 X100.251 Y105.14 E24.40343
G1 X101.238 Y105.022 E24.44806
G1 X102.193 Y104.746 E24.4927
G1 X103.092 Y104.321 E24.53735
G1 X103.911 Y103.759 E24.58194
G1 X104.63 Y103.073 E24.62657
G1 X105.23 Y102.28 E24.67122
G1 X105.696 Y101.403 E24.71581
G1 X106.016 Y100.461 E24.76048
G1 X106.18 Y99.481 E24.80509
G1 X106.186 Y98.487 E24.84973
G1 X106.034 Y97.504 E24.89439
G1 X105.726 Y96.56 E24.93897
G1 X105.271 Y95.676 E24.98362
G1 X104.681 Y94.876 E25.02825
G1 X103.971 Y94.181 E25.07286
G1 X103.148 Y93.603 E25.11802
G1 X102.849 Y93.432 E25.13348
G1 X102.904 Y92.907 E25.15719
G1 X102.812 Y92.221 E25.18826
G1 X102.56 Y91.574 E25.21944
G1 X102.161 Y91.006 E25.25061
G1 X101.64 Y90.549 E25.28173
G1 X101.024 Y90.229 E25.31289
G1 X100.35 Y90.064 E25.34405
G1 X99.656 Y90.064 E25.37521
G1 X98.982 Y90.229 E25.40637
G0 F4800 X98.805 Y90.321
G0 X98.604 Y89.93
G1 F2400 E24.40637
G1 F600 Z0.8
G0 F4800 X99.368 Y85.044 Z0.8
G1 F600 Z0.3
G1 F2400 E25.43131
G1 F1080 X100.003 Y85.128 E25.46008
G1 X100.637 Y85.044 E25.48879
G1 X101.229 Y84.799 E25.51756
G1 X101.737 Y84.41 E25.54629
G1 X102.126 Y83.902 E25.57502
G1 X102.371 Y83.31 E25.60379
G1 X102.455 Y82.676 E25.6325
G1 X102.371 Y82.042 E25.66122
G1 X102.126 Y81.45 E25.68999
G1 X101.737 Y80.942 E25.71872
G1 X101.229 Y80.552 E25.74747
G1 X100.637 Y80.308 E25.77622
G1 X100.003 Y80.224 E25.80494
G1 X99.368 Y80.308 E25.8337
G1 X98.777 Y80.552 E25.86241
G1 X98.269 Y80.942 E25.89117
G1 X97.879 Y81.45 E25.91992
G1 X97.634 Y82.042 E25.94869
G1 X97.553 Y82.687 E25.97788
G1 X97.634 Y83.31 E26.00609
G1 X97.879 Y83.902 E26.03486
G1 X98.269 Y84.41 E26.06361
G1 X98.777 Y84.799 E26.09234
G1 X99.368 Y85.044 E26.12107
G0 F4800 X99.566 Y85.07
G0 X99.263 Y85.434
;TYPE:WALL-INNER
G1 F1080 X100.003 Y85.531 E26.15458
G1 X100.742 Y85.434 E26.18805
G1 X101.43 Y85.149 E26.22148
G1 X102.022 Y84.695 E26.25498
G1 X102.476 Y84.103 E26.28848
G1 X102.761 Y83.415 E26.32192
G1 X102.858 Y82.676 E26.35538
G1 X102.761 Y81.937 E26.38885
G1 X102.476 Y81.249 E26.42229
G1 X102.022 Y80.657 E26.45579
G1 X101.43 Y80.202 E26.48931
G1 X100.741 Y79.918 E26.52277
G1 X100.003 Y79.821 E26.5562
G1 X99.264 Y79.918 E26.58966
G1 X98.575 Y80.202 E26.62312
G1 X97.984 Y80.657 E26.65661
G1 X97.53 Y81.248 E26.69008
G1 X97.244 Y81.939 E26.72366
G1 X97.15 Y82.688 E26.75755
G1 X97.244 Y83.414 E26.79042
G1 X97.53 Y84.104 E26.82396
G1 X97.984 Y84.695 E26.85742
G1 X98.575 Y85.148 E26.89086
G1 X99.263 Y85.434 E26.92431
G1 F2400 E25.92431
G1 F600 Z0.8
G0 F4800 X93.603 Y100.48 Z0.8
G1 F600 Z0.3
G1 F2400 E26.94926
G1 F1080 X93.751 Y101.066 E26.97639
G1 X94.171 Y102.038 E27.02394
G1 X94.74 Y102.93 E27.07145
G1 X95.444 Y103.72 E27.11896
G1 X96.265 Y104.387 E27.16645
G1 X97.183 Y104.914 E27.21398
G1 X98.173 Y105.289 E27.26152
G1 X98.45 Y105.345 E27.27421
G1 X93.603 Y105.345 E27.49184
G1 X93.603 Y100.48 E27.71029
G1 F2400 E26.71029
G1 F600 Z0.8
G0 F4800 X94.003 Y102.518 Z0.8
G1 F600 Z0.3
G1 F2400 E27.73523
G1 F1080 X94.42 Y103.172 E27.77006
G1 X95.167 Y104.01 E27.82047
G1 X96.038 Y104.718 E27.87087
G1 X96.433 Y104.945 E27.89132
G1 X94.003 Y104.945 E28.00043
G1 X94.003 Y102.518 E28.10941
G1 F2400 E27.10941
G1 F600 Z0.8
G0 F4800 X93.603 Y97.41 Z0.8
G1 F600 Z0.3
G1 F2400 E28.13435
G1 F1080 X93.603 Y79.545 E28.93651
G1 X106.397 Y79.545 E29.51098
G1 X106.397 Y97.328 E30.30945
G1 X106.096 Y96.405 E30.35305
G1 X105.612 Y95.464 E30.40056
G1 X104.984 Y94.613 E30.44805
G1 X104.228 Y93.872 E30.49558
G1 X103.363 Y93.265 E30.54303
G1 X103.274 Y93.214 E30.54763
G1 X103.307 Y92.901 E30.56177
G1 X103.202 Y92.12 E30.59715
G1 X102.915 Y91.384 E30.63262
G1 X102.461 Y90.737 E30.66811
G1 X101.867 Y90.216 E30.70359
G1 X101.166 Y89.852 E30.73905
G1 X100.398 Y89.664 E30.77456
G1 X99.608 Y89.664 E30.81003
G1 X98.84 Y89.852 E30.84553
G1 X98.139 Y90.216 E30.881
G1 X97.544 Y90.737 E30.91651
G1 X97.09 Y91.384 E30.952
G1 X96.803 Y92.121 E30.98751
G1 X96.699 Y92.902 E31.02289
G1 X96.734 Y93.232 E31.03779
G1 X96.196 Y93.55 E31.06585
G1 X95.384 Y94.228 E31.11335
G1 X94.69 Y95.026 E31.16083
G1 X94.132 Y95.925 E31.20834
G1 X93.724 Y96.902 E31.25588
G1 X93.603 Y97.41 E31.27933
G1 F2400 E30.27933
G1 F600 Z0.8
G0 F4800 X94.003 Y95.374 Z0.8
G1 F600 Z0.3
G1 F2400 E31.30428
G1 F1080 X94.003 Y79.945 E31.99706
G1 X98.254 Y79.945 E32.18793
G1 X97.699 Y80.372 E32.21937
G1 X97.181 Y81.046 E32.25754
G1 X96.854 Y81.836 E32.29593
G1 X96.747 Y82.689 E32.33453
G1 X96.854 Y83.518 E32.37207
G1 X97.181 Y84.306 E32.41037
G1 X97.699 Y84.98 E32.44854
G1 X98.373 Y85.497 E32.48668
G1 X99.158 Y85.824 E32.52487
G1 X100.003 Y85.934 E32.56313
G1 X100.846 Y85.824 E32.6013
G1 X101.632 Y85.498 E32.63951
G1 X102.307 Y84.98 E32.67771
G1 X102.825 Y84.305 E32.71592
G1 X103.151 Y83.519 E32.75412
G1 X103.261 Y82.676 E32.7923
G1 X103.151 Y81.833 E32.83047
G1 X102.825 Y81.047 E32.86868
G1 X102.307 Y80.372 E32.90688
G1 X101.753 Y79.945 E32.93829
G1 X105.997 Y79.945 E33.12885
G1 X105.997 Y95.338 E33.82001
G1 X105.953 Y95.252 E33.82435
G1 X105.287 Y94.35 E33.87469
G1 X104.485 Y93.563 E33.92515
G1 X103.698 Y93.011 E33.96831
G1 X103.71 Y92.895 E33.97355
G1 X103.592 Y92.019 E34.01323
G1 X103.27 Y91.194 E34.053
G1 X102.761 Y90.468 E34.09281
G1 X102.094 Y89.883 E34.13265
G1 X101.308 Y89.475 E34.17241
G1 X100.446 Y89.264 E34.21226
G1 X99.56 Y89.264 E34.25204
G1 X98.698 Y89.475 E34.29189
G1 X97.912 Y89.883 E34.33165
G1 X97.244 Y90.468 E34.37152
G1 X96.735 Y91.194 E34.41133
G1 X96.413 Y92.021 E34.45118
G1 X96.296 Y92.897 E34.49087
G1 X96.309 Y93.019 E34.49637
G1 X95.965 Y93.222 E34.51431
G1 X95.103 Y93.941 E34.56471
G1 X94.367 Y94.788 E34.61509
G1 X94.003 Y95.374 E34.64607
G1 F2400 E33.64607
G1 F600 Z0.8
G0 F4800 X101.56 Y105.345 Z0.8
G1 F600 Z0.3
G1 F2400 E34.67102
G1 F1080 X102.335 Y105.121 E34.70724
G1 X103.292 Y104.669 E34.75476
G1 X104.164 Y104.071 E34.80224
G1 X104.929 Y103.34 E34.84975
G1 X105.568 Y102.496 E34.89728
G1 X106.064 Y101.562 E34.94476
G1 X106.397 Y100.583 E34.9912
G1 X106.397 Y105.345 E35.20501
G1 X101.56 Y105.345 E35.4222
G1 F2400 E34.4222
G1 F600 Z0.8
G0 F4800 X103.597 Y104.945 Z0.8
G1 F600 Z0.3
G1 F2400 E35.44715
G1 F1080 X104.417 Y104.383 E35.49178
G1 X105.229 Y103.607 E35.54222
G1 X105.906 Y102.712 E35.5926
G1 X105.997 Y102.541 E35.6013
G1 X105.997 Y104.945 E35.70924
G1 X103.597 Y104.945 E35.81701
G1 F2400 E34.81701
G1 F600 Z0.8
G0 F4800 X104.801 Y104.555 Z0.8
;TYPE:SKIN
G1 F600 Z0.3
G1 F2400 E35.84195
G1 F1080 X105.521 Y103.867 E35.88667
G1 X105.607 Y103.753 E35.89308
G1 X105.607 Y104.555 E35.92909
G1 X104.801 Y104.555 E35.96528
G0 F4800 X105.295 Y104.164
G1 F1080 X105.546 Y104.414 E35.98119
G1 F2400 E34.98119
G1 F600 Z0.8
G0 F4800 X95.219 Y104.555 Z0.8
G1 F600 Z0.3
G1 F2400 E36.00613
G1 F1080 X94.393 Y104.555 E36.04322
G1 X94.393 Y103.728 E36.08035
G1 X94.896 Y104.293 E36.11432
G1 X95.219 Y104.555 E36.13299
G0 F4800 X94.806 Y104.423
G1 F1080 X94.516 Y104.133 E36.15141
G1 F2400 E35.15141
G1 F600 Z0.8
G0 F4800 X94.393 Y94.165 Z0.8
G1 F600 Z0.3
G1 F2400 E36.17635
G1 F1080 X94.393 Y80.335 E36.79734
G1 X97.235 Y80.335 E36.92495
G1 X96.84 Y80.849 E36.95405
G1 X96.474 Y81.735 E36.9971
G1 X96.353 Y82.689 E37.04028
G1 X96.474 Y83.619 E37.08239
G1 X96.84 Y84.503 E37.12535
G1 X97.421 Y85.259 E37.16816
G1 X98.176 Y85.838 E37.21088
G1 X99.056 Y86.204 E37.25367
G1 X100.003 Y86.328 E37.29656
G1 X100.948 Y86.204 E37.33935
G1 X101.829 Y85.839 E37.38217
G1 X102.586 Y85.259 E37.42499
G1 X103.166 Y84.502 E37.46781
G1 X103.531 Y83.621 E37.51063
G1 X103.655 Y82.676 E37.55343
G1 X103.531 Y81.731 E37.59622
G1 X103.166 Y80.85 E37.63904
G1 X102.77 Y80.335 E37.66821
G1 X105.607 Y80.335 E37.79559
G1 X105.607 Y94.127 E38.41487
G1 X105.582 Y94.093 E38.41677
G1 X104.735 Y93.262 E38.47005
G1 X104.092 Y92.811 E38.50531
G1 X103.972 Y91.921 E38.54563
G1 X103.617 Y91.009 E38.58958
G1 X103.053 Y90.205 E38.63367
G1 X102.316 Y89.559 E38.67768
G1 X101.446 Y89.107 E38.7217
G1 X100.493 Y88.874 E38.76575
G1 X99.513 Y88.874 E38.80976
G1 X98.56 Y89.107 E38.85381
G1 X97.69 Y89.559 E38.89783
G1 X96.952 Y90.205 E38.94187
G1 X96.388 Y91.009 E38.98596
G1 X96.033 Y91.923 E39.02999
G1 X95.917 Y92.798 E39.06962
G1 X95.739 Y92.902 E39.07888
G1 X94.83 Y93.662 E39.13208
G1 X94.393 Y94.165 E39.162
G1 F2400 E38.162
G1 F600 Z0.8
G0 F4800 X94.793 Y93.172 Z0.8
G1 F600 Z0.3
G1 F2400 E39.18694
G1 F1080 X94.793 Y80.735 E39.74538
G1 X96.455 Y80.735 E39.82001
G1 X96.084 Y81.632 E39.86359
G1 X95.95 Y82.69 E39.91148
G1 X96.084 Y83.723 E39.95825
G1 X96.491 Y84.705 E40.00598
G1 X97.136 Y85.544 E40.0535
G1 X97.974 Y86.187 E40.10092
G1 X98.951 Y86.594 E40.14845
G1 X100.003 Y86.731 E40.19608
G1 X101.052 Y86.594 E40.24358
G1 X102.031 Y86.188 E40.29117
G1 X102.871 Y85.544 E40.3387
G1 X103.515 Y84.704 E40.38622
G1 X103.921 Y83.725 E40.43381
G1 X104.058 Y82.676 E40.48131
G1 X103.921 Y81.627 E40.52881
G1 X103.551 Y80.735 E40.57217
G1 X105.207 Y80.735 E40.64653
G1 X105.207 Y93.164 E41.20461
G1 X104.992 Y92.953 E41.21813
G1 X104.465 Y92.584 E41.24702
G1 X104.362 Y91.82 E41.28164
G1 X103.972 Y90.819 E41.32987
G1 X103.353 Y89.936 E41.37829
G1 X102.543 Y89.226 E41.42666
G1 X101.588 Y88.73 E41.47498
G1 X100.541 Y88.474 E41.52337
G1 X99.465 Y88.474 E41.57169
G1 X98.418 Y88.73 E41.62008
G1 X97.463 Y89.226 E41.6684
G1 X96.652 Y89.936 E41.7168
G1 X96.033 Y90.819 E41.76522
G1 X95.643 Y91.823 E41.81358
G1 X95.546 Y92.552 E41.8466
G1 X95.508 Y92.574 E41.84857
G1 X94.793 Y93.172 E41.89043
G0 F4800 X95.1 Y92.837
G1 F1080 X94.852 Y92.589 E41.90617
G0 F4800 X95.407 Y92.579
G1 F1080 X94.852 Y92.023 E41.94145
G0 F4800 X94.852 Y91.457
G1 F1080 X95.54 Y92.145 E41.98514
G0 F4800 X95.636 Y91.677
G1 F1080 X94.852 Y90.892 E42.03495
G0 F4800 X94.852 Y90.326
G1 F1080 X95.794 Y91.269 E42.0948
G0 F4800 X95.952 Y90.861
G1 F1080 X94.852 Y89.76 E42.16468
G0 F4800 X94.852 Y89.195
G1 F1080 X96.172 Y90.515 E42.2485
G0 F4800 X96.405 Y90.182
G1 F1080 X94.852 Y88.629 E42.34712
