;FLAVOR:Marlin
;TIME:952
;Filament used: 0.459858m, 0m
;Layer height: 0.16
;MINX:173.203
;MINY:185.705
;MINZ:0.3
;MAXX:196.799
;MAXY:209.295
;MAXZ:10.4
;Generated with Cura_SteamEngine mb-master-20191116
T0
M140 S70
M105
M190 S70
M104 S220
M105
M109 S220
M82 ;absolute extrusion mode
;Sliced at: Wed 24-11-2021 13:26:38
G21 ;metric values
M107
G28
M420 S1
G90 ;absolute positioning
G92 E0; reset extruder distance
G1 X0 Y0 Z5 F5000 ;move nozzle up 5mm for safe homing
G29;ABL
M500
M82 ;set extruder to absolute mode
M107 ;start with the fan off
G1 X0 Y0 Z15.0 F5000 ;move the platform down 15mm
G92 E0 ;zero the extruded length
G1 F200 E3 ;extrude 3mm of feed stock
G1 F200 E0 ;Retract
G4 S2 ;Wait for material to fall
G1 F200 E3
G92 E0 ;zero the extruded length again
M117 Printing...
G92 E0
;WIPE
G91
G1 Z-0.5
G1 X -20 F3000
G1 X40
G1 X-20
G1 Z0.5
G90

G92 E0
G1 F2400 E-1
;LAYER_COUNT:62
;LAYER:0
M107
G1 F600 Z0.8
G0 F4800 X176.825 Y188.992 Z0.8
;TYPE:SKIRT
G1 F600 Z0.3
G1 F2400 E0.02495
G1 F960 X177.281 Y188.576 E0.05266
G1 X177.367 Y188.502 E0.05775
G1 X177.848 Y188.116 E0.08545
G1 X177.932 Y188.053 E0.09016
G1 X178.433 Y187.697 E0.11776
G1 X178.53 Y187.633 E0.12298
G1 X179.053 Y187.31 E0.15058
G1 X179.145 Y187.256 E0.15537
G1 X179.689 Y186.963 E0.18311
G1 X179.792 Y186.912 E0.18827
G1 X180.35 Y186.656 E0.21584
G1 X180.448 Y186.615 E0.22061
G1 X181.023 Y186.391 E0.24831
G1 X181.133 Y186.352 E0.25355
G1 X181.721 Y186.166 E0.28125
G1 X181.823 Y186.137 E0.28601
G1 X182.42 Y185.986 E0.31366
G1 X182.531 Y185.962 E0.31876
G1 X183.137 Y185.849 E0.34644
G1 X183.247 Y185.831 E0.35144
G1 X183.857 Y185.756 E0.37904
G1 X183.966 Y185.746 E0.38395
G1 X184.581 Y185.708 E0.41162
G1 X184.692 Y185.705 E0.4166
G1 X185.308 Y185.705 E0.44426
G1 X185.419 Y185.708 E0.44925
G1 X186.034 Y185.746 E0.47692
G1 X186.143 Y185.756 E0.48183
G1 X186.753 Y185.831 E0.50943
G1 X186.866 Y185.849 E0.51456
G1 X187.472 Y185.963 E0.54225
G1 X187.578 Y185.986 E0.54712
G1 X188.175 Y186.136 E0.57476
G1 X188.279 Y186.166 E0.57962
G1 X188.867 Y186.352 E0.60731
G1 X188.977 Y186.391 E0.61255
G1 X189.552 Y186.615 E0.64026
G1 X189.65 Y186.656 E0.64503
G1 X190.208 Y186.912 E0.6726
G1 X190.311 Y186.963 E0.67776
G1 X190.853 Y187.255 E0.7054
G1 X190.944 Y187.308 E0.71013
G1 X191.469 Y187.632 E0.73783
G1 X191.567 Y187.697 E0.74311
G1 X192.068 Y188.053 E0.77071
G1 X192.153 Y188.118 E0.77551
G1 X192.634 Y188.505 E0.80323
G1 X192.717 Y188.576 E0.80814
G1 X193.172 Y188.99 E0.83576
G1 X193.253 Y189.067 E0.84078
G1 X193.682 Y189.509 E0.86843
G1 X193.756 Y189.59 E0.87336
G1 X194.157 Y190.057 E0.901
G1 X194.229 Y190.147 E0.90617
G1 X194.599 Y190.638 E0.93378
G1 X194.662 Y190.727 E0.93867
G1 X195.003 Y191.242 E0.96641
G1 X195.061 Y191.335 E0.97133
G1 X195.369 Y191.868 E0.99897
G1 X195.421 Y191.965 E1.00391
G1 X195.696 Y192.516 E1.03156
G1 X195.743 Y192.619 E1.03665
G1 X195.983 Y193.187 E1.06433
G1 X196.023 Y193.292 E1.06938
G1 X196.227 Y193.873 E1.09703
G1 X196.26 Y193.974 E1.1018
G1 X196.429 Y194.565 E1.1294
G1 X196.456 Y194.674 E1.13444
G1 X196.588 Y195.276 E1.16211
G1 X196.609 Y195.387 E1.16719
G1 X196.703 Y195.996 E1.19485
G1 X196.716 Y196.104 E1.19974
G1 X196.773 Y196.717 E1.22738
G1 X196.78 Y196.828 E1.23238
G1 X196.799 Y197.443 E1.26
G1 X196.799 Y197.554 E1.26499
G1 X196.78 Y198.17 E1.29266
G1 X196.773 Y198.282 E1.2977
G1 X196.716 Y198.895 E1.32534
G1 X196.703 Y199.003 E1.33023
G1 X196.609 Y199.612 E1.35789
G1 X196.588 Y199.725 E1.36306
G1 X196.455 Y200.328 E1.39078
G1 X196.429 Y200.429 E1.39546
G1 X196.262 Y201.02 E1.42304
G1 X196.227 Y201.13 E1.42822
G1 X196.022 Y201.711 E1.45589
G1 X195.983 Y201.814 E1.46083
G1 X195.743 Y202.381 E1.48848
G1 X195.696 Y202.482 E1.49348
G1 X195.421 Y203.034 E1.52117
G1 X195.369 Y203.132 E1.52615
G1 X195.061 Y203.665 E1.55379
G1 X195.003 Y203.757 E1.55868
G1 X194.663 Y204.271 E1.58635
G1 X194.6 Y204.361 E1.59128
G1 X194.23 Y204.852 E1.61889
G1 X194.158 Y204.942 E1.62406
G1 X193.757 Y205.409 E1.6517
G1 X193.683 Y205.49 E1.65663
G1 X193.254 Y205.932 E1.68428
G1 X193.175 Y206.008 E1.68921
G1 X192.719 Y206.424 E1.71692
G1 X192.633 Y206.498 E1.72202
G1 X192.152 Y206.884 E1.74971
G1 X192.068 Y206.947 E1.75442
G1 X191.567 Y207.303 E1.78202
G1 X191.47 Y207.367 E1.78724
G1 X190.947 Y207.69 E1.81484
G1 X190.855 Y207.744 E1.81963
G1 X190.311 Y208.037 E1.84737
G1 X190.208 Y208.088 E1.85253
G1 X189.65 Y208.344 E1.8801
G1 X189.552 Y208.385 E1.88487
G1 X188.977 Y208.609 E1.91258
G1 X188.867 Y208.648 E1.91782
G1 X188.279 Y208.834 E1.94551
G1 X188.177 Y208.863 E1.95027
G1 X187.58 Y209.014 E1.97792
G1 X187.469 Y209.038 E1.98302
G1 X186.863 Y209.151 E2.0107
G1 X186.753 Y209.169 E2.0157
G1 X186.143 Y209.244 E2.0433
G1 X186.034 Y209.254 E2.04821
G1 X185.419 Y209.292 E2.07588
G1 X185.308 Y209.295 E2.08087
G1 X184.692 Y209.295 E2.10852
G1 X184.581 Y209.292 E2.11351
G1 X183.966 Y209.254 E2.14118
G1 X183.857 Y209.244 E2.14609
G1 X183.247 Y209.169 E2.17369
G1 X183.134 Y209.151 E2.17883
G1 X182.528 Y209.037 E2.20651
G1 X182.422 Y209.014 E2.21138
G1 X181.825 Y208.864 E2.23902
G1 X181.721 Y208.834 E2.24388
G1 X181.133 Y208.648 E2.27157
G1 X181.023 Y208.609 E2.27681
G1 X180.448 Y208.385 E2.30452
G1 X180.35 Y208.344 E2.30929
G1 X179.792 Y208.088 E2.33686
G1 X179.689 Y208.037 E2.34202
G1 X179.145 Y207.744 E2.36976
G1 X179.053 Y207.69 E2.37455
G1 X178.53 Y207.367 E2.40215
G1 X178.433 Y207.303 E2.40737
G1 X177.932 Y206.947 E2.43497
G1 X177.847 Y206.882 E2.43977
G1 X177.366 Y206.495 E2.46749
G1 X177.282 Y206.424 E2.47243
G1 X176.826 Y206.009 E2.50012
G1 X176.746 Y205.932 E2.5051
G1 X176.317 Y205.49 E2.53276
G1 X176.243 Y205.409 E2.53769
G1 X175.842 Y204.942 E2.56532
G1 X175.77 Y204.852 E2.5705
G1 X175.4 Y204.361 E2.5981
G1 X175.337 Y204.271 E2.60304
G1 X174.997 Y203.757 E2.63071
G1 X174.939 Y203.665 E2.63559
G1 X174.631 Y203.132 E2.66323
G1 X174.579 Y203.034 E2.66821
G1 X174.304 Y202.482 E2.6959
G1 X174.257 Y202.381 E2.70091
G1 X174.017 Y201.814 E2.72855
G1 X173.977 Y201.708 E2.73364
G1 X173.773 Y201.127 E2.76129
G1 X173.74 Y201.026 E2.76606
G1 X173.571 Y200.435 E2.79366
G1 X173.544 Y200.325 E2.79875
G1 X173.412 Y199.722 E2.82646
G1 X173.391 Y199.612 E2.83149
G1 X173.297 Y199.003 E2.85916
G1 X173.284 Y198.895 E2.86404
G1 X173.227 Y198.282 E2.89169
G1 X173.22 Y198.163 E2.89704
G1 X173.203 Y197.525 E2.9257
G1 X173.203 Y197.425 E2.93019
G1 X173.22 Y196.833 E2.95678
G1 X173.227 Y196.718 E2.96195
G1 X173.284 Y196.105 E2.9896
G1 X173.297 Y195.997 E2.99448
G1 X173.391 Y195.388 E3.02215
G1 X173.412 Y195.275 E3.02731
G1 X173.545 Y194.672 E3.05503
G1 X173.571 Y194.571 E3.05972
G1 X173.738 Y193.98 E3.08729
G1 X173.773 Y193.87 E3.09248
G1 X173.978 Y193.289 E3.12014
G1 X174.017 Y193.186 E3.12509
G1 X174.257 Y192.619 E3.15273
G1 X174.304 Y192.518 E3.15773
G1 X174.579 Y191.966 E3.18542
G1 X174.631 Y191.868 E3.19041
G1 X174.939 Y191.335 E3.21805
G1 X174.997 Y191.243 E3.22293
G1 X175.337 Y190.729 E3.2506
G1 X175.4 Y190.639 E3.25553
G1 X175.77 Y190.148 E3.28314
G1 X175.842 Y190.058 E3.28831
G1 X176.243 Y189.591 E3.31595
G1 X176.317 Y189.51 E3.32088
G1 X176.746 Y189.068 E3.34854
G1 X176.825 Y188.992 E3.35346
G0 F4800 X177.094 Y189.288
G1 F960 X177.55 Y188.872 E3.38117
G1 X177.618 Y188.814 E3.38519
G1 X178.099 Y188.428 E3.41288
G1 X178.164 Y188.379 E3.41653
G1 X178.665 Y188.023 E3.44413
G1 X178.74 Y187.973 E3.44818
G1 X179.263 Y187.65 E3.47578
G1 X179.335 Y187.608 E3.47952
G1 X179.879 Y187.315 E3.50727
G1 X179.959 Y187.276 E3.51126
G1 X180.517 Y187.02 E3.53883
G1 X180.593 Y186.987 E3.54255
G1 X181.168 Y186.763 E3.57026
G1 X181.254 Y186.733 E3.57435
G1 X181.842 Y186.547 E3.60204
G1 X181.921 Y186.525 E3.60572
G1 X182.518 Y186.374 E3.63337
G1 X182.604 Y186.355 E3.63732
G1 X183.21 Y186.242 E3.665
G1 X183.296 Y186.228 E3.66891
G1 X183.906 Y186.153 E3.69651
G1 X183.991 Y186.146 E3.70034
G1 X184.606 Y186.108 E3.72801
G1 X184.692 Y186.105 E3.73187
G1 X185.308 Y186.105 E3.75953
G1 X185.394 Y186.108 E3.76339
G1 X186.009 Y186.146 E3.79106
G1 X186.094 Y186.153 E3.79489
G1 X186.704 Y186.228 E3.82249
G1 X186.792 Y186.242 E3.82649
G1 X187.398 Y186.356 E3.85417
G1 X187.48 Y186.374 E3.85794
G1 X188.077 Y186.524 E3.88558
G1 X188.158 Y186.547 E3.88936
G1 X188.746 Y186.733 E3.91706
G1 X188.832 Y186.763 E3.92115
G1 X189.407 Y186.987 E3.94885
G1 X189.483 Y187.02 E3.95257
G1 X190.041 Y187.276 E3.98014
G1 X190.121 Y187.315 E3.98414
G1 X190.663 Y187.607 E4.01178
G1 X190.734 Y187.649 E4.01548
G1 X191.259 Y187.973 E4.04318
G1 X191.335 Y188.023 E4.04727
G1 X191.836 Y188.379 E4.07487
G1 X191.903 Y188.429 E4.07862
G1 X192.384 Y188.816 E4.10634
G1 X192.448 Y188.871 E4.11013
G1 X192.903 Y189.285 E4.13775
G1 X192.966 Y189.346 E4.14169
G1 X193.395 Y189.788 E4.16934
G1 X193.452 Y189.851 E4.17316
G1 X193.853 Y190.318 E4.2008
G1 X193.909 Y190.387 E4.20479
G1 X194.279 Y190.878 E4.23239
G1 X194.328 Y190.948 E4.23623
G1 X194.669 Y191.463 E4.26396
G1 X194.714 Y191.536 E4.26781
G1 X195.022 Y192.069 E4.29545
G1 X195.063 Y192.144 E4.29929
G1 X195.338 Y192.695 E4.32694
G1 X195.375 Y192.775 E4.3309
G1 X195.615 Y193.343 E4.35859
G1 X195.646 Y193.424 E4.36248
G1 X195.85 Y194.005 E4.39013
G1 X195.875 Y194.084 E4.39385
G1 X196.044 Y194.675 E4.42145
G1 X196.066 Y194.76 E4.42539
G1 X196.198 Y195.362 E4.45307
G1 X196.214 Y195.448 E4.457
G1 X196.308 Y196.057 E4.48466
G1 X196.318 Y196.141 E4.48846
G1 X196.375 Y196.754 E4.51611
G1 X196.38 Y196.841 E4.52002
G1 X196.399 Y197.456 E4.54765
G1 X196.399 Y197.542 E4.55151
G1 X196.38 Y198.158 E4.57918
G1 X196.375 Y198.245 E4.58309
G1 X196.318 Y198.858 E4.61074
G1 X196.308 Y198.942 E4.61453
G1 X196.214 Y199.551 E4.6422
G1 X196.197 Y199.639 E4.64623
G1 X196.064 Y200.242 E4.67395
G1 X196.044 Y200.321 E4.67761
G1 X195.877 Y200.912 E4.70519
G1 X195.85 Y200.997 E4.70919
G1 X195.645 Y201.578 E4.73686
G1 X195.614 Y201.658 E4.74071
G1 X195.374 Y202.225 E4.76835
G1 X195.338 Y202.303 E4.77221
G1 X195.063 Y202.855 E4.7999
G1 X195.022 Y202.931 E4.80378
G1 X194.714 Y203.464 E4.83142
G1 X194.67 Y203.536 E4.83521
G1 X194.33 Y204.05 E4.86288
G1 X194.28 Y204.121 E4.86678
G1 X193.91 Y204.612 E4.89439
G1 X193.854 Y204.681 E4.89838
G1 X193.453 Y205.148 E4.92601
G1 X193.396 Y205.211 E4.92983
G1 X192.967 Y205.653 E4.95749
G1 X192.906 Y205.712 E4.9613
G1 X192.45 Y206.128 E4.98901
G1 X192.382 Y206.186 E4.99302
G1 X191.901 Y206.572 E5.02072
G1 X191.836 Y206.621 E5.02437
G1 X191.335 Y206.977 E5.05197
G1 X191.26 Y207.027 E5.05602
G1 X190.737 Y207.35 E5.08362
G1 X190.665 Y207.392 E5.08736
G1 X190.121 Y207.685 E5.1151
G1 X190.041 Y207.724 E5.1191
G1 X189.483 Y207.98 E5.14666
G1 X189.407 Y208.013 E5.15038
G1 X188.832 Y208.237 E5.17809
G1 X188.746 Y208.267 E5.18218
G1 X188.158 Y208.453 E5.20987
G1 X188.079 Y208.475 E5.21356
G1 X187.482 Y208.626 E5.24121
G1 X187.396 Y208.645 E5.24516
G1 X186.79 Y208.758 E5.27284
G1 X186.704 Y208.772 E5.27675
G1 X186.094 Y208.847 E5.30435
G1 X186.009 Y208.854 E5.30818
G1 X185.394 Y208.892 E5.33584
G1 X185.308 Y208.895 E5.33971
G1 X184.692 Y208.895 E5.36737
G1 X184.606 Y208.892 E5.37123
G1 X183.991 Y208.854 E5.3989
G1 X183.906 Y208.847 E5.40273
G1 X183.296 Y208.772 E5.43032
G1 X183.208 Y208.758 E5.43433
G1 X182.602 Y208.644 E5.46201
G1 X182.52 Y208.626 E5.46578
G1 X181.923 Y208.476 E5.49342
G1 X181.842 Y208.453 E5.4972
G1 X181.254 Y208.267 E5.52489
G1 X181.168 Y208.237 E5.52898
G1 X180.593 Y208.013 E5.55669
G1 X180.517 Y207.98 E5.56041
G1 X179.959 Y207.724 E5.58798
G1 X179.879 Y207.685 E5.59197
G1 X179.335 Y207.392 E5.61972
G1 X179.263 Y207.35 E5.62346
G1 X178.74 Y207.027 E5.65106
G1 X178.665 Y206.977 E5.65511
G1 X178.164 Y206.621 E5.6827
G1 X178.097 Y206.571 E5.68646
G1 X177.616 Y206.184 E5.71418
G1 X177.552 Y206.128 E5.718
G1 X177.096 Y205.713 E5.74568
G1 X177.033 Y205.653 E5.74959
G1 X176.604 Y205.211 E5.77725
G1 X176.547 Y205.148 E5.78106
G1 X176.146 Y204.681 E5.8087
G1 X176.09 Y204.612 E5.81269
G1 X175.72 Y204.121 E5.84029
G1 X175.67 Y204.05 E5.84419
G1 X175.33 Y203.536 E5.87186
G1 X175.286 Y203.464 E5.87565
G1 X174.978 Y202.931 E5.90329
G1 X174.937 Y202.855 E5.90717
G1 X174.662 Y202.303 E5.93486
G1 X174.626 Y202.225 E5.93872
G1 X174.386 Y201.658 E5.96637
G1 X174.354 Y201.576 E5.97032
G1 X174.15 Y200.995 E5.99797
G1 X174.125 Y200.916 E6.00169
G1 X173.956 Y200.325 E6.02929
G1 X173.934 Y200.239 E6.03327
G1 X173.802 Y199.636 E6.06099
G1 X173.786 Y199.551 E6.06487
G1 X173.692 Y198.942 E6.09254
G1 X173.682 Y198.858 E6.09634
G1 X173.625 Y198.245 E6.12398
G1 X173.619 Y198.152 E6.12817
G1 X173.602 Y197.514 E6.15683
G1 X173.603 Y197.437 E6.16028
G1 X173.62 Y196.845 E6.18688
G1 X173.625 Y196.755 E6.19092
G1 X173.682 Y196.142 E6.21857
G1 X173.692 Y196.058 E6.22236
G1 X173.786 Y195.449 E6.25003
G1 X173.803 Y195.361 E6.25406
G1 X173.936 Y194.758 E6.28178
G1 X173.956 Y194.679 E6.28544
G1 X174.123 Y194.088 E6.31302
G1 X174.15 Y194.003 E6.31702
G1 X174.355 Y193.422 E6.34469
G1 X174.386 Y193.342 E6.34854
G1 X174.626 Y192.775 E6.37619
G1 X174.662 Y192.697 E6.38004
G1 X174.937 Y192.145 E6.40773
G1 X174.978 Y192.069 E6.41161
G1 X175.286 Y191.536 E6.43925
G1 X175.33 Y191.464 E6.44304
G1 X175.67 Y190.95 E6.47071
G1 X175.72 Y190.879 E6.47461
G1 X176.09 Y190.388 E6.50222
G1 X176.146 Y190.319 E6.50621
G1 X176.547 Y189.852 E6.53384
G1 X176.604 Y189.789 E6.53766
G1 X177.033 Y189.347 E6.56532
G1 X177.094 Y189.288 E6.56913
G0 F4800 X177.364 Y189.583
G1 F960 X177.82 Y189.167 E6.59684
G1 X177.868 Y189.126 E6.59968
G1 X178.349 Y188.74 E6.62737
G1 X178.396 Y188.705 E6.63
G1 X178.897 Y188.349 E6.6576
G1 X178.951 Y188.313 E6.66051
G1 X179.474 Y187.99 E6.68811
G1 X179.525 Y187.961 E6.69075
G1 X180.069 Y187.668 E6.71849
G1 X180.126 Y187.639 E6.72136
G1 X180.684 Y187.383 E6.74893
G1 X180.738 Y187.36 E6.75156
G1 X181.313 Y187.136 E6.77927
G1 X181.374 Y187.115 E6.78217
G1 X181.962 Y186.929 E6.80986
G1 X182.019 Y186.913 E6.81252
G1 X182.616 Y186.762 E6.84017
G1 X182.678 Y186.748 E6.84302
G1 X183.284 Y186.635 E6.8707
G1 X183.345 Y186.625 E6.87348
G1 X183.955 Y186.55 E6.90107
G1 X184.015 Y186.545 E6.90378
G1 X184.63 Y186.507 E6.93144
G1 X184.692 Y186.505 E6.93423
G1 X185.308 Y186.505 E6.96189
G1 X185.37 Y186.507 E6.96467
G1 X185.985 Y186.545 E6.99234
G1 X186.045 Y186.55 E6.99504
G1 X186.655 Y186.625 E7.02264
G1 X186.718 Y186.635 E7.0255
G1 X187.324 Y186.749 E7.05319
G1 X187.383 Y186.762 E7.0559
G1 X187.98 Y186.912 E7.08354
G1 X188.038 Y186.929 E7.08626
G1 X188.626 Y187.115 E7.11395
G1 X188.687 Y187.136 E7.11684
G1 X189.262 Y187.36 E7.14455
G1 X189.316 Y187.383 E7.14719
G1 X189.874 Y187.639 E7.17475
G1 X189.931 Y187.668 E7.17762
G1 X190.473 Y187.96 E7.20527
G1 X190.524 Y187.989 E7.2079
G1 X191.049 Y188.313 E7.2356
G1 X191.103 Y188.349 E7.23852
G1 X191.604 Y188.705 E7.26611
G1 X191.652 Y188.741 E7.26881
G1 X192.133 Y189.128 E7.29653
G1 X192.179 Y189.167 E7.29924
G1 X192.634 Y189.581 E7.32686
G1 X192.679 Y189.625 E7.32968
G1 X193.108 Y190.067 E7.35734
G1 X193.149 Y190.112 E7.36007
G1 X193.55 Y190.579 E7.38771
G1 X193.59 Y190.628 E7.39055
G1 X193.96 Y191.119 E7.41816
G1 X193.995 Y191.169 E7.4209
G1 X194.336 Y191.684 E7.44863
G1 X194.368 Y191.736 E7.45137
G1 X194.676 Y192.269 E7.47901
G1 X194.705 Y192.322 E7.48173
G1 X194.98 Y192.873 E7.50938
G1 X195.006 Y192.931 E7.51223
G1 X195.246 Y193.499 E7.53992
G1 X195.269 Y193.557 E7.54272
G1 X195.473 Y194.138 E7.57037
G1 X195.49 Y194.194 E7.573
G1 X195.659 Y194.785 E7.6006
G1 X195.675 Y194.846 E7.60343
G1 X195.807 Y195.448 E7.6311
G1 X195.818 Y195.509 E7.63388
G1 X195.912 Y196.118 E7.66155
G1 X195.92 Y196.178 E7.66427
G1 X195.977 Y196.791 E7.69191
G1 X195.981 Y196.853 E7.6947
G1 X196 Y197.468 E7.72233
G1 X196 Y197.53 E7.72512
