;FLAVOR:Marlin
;TIME:13042
;Filament used: 24.8573m, 0m
;Layer height: 0.3
;MINX:76.314
;MINY:163.185
;MINZ:0.3
;MAXX:328.85
;MAXY:252.306
;MAXZ:20.3
;Generated with Cura_SteamEngine mb-master-20191116
T0
M140 S70
M105
M190 S70
M104 S220
M105
M109 S220
M82 ;absolute extrusion mode
;Sliced at: Mon 29-11-2021 22:20:03
G21 ;metric values
M107
G28
M420 S1
G90 ;absolute positioning
G92 E0; reset extruder distance
G1 X0 Y0 Z5 F5000 ;move nozzle up 5mm for safe homing
G29;ABL
M500
M82 ;set extruder to absolute mode
M107 ;start with the fan off
G1 X0 Y0 Z15.0 F5000 ;move the platform down 15mm
G92 E0 ;zero the extruded length
G1 F200 E3 ;extrude 3mm of feed stock
G1 F200 E0 ;Retract
G4 S2 ;Wait for material to fall
G1 F200 E3
G92 E0 ;zero the extruded length again
M117 Printing...
G92 E0
T0;WIPE
G91
G1 Z-0.5
G1 X -20 F3000
G1 X40
G1 X-20
G1 Z0.5
G90

G92 E0
G1 F2400 E-1
;LAYER_COUNT:66
;LAYER:0
M107
G1 F600 Z0.8
G0 F4800 X90.685 Y165.582 Z0.8
;TYPE:SKIRT
G1 F600 Z0.3
G1 F2400 E0.02495
G1 F1080 X90.907 Y165.478 E0.04146
G1 X93.395 Y164.49 E0.22176
G1 X93.626 Y164.414 E0.23814
G1 X96.208 Y163.721 E0.41819
G1 X96.448 Y163.671 E0.4347
G1 X99.096 Y163.284 E0.61495
G1 X99.339 Y163.263 E0.63137
G1 X102.012 Y163.185 E0.81148
G1 X102.256 Y163.192 E0.82792
G1 X104.919 Y163.425 E1.00797
G1 X105.161 Y163.46 E1.02443
G1 X107.783 Y164.002 E1.20476
G1 X107.902 Y164.031 E1.21301
G1 X235.536 Y198.23 E10.11263
G1 X235.96 Y198.344 E10.1422
G1 X312.685 Y177.784 E15.49209
G1 X313.27 Y177.627 E15.53288
G1 X313.674 Y177.56 E15.56046
G1 X314.084 Y177.572 E15.58809
G1 X314.482 Y177.664 E15.6156
G1 X314.856 Y177.832 E15.64322
G1 X315.19 Y178.069 E15.6708
G1 X315.472 Y178.366 E15.69838
G1 X315.69 Y178.712 E15.72593
G1 X315.842 Y179.111 E15.75468
G1 X328.783 Y227.408 E19.12232
G1 X328.85 Y227.812 E19.1499
G1 X328.838 Y228.222 E19.17753
G1 X328.746 Y228.621 E19.20511
G1 X328.578 Y228.994 E19.23266
G1 X328.341 Y229.328 E19.26024
G1 X328.044 Y229.61 E19.28783
G1 X327.698 Y229.828 E19.31537
G1 X327.298 Y229.98 E19.34419
G1 X244.859 Y252.068 E25.09244
G1 X244.235 Y252.238 E25.136
G1 X243.831 Y252.306 E25.1636
G1 X243.422 Y252.294 E25.19116
G1 X243.142 Y252.239 E25.21037
G1 X96.02 Y212.818 E35.46885
G1 X94.906 Y212.519 E35.54653
G1 X94.79 Y212.484 E35.55469
G1 X92.25 Y211.642 E35.73492
G1 X92.024 Y211.552 E35.75131
G1 X89.602 Y210.423 E35.93128
G1 X89.386 Y210.307 E35.9478
G1 X87.108 Y208.901 E36.1281
G1 X86.909 Y208.762 E36.14444
G1 X84.81 Y207.103 E36.32464
G1 X84.627 Y206.94 E36.34115
G1 X82.736 Y205.049 E36.52126
G1 X82.573 Y204.866 E36.53777
G1 X80.915 Y202.768 E36.71787
G1 X80.776 Y202.569 E36.73422
G1 X79.371 Y200.292 E36.91443
G1 X79.255 Y200.076 E36.93094
G1 X78.125 Y197.652 E37.11107
G1 X78.034 Y197.425 E37.12754
G1 X77.194 Y194.888 E37.30753
G1 X77.131 Y194.653 E37.32392
G1 X76.59 Y192.032 E37.50417
G1 X76.555 Y191.791 E37.52057
G1 X76.321 Y189.129 E37.70055
G1 X76.314 Y188.884 E37.71706
G1 X76.392 Y186.21 E37.89724
G1 X76.413 Y185.967 E37.91367
G1 X76.801 Y183.318 E38.09398
G1 X76.851 Y183.078 E38.1105
G1 X77.543 Y180.497 E38.29047
G1 X77.619 Y180.265 E38.30691
G1 X78.607 Y177.779 E38.48709
G1 X78.71 Y177.559 E38.50345
G1 X79.98 Y175.202 E38.68377
G1 X80.109 Y174.994 E38.70026
G1 X81.641 Y172.806 E38.88016
G1 X81.792 Y172.614 E38.89661
G1 X83.57 Y170.616 E39.07675
G1 X83.743 Y170.443 E39.09322
G1 X85.743 Y168.663 E39.27355
G1 X85.935 Y168.512 E39.29
G1 X88.123 Y166.98 E39.4699
G1 X88.33 Y166.852 E39.48629
G1 X90.685 Y165.582 E39.6665
G0 F4800 X90.97 Y166.11
G1 F1080 X91.128 Y166.036 E39.67825
G1 X93.616 Y165.048 E39.85855
G1 X93.781 Y164.993 E39.87027
G1 X96.363 Y164.3 E40.05032
G1 X96.535 Y164.265 E40.06214
G1 X99.183 Y163.878 E40.24239
G1 X99.356 Y163.863 E40.25408
G1 X102.029 Y163.785 E40.43419
G1 X102.204 Y163.79 E40.44598
G1 X104.867 Y164.023 E40.62602
G1 X105.04 Y164.048 E40.6378
G1 X107.662 Y164.59 E40.81813
G1 X107.746 Y164.61 E40.82394
G1 X235.38 Y198.809 E49.72356
G1 X235.958 Y198.965 E49.76388
G1 X312.841 Y178.363 E55.12478
G1 X313.426 Y178.206 E55.16557
G1 X313.768 Y178.156 E55.18885
G1 X314.112 Y178.185 E55.2121
G1 X314.441 Y178.292 E55.2354
G1 X314.737 Y178.472 E55.25874
G1 X314.983 Y178.715 E55.28203
G1 X315.167 Y179.008 E55.30533
G1 X315.263 Y179.267 E55.32393
G1 X328.204 Y227.564 E58.69157
G1 X328.254 Y227.906 E58.71485
G1 X328.225 Y228.251 E58.73816
G1 X328.118 Y228.579 E58.7614
G1 X327.938 Y228.875 E58.78473
G1 X327.695 Y229.121 E58.80802
G1 X327.402 Y229.305 E58.83133
G1 X327.143 Y229.401 E58.84993
G1 X244.698 Y251.491 E64.59861
G1 X244.078 Y251.659 E64.64187
G1 X243.736 Y251.71 E64.66516
G1 X243.298 Y251.66 E64.69486
G1 X96.176 Y212.239 E74.95333
G1 X95.063 Y211.94 E75.03095
G1 X94.979 Y211.915 E75.03685
G1 X92.439 Y211.073 E75.21708
G1 X92.277 Y211.009 E75.22881
G1 X89.855 Y209.88 E75.40879
G1 X89.701 Y209.796 E75.4206
G1 X87.423 Y208.39 E75.6009
G1 X87.281 Y208.291 E75.61256
G1 X85.182 Y206.632 E75.79276
G1 X85.051 Y206.516 E75.80454
G1 X83.16 Y204.625 E75.98466
G1 X83.044 Y204.494 E75.99645
G1 X81.386 Y202.396 E76.17655
G1 X81.286 Y202.254 E76.18825
G1 X79.881 Y199.977 E76.36845
G1 X79.798 Y199.823 E76.38023
G1 X78.668 Y197.399 E76.56036
G1 X78.604 Y197.236 E76.57216
G1 X77.764 Y194.699 E76.75215
G1 X77.719 Y194.531 E76.76386
G1 X77.178 Y191.91 E76.94411
G1 X77.153 Y191.738 E76.95582
G1 X76.919 Y189.076 E77.1358
G1 X76.914 Y188.901 E77.14759
G1 X76.992 Y186.227 E77.32777
G1 X77.007 Y186.054 E77.33947
G1 X77.395 Y183.405 E77.51978
G1 X77.43 Y183.234 E77.53154
G1 X78.122 Y180.653 E77.71151
G1 X78.177 Y180.487 E77.72329
G1 X79.165 Y178.001 E77.90347
G1 X79.238 Y177.843 E77.91519
G1 X80.508 Y175.486 E78.09552
G1 X80.6 Y175.338 E78.10725
G1 X82.132 Y173.15 E78.28715
G1 X82.24 Y173.013 E78.2989
G1 X84.018 Y171.015 E78.47904
G1 X84.142 Y170.892 E78.4908
G1 X86.142 Y169.112 E78.67113
G1 X86.279 Y169.003 E78.68292
G1 X88.467 Y167.471 E78.86282
G1 X88.615 Y167.38 E78.87452
G1 X90.97 Y166.11 E79.05473
G0 F4800 X91.255 Y166.638
G1 F1080 X91.35 Y166.594 E79.06178
G1 X93.838 Y165.606 E79.24208
G1 X93.937 Y165.573 E79.24911
G1 X96.519 Y164.88 E79.42916
G1 X96.622 Y164.858 E79.43626
G1 X99.27 Y164.471 E79.6165
G1 X99.374 Y164.462 E79.62353
G1 X102.047 Y164.384 E79.80364
G1 X102.151 Y164.387 E79.81065
G1 X104.814 Y164.62 E79.99069
G1 X104.918 Y164.636 E79.99778
G1 X107.54 Y165.178 E80.1781
G1 X107.591 Y165.19 E80.18163
G1 X235.225 Y199.389 E89.08125
G1 X235.959 Y199.586 E89.13244
G1 X312.996 Y178.943 E94.50406
G1 X313.581 Y178.786 E94.54486
G1 X313.847 Y178.756 E94.56289
G1 X314.11 Y178.805 E94.58091
G1 X314.347 Y178.93 E94.59895
G1 X314.536 Y179.118 E94.61691
G1 X314.683 Y179.422 E94.63965
G1 X327.624 Y227.719 E98.00729
G1 X327.654 Y227.985 E98.02532
G1 X327.605 Y228.248 E98.04333
G1 X327.48 Y228.485 E98.06138
G1 X327.292 Y228.674 E98.07934
G1 X326.988 Y228.821 E98.10208
G1 X244.545 Y250.911 E103.85063
G1 X243.921 Y251.08 E103.89417
G1 X243.655 Y251.11 E103.9122
G1 X243.453 Y251.08 E103.92595
G1 X96.331 Y211.659 E114.18443
G1 X95.218 Y211.36 E114.26205
G1 X95.168 Y211.345 E114.26556
G1 X92.628 Y210.503 E114.44579
G1 X92.531 Y210.465 E114.45281
G1 X90.109 Y209.336 E114.63279
G1 X90.016 Y209.286 E114.6399
G1 X87.738 Y207.88 E114.8202
G1 X87.653 Y207.82 E114.8272
G1 X85.554 Y206.161 E115.0074
G1 X85.476 Y206.091 E115.01446
G1 X83.585 Y204.2 E115.19458
G1 X83.515 Y204.122 E115.20164
G1 X81.857 Y202.024 E115.38174
G1 X81.797 Y201.939 E115.38875
G1 X80.392 Y199.662 E115.56895
G1 X80.342 Y199.569 E115.57606
G1 X79.212 Y197.145 E115.75619
G1 X79.174 Y197.048 E115.76321
G1 X78.334 Y194.511 E115.9432
G1 X78.307 Y194.41 E115.95024
G1 X77.766 Y191.789 E116.13049
G1 X77.75 Y191.686 E116.13751
G1 X77.516 Y189.024 E116.3175
G1 X77.513 Y188.919 E116.32457
G1 X77.591 Y186.245 E116.50475
G1 X77.601 Y186.141 E116.51178
G1 X77.989 Y183.492 E116.6921
G1 X78.01 Y183.389 E116.69918
G1 X78.702 Y180.808 E116.87916
G1 X78.735 Y180.709 E116.88618
G1 X79.723 Y178.223 E117.06636
G1 X79.767 Y178.128 E117.07341
G1 X81.037 Y175.771 E117.25374
G1 X81.092 Y175.682 E117.26078
G1 X82.624 Y173.494 E117.44068
G1 X82.689 Y173.412 E117.44773
G1 X84.467 Y171.414 E117.62787
G1 X84.541 Y171.34 E117.63491
G1 X86.541 Y169.56 E117.81524
G1 X86.623 Y169.495 E117.82229
G1 X88.811 Y167.963 E118.00219
G1 X88.9 Y167.908 E118.00923
G1 X91.255 Y166.638 E118.18944
G0 F4800 X91.54 Y167.166
G1 F1080 X91.571 Y167.151 E118.19176
G1 X94.059 Y166.163 E118.37206
G1 X94.092 Y166.152 E118.3744
G1 X96.674 Y165.459 E118.55446
G1 X96.709 Y165.452 E118.55686
G1 X99.357 Y165.065 E118.73711
G1 X99.391 Y165.062 E118.7394
G1 X102.064 Y164.984 E118.91951
G1 X102.099 Y164.985 E118.92187
G1 X104.762 Y165.218 E119.10191
G1 X104.797 Y165.223 E119.1043
G1 X107.419 Y165.765 E119.28463
G1 X107.436 Y165.769 E119.2858
G1 X235.07 Y199.968 E128.18542
G1 X235.958 Y200.207 E128.24735
G1 X313.151 Y179.522 E133.62986
G1 X313.736 Y179.365 E133.67066
G1 X313.89 Y179.365 E133.68103
G1 X314.024 Y179.44 E133.69137
G1 X314.104 Y179.577 E133.70206
G1 X327.045 Y227.874 E137.0697
G1 X327.045 Y228.028 E137.08007
G1 X326.97 Y228.162 E137.09041
G1 X326.833 Y228.242 E137.1011
G1 X244.388 Y250.332 E142.84978
G1 X243.764 Y250.501 E142.89332
G1 X243.608 Y250.501 E142.90382
G1 X96.486 Y211.08 E153.1623
G1 X95.373 Y210.781 E153.23992
G1 X95.357 Y210.776 E153.24105
G1 X92.817 Y209.934 E153.42127
G1 X92.784 Y209.921 E153.42366
G1 X90.362 Y208.792 E153.60364
G1 X90.331 Y208.775 E153.60602
G1 X88.053 Y207.369 E153.78632
G1 X88.025 Y207.349 E153.78864
G1 X85.926 Y205.69 E153.96884
G1 X85.9 Y205.667 E153.97117
G1 X84.009 Y203.776 E154.15129
G1 X83.986 Y203.75 E154.15363
G1 X82.328 Y201.652 E154.33373
G1 X82.308 Y201.624 E154.33605
G1 X80.903 Y199.347 E154.51625
G1 X80.886 Y199.316 E154.51864
G1 X79.756 Y196.892 E154.69876
G1 X79.743 Y196.859 E154.70115
G1 X78.903 Y194.322 E154.88115
G1 X78.894 Y194.289 E154.88345
G1 X78.353 Y191.668 E155.0637
G1 X78.348 Y191.633 E155.06608
G1 X78.114 Y188.971 E155.24606
G1 X78.113 Y188.936 E155.24842
G1 X78.191 Y186.262 E155.4286
G1 X78.194 Y186.228 E155.4309
G1 X78.582 Y183.579 E155.61121
G1 X78.589 Y183.544 E155.61362
G1 X79.281 Y180.963 E155.79359
G1 X79.292 Y180.93 E155.79594
G1 X80.28 Y178.444 E155.97611
G1 X80.295 Y178.413 E155.97843
G1 X81.565 Y176.056 E156.15876
G1 X81.583 Y176.026 E156.16111
G1 X83.115 Y173.838 E156.34101
G1 X83.137 Y173.811 E156.34336
G1 X84.915 Y171.813 E156.52349
G1 X84.94 Y171.788 E156.52587
G1 X86.94 Y170.008 E156.7062
G1 X86.967 Y169.986 E156.70855
G1 X89.155 Y168.454 E156.88845
G1 X89.185 Y168.436 E156.8908
G1 X91.54 Y167.166 E157.07101
G1 F2400 E156.07101
G1 F600 Z0.8
G0 F4800 X97.633 Y180.058 Z0.8
G1 F600 Z0.3
G1 F2400 E157.09595
G1 F1080 X99.127 Y179.525 E157.20279
G1 X100.673 Y179.264 E157.30839
G1 X102.253 Y179.275 E157.41481
G1 X103.801 Y179.559 E157.52081
G1 X105.278 Y180.107 E157.62691
G1 X106.635 Y180.902 E157.73284
G1 X107.838 Y181.925 E157.8392
G1 X108.847 Y183.144 E157.94578
G1 X109.601 Y184.449 E158.04729
G1 X110.142 Y185.938 E158.15399
G1 X110.414 Y187.479 E158.25938
G1 X110.403 Y189.124 E158.37018
G1 X110.119 Y190.671 E158.47611
G1 X109.571 Y192.148 E158.58222
G1 X108.776 Y193.505 E158.68814
G1 X107.75 Y194.712 E158.79484
G1 X106.54 Y195.713 E158.90061
G1 X105.175 Y196.491 E159.00643
G1 X103.681 Y197.024 E159.11326
G1 X102.134 Y197.284 E159.21892
G1 X100.554 Y197.273 E159.32533
G1 X99.007 Y196.99 E159.43126
G1 X97.53 Y196.442 E159.53736
G1 X96.173 Y195.647 E159.64329
G1 X94.966 Y194.621 E159.74998
G1 X93.965 Y193.41 E159.8558
G1 X93.187 Y192.045 E159.96162
G1 X92.654 Y190.551 E160.06846
G1 X92.394 Y189.005 E160.17405
G1 X92.405 Y187.425 E160.28046
G1 X92.688 Y185.877 E160.38645
G1 X93.236 Y184.4 E160.49256
G1 X94.031 Y183.043 E160.59848
G1 X95.054 Y181.84 E160.70484
G1 X96.271 Y180.834 E160.81119
G1 X97.633 Y180.058 E160.91677
G0 F4800 X97.884 Y180.605
G1 F1080 X99.28 Y180.107 E161.01659
G1 X100.718 Y179.865 E161.11481
G1 X102.198 Y179.874 E161.21449
G1 X103.637 Y180.138 E161.31303
G1 X105.023 Y180.653 E161.41261
G1 X106.287 Y181.393 E161.51126
G1 X107.41 Y182.348 E161.61055
G1 X108.355 Y183.491 E161.71043
G1 X109.053 Y184.7 E161.80446
G1 X109.56 Y186.094 E161.90436
G1 X109.813 Y187.53 E162.00257
G1 X109.803 Y189.069 E162.10623
G1 X109.54 Y190.507 E162.20469
G1 X109.025 Y191.893 E162.30427
G1 X108.284 Y193.157 E162.40295
G1 X107.327 Y194.284 E162.50253
G1 X106.196 Y195.219 E162.60137
G1 X104.923 Y195.944 E162.70004
G1 X103.533 Y196.44 E162.79944
G1 X102.085 Y196.683 E162.89833
G1 X100.609 Y196.674 E162.99774
G1 X99.171 Y196.411 E163.0962
G1 X97.785 Y195.896 E163.19578
G1 X96.521 Y195.155 E163.29447
G1 X95.398 Y194.201 E163.39371
G1 X94.457 Y193.062 E163.49322
G1 X93.734 Y191.793 E163.59159
G1 X93.238 Y190.403 E163.69099
G1 X92.995 Y188.956 E163.78981
G1 X93.004 Y187.48 E163.88922
G1 X93.267 Y186.041 E163.98775
G1 X93.782 Y184.655 E164.08733
G1 X94.522 Y183.391 E164.18598
G1 X95.474 Y182.272 E164.28493
G1 X96.618 Y181.326 E164.38492
G1 X97.884 Y180.605 E164.48304
G0 F4800 X98.139 Y181.152
G1 F1080 X99.43 Y180.691 E164.57537
G1 X100.768 Y180.465 E164.66676
G1 X102.142 Y180.474 E164.75931
G1 X103.479 Y180.719 E164.85086
G1 X104.767 Y181.198 E164.94341
G1 X105.934 Y181.881 E165.03448
G1 X106.981 Y182.772 E165.12708
G1 X107.86 Y183.833 E165.21987
G1 X108.508 Y184.955 E165.30714
G1 X108.978 Y186.249 E165.39986
G1 X109.213 Y187.582 E165.49103
G1 X109.204 Y189.013 E165.58741
G1 X108.959 Y190.349 E165.67889
G1 X108.48 Y191.637 E165.77145
G1 X107.795 Y192.807 E165.86276
G1 X106.907 Y193.852 E165.95512
G1 X105.851 Y194.725 E166.0474
G1 X104.674 Y195.396 E166.13865
G1 X103.378 Y195.858 E166.23132
G1 X102.04 Y196.083 E166.3227
G1 X100.67 Y196.074 E166.41498
G1 X99.324 Y195.828 E166.50714
G1 X98.041 Y195.351 E166.59933
G1 X96.871 Y194.666 E166.69064
G1 X95.826 Y193.778 E166.783
G1 X94.953 Y192.722 E166.87528
G1 X94.282 Y191.544 E166.96659
G1 X93.82 Y190.248 E167.05926
G1 X93.595 Y188.911 E167.15058
G1 X93.604 Y187.541 E167.24285
G1 X93.85 Y186.194 E167.33507
G1 X94.327 Y184.911 E167.42726
G1 X95.01 Y183.744 E167.51834
G1 X95.9 Y182.698 E167.61084
G1 X96.955 Y181.825 E167.70307
G1 X98.139 Y181.152 E167.79479
G0 F4800 X98.388 Y181.7
G1 F1080 X99.58 Y181.274 E167.88005
G1 X100.819 Y181.065 E167.96468
G1 X102.081 Y181.074 E168.04968
G1 X103.321 Y181.301 E168.13458
G1 X104.508 Y181.742 E168.21987
G1 X105.591 Y182.376 E168.30439
G1 X106.553 Y183.195 E168.38948
G1 X107.363 Y184.173 E168.47501
G1 X107.962 Y185.211 E168.55573
G1 X108.396 Y186.404 E168.64123
G1 X108.613 Y187.633 E168.72528
G1 X108.604 Y188.952 E168.81412
G1 X108.377 Y190.19 E168.8989
G1 X107.936 Y191.378 E168.98424
G1 X107.302 Y192.461 E169.06877
G1 X106.483 Y193.423 E169.15386
G1 X105.511 Y194.228 E169.23886
G1 X104.42 Y194.849 E169.32341
G1 X103.227 Y195.275 E169.40873
G1 X101.991 Y195.483 E169.49315
G1 X100.725 Y195.474 E169.57842
G1 X99.488 Y195.248 E169.66311
G1 X98.3 Y194.807 E169.74846
G1 X97.217 Y194.173 E169.83298
G1 X96.252 Y193.352 E169.91832
G1 X95.452 Y192.385 E170.00284
G1 X94.829 Y191.29 E170.0877
G1 X94.403 Y190.097 E170.17302
G1 X94.195 Y188.862 E170.25737
G1 X94.204 Y187.595 E170.3427
G1 X94.43 Y186.359 E170.42733
G1 X94.871 Y185.17 E170.51274
G1 X95.505 Y184.087 E170.59726
G1 X96.323 Y183.126 E170.68226
G1 X97.296 Y182.321 E170.76732
G1 X98.388 Y181.7 E170.85192
G0 F4800 X98.644 Y182.245
G1 F1080 X99.733 Y181.856 E170.92981
G1 X100.864 Y181.666 E171.00705
G1 X102.025 Y181.673 E171.08525
G1 X103.162 Y181.882 E171.16311
G1 X104.247 Y182.285 E171.24107
G1 X105.242 Y182.867 E171.3187
G1 X106.121 Y183.615 E171.39644
G1 X106.873 Y184.524 E171.4759
